; GCode generated by CraftWare

G28 X Y ; home horizontally
G28 Z ; home vertically


M104 S250 ;set head temp (no wait)
M190 S65 ;set bed temp (wait)
M109 S250 ;set head temp (wait)

; ------------------------------------
; Raft Layer #0
; ------------------------------------
M106 S0 ;turn off fan
G21 ; mm
G90 ; abs
G92 E0 ;reset extr
G0 F600 Z0.300
;segType:Raft
G0 F3000 E-1.00000
G0 F600 Z2.300
G0 X92.704 Y113.511 F5400
G0 F600 Z0.300
G0 F3000 E0.00000
G1 X90.643 Y111.450 E0.09696 F600
G1 X90.450 Y110.097 E0.14240
G1 X89.419 Y110.097 E0.17668
G1 X87.293 Y108.100 E0.27369
G1 X86.907 Y107.456 E0.29868
G1 X86.907 Y103.333 E0.43580
G1 X86.971 Y101.336 E0.50226
G1 X89.033 Y99.275 E0.59921
G1 X90.321 Y99.017 E0.64291
G1 X90.514 Y98.180 E0.67149
G1 X90.514 Y78.598 E1.32280
G1 X90.321 Y77.761 E1.35137
G1 X89.354 Y77.696 E1.38359
G1 X87.293 Y75.635 E1.48055
G1 X86.907 Y74.990 E1.50553
G1 X86.907 Y62.623 E1.91689
G1 X87.035 Y61.721 E1.94719
G1 X89.097 Y59.659 E2.04414
G1 X89.806 Y59.337 E2.07004
G1 X94.959 Y59.337 E2.24144
G1 X95.796 Y59.531 E2.27004
G1 X97.858 Y61.592 E2.36699
G1 X99.919 Y59.659 E2.46096
G1 X100.627 Y59.337 E2.48686
G1 X101.143 Y59.337 E2.50400
G1 X101.336 Y58.500 E2.53257
G1 X102.238 Y57.340 E2.58143
G1 X103.784 Y55.794 E2.65414
G1 X104.750 Y55.730 E2.68636
G1 X104.943 Y54.893 E2.71494
G1 X105.845 Y53.733 E2.76379
G1 X107.455 Y52.251 E2.83658
G1 X112.093 Y52.251 E2.99084
G1 X112.158 Y51.285 E3.02304
G1 X113.059 Y50.126 E3.07190
G1 X114.670 Y48.644 E3.14469
G1 X145.590 Y48.644 E4.17308
G1 X146.363 Y48.902 E4.20018
G1 X148.424 Y50.963 E4.29714
G1 X148.489 Y51.930 E4.32935
G1 X148.682 Y52.251 E4.34184
G1 X152.804 Y52.251 E4.47895
G1 X153.577 Y52.509 E4.50605
G1 X155.638 Y54.570 E4.60301
G1 X155.703 Y55.537 E4.63523
G1 X156.540 Y55.730 E4.66380
G1 X157.700 Y56.632 E4.71266
G1 X159.182 Y58.242 E4.78545
G1 X159.182 Y59.273 E4.81973
G1 X160.148 Y59.337 E4.85193
G1 X160.792 Y59.724 E4.87692
G1 X161.307 Y59.466 E4.89608
G1 X163.239 Y59.337 E4.96050
G1 X169.423 Y59.337 E5.16617
G1 X171.356 Y59.466 E5.23059
G1 X173.417 Y61.527 E5.32755
G1 X173.611 Y62.365 E5.35614
G1 X173.611 Y71.641 E5.66466
G1 X171.614 Y73.767 E5.76168
G1 X170.969 Y74.153 E5.78666
G1 X170.003 Y74.217 E5.81886
G1 X170.003 Y75.248 E5.85314
G1 X169.681 Y75.828 E5.87520
G1 X170.003 Y76.536 E5.90109
G1 X170.003 Y98.180 E6.62097
G1 X170.196 Y99.017 E6.64954
G1 X171.227 Y99.017 E6.68382
G1 X173.288 Y101.078 E6.78078
G1 X173.611 Y101.787 E6.80668
G1 X173.611 Y111.063 E7.11519
G1 X172.709 Y112.223 E7.16405
G1 X171.098 Y113.704 E7.23684
G1 X162.853 Y113.704 E7.51108
G1 X162.789 Y114.670 E7.54328
G1 X161.887 Y115.830 E7.59213
G1 X160.276 Y117.312 E7.66493
G1 X159.246 Y117.312 E7.69921
G1 X159.182 Y118.278 E7.73141
G1 X158.280 Y119.437 E7.78026
G1 X156.669 Y120.919 E7.85305
G1 X152.546 Y120.919 E7.99017
G1 X152.096 Y120.983 E8.00531
G1 X152.096 Y122.014 E8.03959
G1 X150.035 Y124.075 E8.13655
G1 X149.455 Y124.526 E8.16099
G1 X145.332 Y124.526 E8.29811
G1 X144.881 Y124.590 E8.31325
G1 X144.881 Y125.621 E8.34753
G1 X142.820 Y127.682 E8.44449
G1 X142.240 Y128.134 E8.46892
G1 X118.535 Y128.134 E9.25736
G1 X117.955 Y127.940 E9.27769
G1 X115.894 Y125.879 E9.37465
G1 X115.701 Y124.526 E9.42009
G1 X111.578 Y124.526 E9.55721
G1 X110.740 Y124.333 E9.58580
G1 X108.679 Y122.271 E9.68276
G1 X108.486 Y120.919 E9.72820
G1 X104.364 Y120.919 E9.86532
G1 X103.526 Y120.726 E9.89391
G1 X101.465 Y118.664 E9.99087
G1 X101.272 Y117.312 E10.03631
G1 X100.241 Y117.312 E10.07059
G1 X98.115 Y115.315 E10.16760
G1 X97.728 Y114.670 E10.19259
G1 X97.664 Y113.704 E10.22479
G1 X93.542 Y113.704 E10.36191
G1 X92.704 Y113.511 E10.39050
G0 X119.694 Y95.410 F5400
G1 X140.694 Y95.410 E11.08895 F600
G1 X140.887 Y94.573 E11.11752
G1 X140.887 Y82.205 E11.52888
G1 X140.823 Y79.693 E11.61245
G1 X132.578 Y79.693 E11.88669
G1 X130.645 Y79.564 E11.95110
G1 X127.811 Y78.276 E12.05466
G1 X127.167 Y77.889 E12.07964
G1 X125.234 Y77.761 E12.14406
G1 X121.112 Y77.761 E12.28118
G1 X119.630 Y77.825 E12.33049
G1 X119.630 Y90.192 E12.74185
G1 X119.694 Y95.410 E12.91539
G0 X120.323 Y96.248 F5400
G1 X120.323 Y127.425 E13.95235 F600
G0 X122.323 Y127.425 F5400
G1 X122.323 Y96.248 E14.98931 F600
G0 X124.323 Y96.248 F5400
G1 X124.323 Y127.425 E16.02626 F600
G0 X126.323 Y127.425 F5400
G1 X126.323 Y96.248 E17.06322 F600
G0 X128.323 Y96.248 F5400
G1 X128.323 Y127.425 E18.10018 F600
G0 X130.323 Y127.425 F5400
G1 X130.323 Y96.248 E19.13714 F600
G0 X132.323 Y96.248 F5400
G1 X132.323 Y127.425 E20.17410 F600
G0 X134.323 Y127.425 F5400
G1 X134.323 Y96.248 E21.21106 F600
G0 X136.323 Y96.248 F5400
G1 X136.323 Y127.425 E22.24802 F600
G0 X138.323 Y127.425 F5400
G1 X138.323 Y96.248 E23.28498 F600
G0 X140.323 Y96.248 F5400
G1 X140.323 Y127.425 E24.32193 F600
G0 X142.323 Y127.038 F5400
G1 X142.323 Y49.482 E26.90148 F600
G0 X144.323 Y49.482 F5400
G1 X144.323 Y124.075 E29.38246 F600
G0 X146.323 Y123.817 F5400
G1 X146.323 Y50.126 E31.83345 F600
G0 X148.323 Y53.089 F5400
G1 X148.323 Y123.817 E34.18589 F600
G0 X150.323 Y122.658 F5400
G1 X150.323 Y53.089 E36.49976 F600
G0 X152.323 Y53.089 F5400
G1 X152.323 Y120.210 E38.73222 F600
G0 X154.323 Y120.210 F5400
G1 X154.323 Y54.506 E40.91755 F600
G0 X156.323 Y56.567 F5400
G1 X156.323 Y120.210 E43.03431 F600
G0 X158.323 Y118.278 F5400
G1 X158.323 Y58.500 E45.02253 F600
G0 X160.323 Y60.432 F5400
G1 X160.323 Y116.345 E46.88220 F600
G0 X162.323 Y113.124 F5400
G1 X162.323 Y60.175 E48.64331 F600
G0 X164.323 Y60.175 F5400
G1 X164.323 Y112.996 E50.40014 F600
G0 X166.323 Y112.996 F5400
G1 X166.323 Y60.175 E52.15697 F600
G0 X168.323 Y60.175 F5400
G1 X168.323 Y112.996 E53.91380 F600
G0 X170.323 Y112.996 F5400
G1 X170.323 Y99.855 E54.35086 F600
G0 X172.323 Y101.401 F5400
G1 X172.323 Y111.450 E54.68509 F600
G0 X170.323 Y73.444 F5400
G1 X170.323 Y60.175 E55.12644 F600
G0 X172.323 Y61.721 F5400
G1 X172.323 Y71.898 E55.46495 F600
G0 X140.323 Y78.984 F5400
G1 X140.323 Y49.482 E56.44620 F600
G0 X138.323 Y49.482 F5400
G1 X138.323 Y78.984 E57.42746 F600
G0 X136.323 Y78.984 F5400
G1 X136.323 Y49.482 E58.40871 F600
G0 X134.323 Y49.482 F5400
G1 X134.323 Y78.984 E59.38997 F600
G0 X132.323 Y78.984 F5400
G1 X132.323 Y49.482 E60.37122 F600
G0 X130.323 Y49.482 F5400
G1 X130.323 Y78.598 E61.33962 F600
G0 X128.323 Y77.567 F5400
G1 X128.323 Y49.482 E62.27374 F600
G0 X126.323 Y49.482 F5400
G1 X126.323 Y77.052 E63.19072 F600
G0 X124.323 Y77.052 F5400
G1 X124.323 Y49.482 E64.10770 F600
G0 X122.323 Y49.482 F5400
G1 X122.323 Y77.052 E65.02468 F600
G0 X120.323 Y77.052 F5400
G1 X120.323 Y49.482 E65.94165 F600
G0 X118.323 Y49.482 F5400
G1 X118.323 Y127.167 E68.52548 F600
G0 X116.323 Y124.075 F5400
G1 X116.323 Y49.482 E71.00646 F600
G0 X114.323 Y50.126 F5400
G1 X114.323 Y123.817 E73.45745 F600
G0 X112.323 Y123.817 F5400
G1 X112.323 Y53.089 E75.80989 F600
G0 X110.323 Y53.089 F5400
G1 X110.323 Y122.787 E78.12805 F600
G0 X108.323 Y120.210 F5400
G1 X108.323 Y53.089 E80.36051 F600
G0 X106.323 Y54.506 F5400
G1 X106.323 Y120.210 E82.54584 F600
G0 X104.323 Y120.210 F5400
G1 X104.323 Y56.567 E84.66261 F600
G0 X102.323 Y58.500 F5400
G1 X102.323 Y118.407 E86.65511 F600
G0 X100.323 Y116.474 F5400
G1 X100.323 Y60.432 E88.51906 F600
G0 X98.323 Y62.494 F5400
G1 X98.323 Y113.253 E90.20733 F600
G0 X96.323 Y112.996 F5400
G1 X96.323 Y61.334 E91.92559 F600
G0 X94.323 Y60.175 F5400
G1 X94.323 Y112.996 E93.68242 F600
G0 X92.323 Y112.094 F5400
G1 X92.323 Y60.175 E95.40926 F600
G0 X90.323 Y60.175 F5400
G1 X90.323 Y77.052 E95.97058 F600
G0 X88.323 Y75.506 F5400
G1 X88.323 Y61.721 E96.42907 F600
G0 X90.323 Y99.855 F5400
G1 X90.323 Y109.388 E96.74615 F600
G0 X88.323 Y107.971 F5400
G1 X88.323 Y101.272 E96.96897 F600



; ------------------------------------
; Raft Layer #1
; ------------------------------------
G92 E0 ;reset extr
G0 F600 Z0.600
;segType:Raft
G0 X87.100 Y101.142 F7200
G1 X173.288 Y101.142 E2.86663 F2400
G0 X173.546 Y102.476 F7200
G1 X86.842 Y102.476 E5.75040 F2400
G1 X86.842 Y103.809 E5.79475
G1 X173.546 Y103.809 E8.67852
G1 X173.546 Y105.142 E8.72287
G1 X86.842 Y105.142 E11.60664
G1 X86.842 Y106.476 E11.65099
G1 X173.546 Y106.476 E14.53476
G1 X173.546 Y107.809 E14.57910
G1 X86.971 Y107.809 E17.45859
G0 X88.260 Y109.142 F7200
G1 X173.546 Y109.142 E20.29523 F2400
G1 X173.546 Y110.476 E20.33958
G1 X90.450 Y110.476 E23.10337
G0 X90.965 Y111.809 F7200
G1 X173.031 Y111.809 E25.83288 F2400
G0 X171.742 Y113.142 F7200
G1 X92.253 Y113.142 E28.47670 F2400
G0 X97.664 Y114.476 F7200
G1 X162.724 Y114.476 E30.64060 F2400
G0 X161.822 Y115.809 F7200
G1 X98.566 Y115.809 E32.74450 F2400
G0 X99.854 Y117.142 F7200
G1 X160.534 Y117.142 E34.76272 F2400
G0 X159.117 Y118.476 F7200
G1 X101.272 Y118.476 E36.68666 F2400
G0 X102.560 Y119.809 F7200
G1 X157.829 Y119.809 E38.52490 F2400
G0 X152.031 Y121.142 F7200
G1 X108.486 Y121.142 E39.97321 F2400
G0 X108.873 Y122.476 F7200
G1 X151.516 Y122.476 E41.39153 F2400
G0 X150.228 Y123.809 F7200
G1 X110.161 Y123.809 E42.72415 F2400
G0 X115.701 Y125.142 F7200
G1 X144.817 Y125.142 E43.69255 F2400
G0 X143.915 Y126.476 F7200
G1 X116.474 Y126.476 E44.60525 F2400
G0 X117.762 Y127.809 F7200
G1 X142.626 Y127.809 E45.43224 F2400
G0 X172.000 Y99.809 F7200
G1 X88.388 Y99.809 E48.21318 F2400
G0 X90.450 Y98.476 F7200
G1 X169.939 Y98.476 E50.85699 F2400
G1 X169.939 Y97.142 E50.90134
G1 X90.450 Y97.142 E53.54515
G1 X90.450 Y95.809 E53.58950
G1 X169.939 Y95.809 E56.23331
G1 X169.939 Y94.476 E56.27766
G1 X140.823 Y94.476 E57.24605
G1 X140.823 Y93.142 E57.29040
G1 X169.939 Y93.142 E58.25880
G1 X169.939 Y91.809 E58.30315
G1 X140.823 Y91.809 E59.27154
G1 X140.823 Y90.476 E59.31589
G1 X169.939 Y90.476 E60.28429
G1 X169.939 Y89.142 E60.32863
G1 X140.823 Y89.142 E61.29703
G1 X140.823 Y87.809 E61.34138
G1 X169.939 Y87.809 E62.30978
G1 X169.939 Y86.476 E62.35412
G1 X140.823 Y86.476 E63.32252
G1 X140.823 Y85.142 E63.36687
G1 X169.939 Y85.142 E64.33527
G1 X169.939 Y83.809 E64.37962
G1 X140.823 Y83.809 E65.34802
G1 X140.823 Y82.476 E65.39237
G1 X169.939 Y82.476 E66.36077
G1 X169.939 Y81.142 E66.40512
G1 X140.823 Y81.142 E67.37351
G1 X140.823 Y79.809 E67.41786
G1 X169.939 Y79.809 E68.38626
G1 X169.939 Y78.476 E68.43061
G1 X128.197 Y78.476 E69.81893
G0 X119.566 Y78.476 F7200
G1 X90.450 Y78.476 E70.78733 F2400
G1 X90.450 Y79.809 E70.83168
G1 X119.566 Y79.809 E71.80008
G1 X119.566 Y81.142 E71.84443
G1 X90.450 Y81.142 E72.81283
G1 X90.450 Y82.476 E72.85718
G1 X119.566 Y82.476 E73.82558
G1 X119.566 Y83.809 E73.86993
G1 X90.450 Y83.809 E74.83833
G1 X90.450 Y85.142 E74.88268
G1 X119.566 Y85.142 E75.85108
G1 X119.566 Y86.476 E75.89543
G1 X90.450 Y86.476 E76.86383
G1 X90.450 Y87.809 E76.90818
G1 X119.566 Y87.809 E77.87657
G1 X119.566 Y89.142 E77.92092
G1 X90.450 Y89.142 E78.88932
G1 X90.450 Y90.476 E78.93367
G1 X119.566 Y90.476 E79.90207
G1 X119.566 Y91.809 E79.94642
G1 X90.450 Y91.809 E80.91482
G1 X90.450 Y93.142 E80.95917
G1 X119.566 Y93.142 E81.92757
G1 X119.566 Y94.476 E81.97192
G1 X90.450 Y94.476 E82.94032
G0 X88.775 Y77.142 F7200
G1 X169.939 Y77.142 E85.63983 F2400
G0 X169.552 Y75.809 F7200
G1 X87.358 Y75.809 E88.37363 F2400
G0 X87.487 Y61.142 F7200
G1 X97.407 Y61.142 E88.70357 F2400
G1 X98.308 Y61.142 E88.73356
G1 X173.031 Y61.142 E91.21883
G0 X173.546 Y62.476 F7200
G1 X86.842 Y62.476 E94.10260 F2400
G1 X86.842 Y63.809 E94.14695
G1 X173.546 Y63.809 E97.03072
G1 X173.546 Y65.142 E97.07507
G1 X86.842 Y65.142 E99.95885
G1 X86.842 Y66.476 E100.00320
G1 X173.546 Y66.476 E102.88697
G1 X173.546 Y67.809 E102.93132
G1 X86.842 Y67.809 E105.81509
G1 X86.842 Y69.142 E105.85944
G1 X173.546 Y69.142 E108.74322
G1 X173.546 Y70.476 E108.78757
G1 X86.842 Y70.476 E111.67134
G1 X86.842 Y71.809 E111.71569
G1 X173.546 Y71.809 E114.59946
G0 X172.129 Y73.142 F7200
G1 X86.842 Y73.142 E117.43610 F2400
G1 X86.842 Y74.476 E117.48045
G1 X169.939 Y74.476 E120.24425
G0 X171.614 Y59.809 F7200
G1 X160.921 Y59.809 E120.59990 F2400
G1 X160.792 Y59.809 E120.60419
G1 X99.726 Y59.809 E122.63525
G0 X101.272 Y58.476 F7200
G1 X159.117 Y58.476 E124.55920 F2400
G0 X158.086 Y57.142 F7200
G1 X102.431 Y57.142 E126.41029 F2400
G0 X103.719 Y55.809 F7200
G1 X156.798 Y55.809 E128.17569 F2400
G0 X155.510 Y54.476 F7200
G1 X105.008 Y54.476 E129.85539 F2400
G0 X106.425 Y53.142 F7200
G1 X154.092 Y53.142 E131.44083 F2400
G0 X148.424 Y51.809 F7200
G1 X112.093 Y51.809 E132.64919 F2400
G0 X112.609 Y50.476 F7200
G1 X147.909 Y50.476 E133.82326 F2400
G0 X146.491 Y49.142 F7200
G1 X114.026 Y49.142 E134.90306 F2400
G0 X95.989 Y59.809 F7200
G1 X88.904 Y59.809 E135.13873 F2400



; ------------------------------------
; Raft Layer #2
; ------------------------------------
G92 E0 ;reset extr
G0 F600 Z0.900
;segType:Raft
G0 X87.123 Y61.721 F7200
G1 X87.123 Y75.506 E0.45849 F2400
G1 X87.523 Y75.892 E0.47699
G1 X87.523 Y61.334 E0.96119
G1 X87.923 Y60.948 E0.97969
G1 X87.923 Y76.279 E1.48960
G1 X88.323 Y76.665 E1.50810
G1 X88.323 Y60.561 E2.04372
G1 X88.723 Y60.046 E2.06541
G1 X88.723 Y77.181 E2.63531
G1 X89.123 Y77.567 E2.65381
G1 X89.123 Y59.659 E3.24942
G1 X89.523 Y59.402 E3.26525
G1 X89.523 Y77.825 E3.87799
G1 X89.923 Y77.825 E3.89130
G1 X89.923 Y59.402 E4.50404
G1 X90.323 Y59.402 E4.51735
G1 X90.323 Y77.825 E5.13010
G0 X101.123 Y59.402 F7200
G1 X101.123 Y117.376 E7.05832 F2400
G1 X100.723 Y117.376 E7.07163
G1 X100.723 Y59.402 E8.99986
G1 X100.323 Y59.402 E9.01316
G1 X100.323 Y117.376 E10.94139
G1 X99.923 Y117.247 E10.95536
G1 X99.923 Y59.659 E12.87074
G1 X99.523 Y60.175 E12.89243
G1 X99.523 Y116.732 E14.77353
G1 X99.123 Y116.345 E14.79203
G1 X99.123 Y60.561 E16.64741
G1 X98.723 Y60.948 E16.66591
G1 X98.723 Y115.959 E18.49558
G1 X98.323 Y115.572 E18.51408
G1 X98.323 Y61.334 E20.31805
G1 X97.923 Y61.721 E20.33655
G1 X97.923 Y115.186 E22.11480
G0 X97.523 Y113.769 F7200
G1 X97.523 Y61.334 E23.85878 F2400
G1 X97.123 Y60.948 E23.87727
G1 X97.123 Y113.769 E25.63411
G1 X96.723 Y113.769 E25.64741
G1 X96.723 Y60.561 E27.41709
G1 X96.323 Y60.175 E27.43559
G1 X96.323 Y113.769 E29.21813
G1 X95.923 Y113.769 E29.23144
G1 X95.923 Y59.659 E31.03111
G1 X95.523 Y59.402 E31.04694
G1 X95.523 Y113.769 E32.85519
G1 X95.123 Y113.769 E32.86849
G1 X95.123 Y59.402 E34.67674
G1 X94.723 Y59.402 E34.69005
G1 X94.723 Y113.769 E36.49830
G1 X94.323 Y113.769 E36.51161
G1 X94.323 Y59.402 E38.31986
G1 X93.923 Y59.402 E38.33316
G1 X93.923 Y113.769 E40.14141
G1 X93.523 Y113.769 E40.15472
G1 X93.523 Y59.402 E41.96297
G1 X93.123 Y59.402 E41.97628
G1 X93.123 Y113.769 E43.78453
G1 X92.723 Y113.640 E43.79850
G1 X92.723 Y59.402 E45.60247
G1 X92.323 Y59.402 E45.61577
G1 X92.323 Y113.253 E47.40688
G1 X91.923 Y112.738 E47.42858
G1 X91.923 Y59.402 E49.20254
G1 X91.523 Y59.402 E49.21585
G1 X91.523 Y112.351 E50.97697
G1 X91.123 Y111.965 E50.99547
G1 X91.123 Y59.402 E52.74373
G1 X90.723 Y59.402 E52.75703
G1 X90.723 Y111.578 E54.49244
G0 X90.323 Y110.161 F7200
G1 X90.323 Y99.082 E54.86095 F2400
G1 X89.923 Y99.082 E54.87425
G1 X89.923 Y110.161 E55.24276
G1 X89.523 Y110.161 E55.25606
G1 X89.523 Y99.082 E55.62457
G1 X89.123 Y99.211 E55.63855
G1 X89.123 Y110.033 E55.99848
G1 X88.723 Y109.646 E56.01699
G1 X88.723 Y99.597 E56.35121
G1 X88.323 Y100.112 E56.37291
G1 X88.323 Y109.131 E56.67285
G1 X87.923 Y108.744 E56.69136
G1 X87.923 Y100.499 E56.96559
G1 X87.523 Y100.885 E56.98410
G1 X87.523 Y108.358 E57.23262
G1 X87.123 Y107.971 E57.25112
G1 X87.123 Y101.272 E57.47394
G0 X101.523 Y118.793 F7200
G1 X101.523 Y58.113 E59.49215 F2400
G1 X101.923 Y57.727 E59.51065
G1 X101.923 Y119.180 E61.55458
G1 X102.323 Y119.566 E61.57308
G1 X102.323 Y57.340 E63.64271
G1 X102.723 Y56.954 E63.66121
G1 X102.723 Y119.953 E65.75655
G1 X103.123 Y120.339 E65.77505
G1 X103.123 Y56.567 E67.89610
G1 X103.523 Y56.181 E67.91460
G1 X103.523 Y120.726 E70.06136
G1 X103.923 Y120.983 E70.07718
G1 X103.923 Y55.794 E72.24536
G1 X104.323 Y55.794 E72.25867
G1 X104.323 Y120.983 E74.42685
G1 X104.723 Y120.983 E74.44016
G1 X104.723 Y55.794 E76.60834
G0 X145.123 Y48.709 F7200
G1 X145.123 Y124.590 E79.13217 F2400
G1 X145.523 Y124.590 E79.14548
G1 X145.523 Y48.709 E81.66931
G1 X145.923 Y48.709 E81.68262
G1 X145.923 Y124.590 E84.20645
G1 X146.323 Y124.590 E84.21976
G1 X146.323 Y48.966 E86.73502
G1 X146.723 Y49.353 E86.75352
G1 X146.723 Y124.590 E89.25594
G1 X147.123 Y124.590 E89.26924
G1 X147.123 Y49.739 E91.75880
G1 X147.523 Y50.126 E91.77730
G1 X147.523 Y124.590 E94.25400
G1 X147.923 Y124.590 E94.26730
G1 X147.923 Y50.512 E96.73115
G1 X148.323 Y50.899 E96.74965
G1 X148.323 Y124.590 E99.20064
G1 X148.723 Y124.590 E99.21394
G1 X148.723 Y52.316 E101.61780
G1 X149.123 Y52.316 E101.63110
G1 X149.123 Y124.590 E104.03496
G1 X149.523 Y124.590 E104.04826
G1 X149.523 Y52.316 E106.45212
G1 X149.923 Y52.316 E106.46542
G1 X149.923 Y124.204 E108.85642
G1 X150.323 Y123.817 E108.87492
G1 X150.323 Y52.316 E111.25307
G1 X150.723 Y52.316 E111.26637
G1 X150.723 Y123.431 E113.63167
G1 X151.123 Y123.044 E113.65017
G1 X151.123 Y52.316 E116.00261
G1 X151.523 Y52.316 E116.01591
G1 X151.523 Y122.658 E118.35550
G1 X151.923 Y122.271 E118.37400
G1 X151.923 Y52.316 E120.70073
G1 X152.323 Y52.316 E120.71404
G1 X152.323 Y120.983 E122.99791
G1 X152.723 Y120.983 E123.01122
G1 X152.723 Y52.316 E125.29509
G1 X153.123 Y52.316 E125.30840
G1 X153.123 Y120.983 E127.59227
G1 X153.523 Y120.983 E127.60558
G1 X153.523 Y52.574 E129.88089
G1 X153.923 Y52.960 E129.89938
G1 X153.923 Y120.983 E132.16183
G1 X154.323 Y120.983 E132.17514
G1 X154.323 Y53.347 E134.42474
G1 X154.723 Y53.733 E134.44324
G1 X154.723 Y120.983 E136.67998
G1 X155.123 Y120.983 E136.69328
G1 X155.123 Y54.120 E138.91718
G1 X155.523 Y54.506 E138.93567
G1 X155.523 Y120.983 E141.14670
G1 X155.923 Y120.983 E141.16000
G1 X155.923 Y55.794 E143.32819
G1 X156.323 Y55.794 E143.34149
G1 X156.323 Y120.983 E145.50967
G1 X156.723 Y120.983 E145.52298
G1 X156.723 Y55.794 E147.69116
G1 X157.123 Y56.181 E147.70966
G1 X157.123 Y120.597 E149.85213
G1 X157.523 Y120.210 E149.87062
G1 X157.523 Y56.567 E151.98738
G1 X157.923 Y56.954 E152.00587
G1 X157.923 Y119.824 E154.09692
G1 X158.323 Y119.437 E154.11542
G1 X158.323 Y57.340 E156.18076
G1 X158.723 Y57.727 E156.19925
G1 X158.723 Y119.051 E158.23889
G1 X159.123 Y118.664 E158.25739
G1 X159.123 Y58.113 E160.27132
G0 X159.523 Y59.402 F7200
G1 X159.523 Y117.376 E162.19954 F2400
G1 X159.923 Y117.376 E162.21284
G1 X159.923 Y59.402 E164.14107
G1 X160.323 Y59.402 E164.15437
G1 X160.323 Y117.376 E166.08260
G1 X160.723 Y117.118 E166.09842
G1 X160.723 Y59.659 E168.00950
G1 X161.123 Y59.659 E168.02282
G1 X161.123 Y116.603 E169.91676
G1 X161.523 Y116.216 E169.93526
G1 X161.523 Y59.402 E171.82492
G1 X161.923 Y59.402 E171.83822
G1 X161.923 Y115.830 E173.71502
G1 X162.323 Y115.443 E173.73352
G1 X162.323 Y59.402 E175.59748
G1 X162.723 Y59.402 E175.61078
G1 X162.723 Y115.057 E177.46188
G0 X173.523 Y111.450 F7200
G1 X173.523 Y101.401 E177.79612 F2400
G1 X173.123 Y101.014 E177.81460
G1 X173.123 Y111.836 E178.17454
G1 X172.723 Y112.223 E178.19304
G1 X172.723 Y100.628 E178.57868
G1 X172.323 Y100.241 E178.59718
G1 X172.323 Y112.609 E179.00854
G1 X171.923 Y113.124 E179.03024
G1 X171.923 Y99.726 E179.47588
G1 X171.523 Y99.340 E179.49436
G1 X171.523 Y113.511 E179.96572
G1 X171.123 Y113.769 E179.98154
G1 X171.123 Y99.082 E180.47002
G1 X170.723 Y99.082 E180.48332
G1 X170.723 Y113.769 E180.97180
G1 X170.323 Y113.769 E180.98510
G1 X170.323 Y99.082 E181.47358
G0 X173.523 Y71.898 F7200
G1 X173.523 Y61.721 E181.81210 F2400
G1 X173.123 Y61.334 E181.83060
G1 X173.123 Y72.285 E182.19482
G1 X172.723 Y72.671 E182.21332
G1 X172.723 Y60.948 E182.60324
G1 X172.323 Y60.561 E182.62174
G1 X172.323 Y73.058 E183.03736
G1 X171.923 Y73.573 E183.05906
G1 X171.923 Y60.046 E183.50898
G1 X171.523 Y59.659 E183.52748
G1 X171.523 Y73.960 E184.00312
G1 X171.123 Y74.217 E184.01894
G1 X171.123 Y59.402 E184.51170
G1 X170.723 Y59.402 E184.52500
G1 X170.723 Y74.217 E185.01778
G1 X170.323 Y74.217 E185.03108
G1 X170.323 Y59.402 E185.52384
G1 X169.923 Y59.402 E185.53716
G1 X169.923 Y75.506 E186.07276
G1 X169.923 Y76.150 E186.09420
G1 X169.923 Y113.769 E187.34540
G1 X169.523 Y113.769 E187.35870
G1 X169.523 Y59.402 E189.16694
G1 X169.123 Y59.402 E189.18026
G1 X169.123 Y113.769 E190.98850
G1 X168.723 Y113.769 E191.00180
G1 X168.723 Y59.402 E192.81004
G1 X168.323 Y59.402 E192.82334
G1 X168.323 Y113.769 E194.63160
G1 X167.923 Y113.769 E194.64490
G1 X167.923 Y59.402 E196.45314
G1 X167.523 Y59.402 E196.46644
G1 X167.523 Y113.769 E198.27468
G1 X167.123 Y113.769 E198.28800
G1 X167.123 Y59.402 E200.09624
G1 X166.723 Y59.402 E200.10954
G1 X166.723 Y113.769 E201.91778
G1 X166.323 Y113.769 E201.93110
G1 X166.323 Y59.402 E203.73934
G1 X165.923 Y59.402 E203.75264
G1 X165.923 Y113.769 E205.56088
G1 X165.523 Y113.769 E205.57418
G1 X165.523 Y59.402 E207.38244
G1 X165.123 Y59.402 E207.39574
G1 X165.123 Y113.769 E209.20398
G1 X164.723 Y113.769 E209.21728
G1 X164.723 Y59.402 E211.02552
G1 X164.323 Y59.402 E211.03884
G1 X164.323 Y113.769 E212.84708
G1 X163.923 Y113.769 E212.86038
G1 X163.923 Y59.402 E214.66862
G1 X163.523 Y59.402 E214.68194
G1 X163.523 Y113.769 E216.49018
G1 X163.123 Y113.769 E216.50348
G1 X163.123 Y59.402 E218.31172
G0 X140.723 Y79.757 F7200
G1 X140.723 Y48.709 E219.34440 F2400
G1 X140.323 Y48.709 E219.35770
G1 X140.323 Y79.757 E220.39036
G1 X139.923 Y79.757 E220.40368
G1 X139.923 Y48.709 E221.43634
G1 X139.523 Y48.709 E221.44964
G1 X139.523 Y79.757 E222.48232
G1 X139.123 Y79.757 E222.49562
G1 X139.123 Y48.709 E223.52828
G1 X138.723 Y48.709 E223.54160
G1 X138.723 Y79.757 E224.57426
G1 X138.323 Y79.757 E224.58758
G1 X138.323 Y48.709 E225.62024
G1 X137.923 Y48.709 E225.63354
G1 X137.923 Y79.757 E226.66622
G1 X137.522 Y79.757 E226.67952
G1 X137.522 Y48.709 E227.71218
G1 X137.123 Y48.709 E227.72550
G1 X137.123 Y79.757 E228.75816
G1 X136.722 Y79.757 E228.77146
G1 X136.722 Y48.709 E229.80414
G1 X136.322 Y48.709 E229.81744
G1 X136.322 Y79.757 E230.85012
G1 X135.922 Y79.757 E230.86342
G1 X135.922 Y48.709 E231.89608
G1 X135.522 Y48.709 E231.90940
G1 X135.522 Y79.757 E232.94206
G1 X135.123 Y79.757 E232.95536
G1 X135.123 Y48.709 E233.98804
G1 X134.722 Y48.709 E234.00134
G1 X134.722 Y79.757 E235.03402
G1 X134.323 Y79.757 E235.04732
G1 X134.323 Y48.709 E236.07998
G1 X133.922 Y48.709 E236.09330
G1 X133.922 Y79.757 E237.12596
G1 X133.522 Y79.757 E237.13926
G1 X133.522 Y48.709 E238.17194
G1 X133.123 Y48.709 E238.18524
G1 X133.123 Y79.757 E239.21792
G1 X132.723 Y79.757 E239.23122
G1 X132.723 Y48.709 E240.26388
G1 X132.323 Y48.709 E240.27720
G1 X132.323 Y79.757 E241.30986
G1 X131.923 Y79.757 E241.32316
G1 X131.923 Y48.709 E242.35584
G1 X131.522 Y48.709 E242.36914
G1 X131.522 Y79.757 E243.40180
G1 X131.123 Y79.757 E243.41512
G1 X131.123 Y48.709 E244.44778
G1 X130.723 Y48.709 E244.46110
G1 X130.723 Y79.757 E245.49376
G1 X130.322 Y79.499 E245.50958
G1 X130.322 Y48.709 E246.53370
G1 X129.923 Y48.709 E246.54700
G1 X129.923 Y79.242 E247.56254
G1 X129.522 Y79.113 E247.57650
G1 X129.522 Y48.709 E248.58776
G1 X129.123 Y48.709 E248.60106
G1 X129.123 Y78.984 E249.60802
G1 X128.723 Y78.726 E249.62384
G1 X128.723 Y48.709 E250.62224
G1 X128.323 Y48.709 E250.63554
G1 X128.323 Y78.598 E251.62966
G1 X127.923 Y78.340 E251.64548
G1 X127.923 Y48.709 E252.63102
G1 X127.523 Y48.709 E252.64432
G1 X127.523 Y78.211 E253.62556
G1 X127.123 Y77.953 E253.64138
G1 X127.123 Y48.709 E254.61408
G1 X126.723 Y48.709 E254.62738
G1 X126.723 Y77.825 E255.59578
G1 X126.323 Y77.825 E255.60908
G1 X126.323 Y48.709 E256.57748
G1 X125.923 Y48.709 E256.59078
G1 X125.923 Y77.825 E257.55918
G1 X125.523 Y77.825 E257.57248
G1 X125.523 Y48.709 E258.54086
G1 X125.123 Y48.709 E258.55416
G1 X125.123 Y77.825 E259.52256
G1 X124.723 Y77.825 E259.53586
G1 X124.723 Y48.709 E260.50424
G1 X124.323 Y48.709 E260.51754
G1 X124.323 Y77.825 E261.48594
G1 X123.923 Y77.825 E261.49924
G1 X123.923 Y48.709 E262.46762
G1 X123.523 Y48.709 E262.48092
G1 X123.523 Y77.825 E263.44932
G1 X123.123 Y77.825 E263.46262
G1 X123.123 Y48.709 E264.43100
G1 X122.723 Y48.709 E264.44430
G1 X122.723 Y77.825 E265.41268
G1 X122.323 Y77.825 E265.42600
G1 X122.323 Y48.709 E266.39438
G1 X121.923 Y48.709 E266.40768
G1 X121.923 Y77.825 E267.37606
G1 X121.523 Y77.825 E267.38938
G1 X121.523 Y48.709 E268.35776
G1 X121.123 Y48.709 E268.37106
G1 X121.123 Y77.825 E269.33944
G1 X120.723 Y77.825 E269.35276
G1 X120.723 Y48.709 E270.32114
G1 X120.323 Y48.709 E270.33444
G1 X120.323 Y77.825 E271.30282
G1 X119.923 Y77.825 E271.31614
G1 X119.923 Y48.709 E272.28452
G1 X119.523 Y48.709 E272.29782
G1 X119.523 Y128.198 E274.94166
G1 X119.123 Y128.198 E274.95496
G1 X119.123 Y48.709 E277.59876
G1 X118.723 Y48.709 E277.61206
G1 X118.723 Y128.198 E280.25586
G1 X118.323 Y128.198 E280.26916
G1 X118.323 Y48.709 E282.91296
G1 X117.923 Y48.709 E282.92626
G1 X117.923 Y127.940 E285.56152
G1 X117.523 Y127.554 E285.58002
G1 X117.523 Y48.709 E288.20240
G1 X117.123 Y48.709 E288.21570
G1 X117.123 Y127.167 E290.82522
G1 X116.723 Y126.781 E290.84372
G1 X116.723 Y48.709 E293.44040
G1 X116.323 Y48.709 E293.45370
G1 X116.323 Y126.394 E296.03754
G1 X115.923 Y126.008 E296.05604
G1 X115.923 Y48.709 E298.62702
G1 X115.523 Y48.709 E298.64032
G1 X115.523 Y124.590 E301.16416
G1 X115.123 Y124.590 E301.17746
G1 X115.123 Y48.709 E303.70130
G1 X114.723 Y48.709 E303.71460
G1 X114.723 Y124.590 E306.23844
G1 X114.323 Y124.590 E306.25174
G1 X114.323 Y48.966 E308.76700
G1 X113.923 Y49.353 E308.78550
G1 X113.923 Y124.590 E311.28790
G1 X113.523 Y124.590 E311.30120
G1 X113.523 Y49.739 E313.79078
G1 X113.123 Y50.126 E313.80926
G1 X113.123 Y124.590 E316.28598
G1 X112.723 Y124.590 E316.29928
G1 X112.723 Y50.512 E318.76312
G1 X112.323 Y50.899 E318.78162
G1 X112.323 Y124.590 E321.23260
G1 X111.923 Y124.590 E321.24592
G1 X111.923 Y52.316 E323.64978
G1 X111.523 Y52.316 E323.66308
G1 X111.523 Y124.590 E326.06696
G1 X111.123 Y124.590 E326.08026
G1 X111.123 Y52.316 E328.48414
G1 X110.723 Y52.316 E328.49744
G1 X110.723 Y124.333 E330.89274
G1 X110.323 Y123.946 E330.91122
G1 X110.323 Y52.316 E333.29368
G1 X109.923 Y52.316 E333.30698
G1 X109.923 Y123.560 E335.67656
G1 X109.523 Y123.173 E335.69504
G1 X109.523 Y52.316 E338.05176
G1 X109.123 Y52.316 E338.06508
G1 X109.123 Y122.787 E340.40892
G1 X108.723 Y122.400 E340.42744
G1 X108.723 Y52.316 E342.75844
G1 X108.323 Y52.316 E342.77176
G1 X108.323 Y120.983 E345.05564
G1 X107.923 Y120.983 E345.06892
G1 X107.923 Y52.316 E347.35280
G1 X107.523 Y52.316 E347.36612
G1 X107.523 Y120.983 E349.65000
G1 X107.123 Y120.983 E349.66328
G1 X107.123 Y52.574 E351.93860
G1 X106.723 Y52.960 E351.95708
G1 X106.723 Y120.983 E354.21956
G1 X106.323 Y120.983 E354.23284
G1 X106.323 Y53.347 E356.48244
G1 X105.923 Y53.733 E356.50096
G1 X105.923 Y120.983 E358.73772
G1 X105.523 Y120.983 E358.75100
G1 X105.523 Y54.120 E360.97488
G1 X105.123 Y54.506 E360.99336
G1 X105.123 Y120.983 E363.20440
G0 X119.923 Y95.475 F7200
G1 X119.923 Y128.198 E364.29280 F2400
G1 X120.323 Y128.198 E364.30608
G1 X120.323 Y95.475 E365.39448
G1 X120.723 Y95.475 E365.40776
G1 X120.723 Y128.198 E366.49616
G1 X121.123 Y128.198 E366.50948
G1 X121.123 Y95.475 E367.59784
G1 X121.523 Y95.475 E367.61116
G1 X121.523 Y128.198 E368.69952
G1 X121.923 Y128.198 E368.71284
G1 X121.923 Y95.475 E369.80120
G1 X122.323 Y95.475 E369.81452
G1 X122.323 Y128.198 E370.90288
G1 X122.723 Y128.198 E370.91620
G1 X122.723 Y95.475 E372.00456
G1 X123.123 Y95.475 E372.01788
G1 X123.123 Y128.198 E373.10628
G1 X123.523 Y128.198 E373.11956
G1 X123.523 Y95.475 E374.20796
G1 X123.923 Y95.475 E374.22124
G1 X123.923 Y128.198 E375.30964
G1 X124.323 Y128.198 E375.32292
G1 X124.323 Y95.475 E376.41132
G1 X124.723 Y95.475 E376.42464
G1 X124.723 Y128.198 E377.51300
G1 X125.123 Y128.198 E377.52632
G1 X125.123 Y95.475 E378.61468
G1 X125.523 Y95.475 E378.62800
G1 X125.523 Y128.198 E379.71636
G1 X125.923 Y128.198 E379.72968
G1 X125.923 Y95.475 E380.81804
G1 X126.323 Y95.475 E380.83136
G1 X126.323 Y128.198 E381.91972
G1 X126.723 Y128.198 E381.93304
G1 X126.723 Y95.475 E383.02144
G1 X127.123 Y95.475 E383.03472
G1 X127.123 Y128.198 E384.12312
G1 X127.523 Y128.198 E384.13640
G1 X127.523 Y95.475 E385.22480
G1 X127.923 Y95.475 E385.23808
G1 X127.923 Y128.198 E386.32648
G1 X128.323 Y128.198 E386.33980
G1 X128.323 Y95.475 E387.42816
G1 X128.723 Y95.475 E387.44148
G1 X128.723 Y128.198 E388.52984
G1 X129.123 Y128.198 E388.54316
G1 X129.123 Y95.475 E389.63152
G1 X129.522 Y95.475 E389.64484
G1 X129.522 Y128.198 E390.73320
G1 X129.923 Y128.198 E390.74652
G1 X129.923 Y95.475 E391.83488
G1 X130.322 Y95.475 E391.84820
G1 X130.322 Y128.198 E392.93660
G1 X130.723 Y128.198 E392.94988
G1 X130.723 Y95.475 E394.03828
G1 X131.123 Y95.475 E394.05156
G1 X131.123 Y128.198 E395.13996
G1 X131.522 Y128.198 E395.15324
G1 X131.522 Y95.475 E396.24164
G1 X131.923 Y95.475 E396.25496
G1 X131.923 Y128.198 E397.34332
G1 X132.323 Y128.198 E397.35664
G1 X132.323 Y95.475 E398.44500
G1 X132.723 Y95.475 E398.45832
G1 X132.723 Y128.198 E399.54668
G1 X133.123 Y128.198 E399.56000
G1 X133.123 Y95.475 E400.64836
G1 X133.522 Y95.475 E400.66168
G1 X133.522 Y128.198 E401.75008
G1 X133.922 Y128.198 E401.76336
G1 X133.922 Y95.475 E402.85176
G1 X134.323 Y95.475 E402.86504
G1 X134.323 Y128.198 E403.95344
G1 X134.722 Y128.198 E403.96672
G1 X134.722 Y95.475 E405.05512
G1 X135.123 Y95.475 E405.06844
G1 X135.123 Y128.198 E406.15680
G1 X135.522 Y128.198 E406.17012
G1 X135.522 Y95.475 E407.25848
G1 X135.922 Y95.475 E407.27180
G1 X135.922 Y128.198 E408.36016
G1 X136.322 Y128.198 E408.37348
G1 X136.322 Y95.475 E409.46184
G1 X136.722 Y95.475 E409.47516
G1 X136.722 Y128.198 E410.56352
G1 X137.123 Y128.198 E410.57684
G1 X137.123 Y95.475 E411.66524
G1 X137.522 Y95.475 E411.67852
G1 X137.522 Y128.198 E412.76692
G1 X137.923 Y128.198 E412.78020
G1 X137.923 Y95.475 E413.86860
G1 X138.323 Y95.475 E413.88188
G1 X138.323 Y128.198 E414.97028
G1 X138.723 Y128.198 E414.98360
G1 X138.723 Y95.475 E416.07196
G1 X139.123 Y95.475 E416.08528
G1 X139.123 Y128.198 E417.17364
G1 X139.523 Y128.198 E417.18696
G1 X139.523 Y95.475 E418.27532
G1 X139.923 Y95.475 E418.28864
G1 X139.923 Y128.198 E419.37700
G1 X140.323 Y128.198 E419.39032
G1 X140.323 Y95.475 E420.47868
G1 X140.723 Y95.475 E420.49200
G1 X140.723 Y128.198 E421.58040
G1 X141.123 Y128.198 E421.59368
G1 X141.123 Y48.709 E424.23748
G1 X141.523 Y48.709 E424.25080
G1 X141.523 Y128.198 E426.89460
G1 X141.923 Y128.198 E426.90788
G1 X141.923 Y48.709 E429.55168
G1 X142.323 Y48.709 E429.56500
G1 X142.323 Y128.198 E432.20880
G1 X142.723 Y127.811 E432.22728
G1 X142.723 Y48.709 E434.85824
G1 X143.123 Y48.709 E434.87156
G1 X143.123 Y127.425 E437.48964
G1 X143.523 Y127.038 E437.50816
G1 X143.523 Y48.709 E440.11340
G1 X143.923 Y48.709 E440.12672
G1 X143.923 Y126.652 E442.71912
G1 X144.323 Y126.265 E442.73760
G1 X144.323 Y48.709 E445.31712
G1 X144.723 Y48.709 E445.33044
G1 X144.723 Y125.879 E447.89712



; ------------------------------------
; Raft Layer #3
; ------------------------------------
M106 S255 ;set fan speed
G92 E0 ;reset extr
G0 F600 Z1.200
;segType:Raft
G0 X142.626 Y127.809 F7200
G1 X117.762 Y127.809 E0.82700 F2400
G1 X117.375 Y127.409 E0.84550
G1 X143.013 Y127.409 E1.69820
G1 X143.399 Y127.009 E1.71670
G1 X116.989 Y127.009 E2.59512
G1 X116.603 Y126.609 E2.61362
G1 X143.786 Y126.609 E3.51774
G1 X144.172 Y126.209 E3.53624
G1 X116.216 Y126.209 E4.46607
G1 X115.701 Y125.809 E4.48777
G1 X144.688 Y125.809 E5.45188
G1 X144.817 Y125.409 E5.46586
G1 X115.701 Y125.409 E6.43426
G1 X115.701 Y125.009 E6.44756
G1 X144.817 Y125.009 E7.41596
G1 X144.817 Y124.609 E7.42927
G1 X115.701 Y124.609 E8.39767
G0 X108.486 Y121.009 F7200
G1 X152.031 Y121.009 E9.84598 F2400
G1 X152.031 Y121.409 E9.85928
G1 X108.486 Y121.409 E11.30760
G1 X108.486 Y121.809 E11.32090
G1 X152.031 Y121.809 E12.76921
G1 X151.773 Y122.209 E12.78504
G1 X108.615 Y122.209 E14.22050
G1 X109.001 Y122.609 E14.23900
G1 X151.387 Y122.609 E15.64875
G1 X151.000 Y123.009 E15.66724
G1 X109.388 Y123.009 E17.05128
G1 X109.774 Y123.409 E17.06978
G1 X150.614 Y123.409 E18.42811
G1 X150.228 Y123.809 E18.44661
G1 X110.161 Y123.809 E19.77923
G1 X110.547 Y124.209 E19.79773
G1 X149.841 Y124.209 E21.10464
G0 X157.056 Y120.609 F7200
G1 X103.333 Y120.609 E22.89147 F2400
G1 X102.946 Y120.209 E22.90996
G1 X157.442 Y120.209 E24.72250
G1 X157.829 Y119.809 E24.74100
G1 X102.560 Y119.809 E26.57924
G1 X102.173 Y119.409 E26.59774
G1 X158.215 Y119.409 E28.46169
G1 X158.602 Y119.009 E28.48019
G1 X101.787 Y119.009 E30.36985
G1 X101.400 Y118.609 E30.38835
G1 X158.988 Y118.609 E32.30372
G1 X159.117 Y118.209 E32.31770
G1 X101.272 Y118.209 E34.24164
G1 X101.272 Y117.809 E34.25495
G1 X159.117 Y117.809 E36.17889
G1 X159.117 Y117.409 E36.19220
G1 X101.272 Y117.409 E38.11614
G0 X97.664 Y113.809 F7200
G1 X162.724 Y113.809 E40.28004 F2400
G1 X162.724 Y114.209 E40.29334
G1 X97.664 Y114.209 E42.45724
G1 X97.664 Y114.609 E42.47055
G1 X162.724 Y114.609 E44.63445
G1 X162.595 Y115.009 E44.64842
G1 X97.793 Y115.009 E46.80376
G1 X98.180 Y115.409 E46.82226
G1 X162.209 Y115.409 E48.95188
G1 X161.822 Y115.809 E48.97038
G1 X98.566 Y115.809 E51.07429
G1 X98.953 Y116.209 E51.09279
G1 X161.436 Y116.209 E53.17099
G1 X161.049 Y116.609 E53.18949
G1 X99.339 Y116.609 E55.24198
G1 X99.726 Y117.009 E55.26048
G1 X160.663 Y117.009 E57.28726
G0 X169.939 Y74.209 F7200
G1 X86.842 Y74.209 E60.05106 F2400
G1 X86.842 Y74.609 E60.06436
G1 X169.939 Y74.609 E62.82816
G1 X169.939 Y75.009 E62.84146
G1 X86.842 Y75.009 E65.60526
G1 X86.971 Y75.409 E65.61923
G1 X169.939 Y75.409 E68.37874
G1 X169.552 Y75.809 E68.39724
G1 X87.358 Y75.809 E71.13104
G1 X87.744 Y76.209 E71.14954
G1 X169.939 Y76.209 E73.88333
G1 X169.939 Y76.609 E73.89664
G1 X88.260 Y76.609 E76.61330
G1 X88.646 Y77.009 E76.63180
G1 X169.939 Y77.009 E79.33560
G1 X169.939 Y77.409 E79.34891
G1 X89.033 Y77.409 E82.03986
G0 X86.842 Y73.809 F7200
G1 X171.485 Y73.809 E84.85506 F2400
G1 X171.871 Y73.409 E84.87357
G1 X86.842 Y73.409 E87.70163
G1 X86.842 Y73.009 E87.71494
G1 X172.258 Y73.009 E90.55585
G1 X172.644 Y72.609 E90.57436
G1 X86.842 Y72.609 E93.42813
G1 X86.842 Y72.209 E93.44144
G1 X173.159 Y72.209 E96.31236
G1 X173.546 Y71.809 E96.33086
G1 X86.842 Y71.809 E99.21463
G1 X86.842 Y71.409 E99.22794
G1 X173.546 Y71.409 E102.11171
G1 X173.546 Y71.009 E102.12502
G1 X86.842 Y71.009 E105.00879
G1 X86.842 Y70.609 E105.02209
G1 X173.546 Y70.609 E107.90587
G1 X173.546 Y70.209 E107.91917
G1 X86.842 Y70.209 E110.80295
G1 X86.842 Y69.809 E110.81625
G1 X173.546 Y69.809 E113.70003
G1 X173.546 Y69.409 E113.71333
G1 X86.842 Y69.409 E116.59711
G1 X86.842 Y69.009 E116.61041
G1 X173.546 Y69.009 E119.49419
G1 X173.546 Y68.609 E119.50749
G1 X86.842 Y68.609 E122.39127
G1 X86.842 Y68.209 E122.40457
G1 X173.546 Y68.209 E125.28835
G1 X173.546 Y67.809 E125.30165
G1 X86.842 Y67.809 E128.18542
G1 X86.842 Y67.409 E128.19873
G1 X173.546 Y67.409 E131.08250
G1 X173.546 Y67.009 E131.09581
G1 X86.842 Y67.009 E133.97958
G1 X86.842 Y66.609 E133.99289
G1 X173.546 Y66.609 E136.87666
G1 X173.546 Y66.209 E136.88997
G1 X86.842 Y66.209 E139.77374
G1 X86.842 Y65.809 E139.78705
G1 X173.546 Y65.809 E142.67082
G1 X173.546 Y65.409 E142.68413
G1 X86.842 Y65.409 E145.56790
G1 X86.842 Y65.009 E145.58121
G1 X173.546 Y65.009 E148.46498
G1 X173.546 Y64.609 E148.47829
G1 X86.842 Y64.609 E151.36206
G1 X86.842 Y64.209 E151.37537
G1 X173.546 Y64.209 E154.25914
G1 X173.546 Y63.809 E154.27245
G1 X86.842 Y63.809 E157.15622
G1 X86.842 Y63.409 E157.16953
G1 X173.546 Y63.409 E160.05330
G1 X173.546 Y63.009 E160.06660
G1 X86.842 Y63.009 E162.95038
G1 X86.842 Y62.609 E162.96368
G1 X173.546 Y62.609 E165.84746
G1 X173.546 Y62.209 E165.86076
G1 X86.842 Y62.209 E168.74454
G1 X86.842 Y61.809 E168.75784
G1 X173.546 Y61.809 E171.64162
G1 X173.288 Y61.409 E171.65744
G1 X98.051 Y61.409 E174.15986
G1 X97.664 Y61.409 E174.17270
G1 X87.229 Y61.409 E174.51978
G1 X87.744 Y61.009 E174.54148
G1 X97.149 Y61.009 E174.85428
G1 X96.762 Y60.609 E174.87278
G1 X88.131 Y60.609 E175.15986
G1 X88.517 Y60.209 E175.17836
G1 X96.376 Y60.209 E175.43974
G1 X95.989 Y59.809 E175.45824
G1 X88.904 Y59.809 E175.69390
G1 X89.290 Y59.409 E175.71240
G1 X95.603 Y59.409 E175.92236
G0 X98.566 Y61.009 F7200
G1 X172.773 Y61.009 E178.39048 F2400
G1 X172.387 Y60.609 E178.40898
G1 X98.953 Y60.609 E180.85140
G1 X99.339 Y60.209 E180.86990
G1 X172.000 Y60.209 E183.28662
G1 X171.614 Y59.809 E183.30512
G1 X160.921 Y59.809 E183.66076
G1 X160.792 Y59.809 E183.66506
G1 X99.726 Y59.809 E185.69612
G1 X100.112 Y59.409 E185.71462
G1 X160.405 Y59.409 E187.71998
G1 X161.307 Y59.409 E187.74996
G1 X171.227 Y59.409 E188.07992
G0 X156.798 Y55.809 F7200
G1 X103.719 Y55.809 E189.84530 F2400
G1 X103.333 Y56.209 E189.86380
G1 X157.184 Y56.209 E191.65490
G1 X157.571 Y56.609 E191.67340
G1 X102.946 Y56.609 E193.49022
G1 X102.560 Y57.009 E193.50872
G1 X157.957 Y57.009 E195.35124
G1 X158.473 Y57.409 E195.37294
G1 X102.045 Y57.409 E197.24976
G1 X101.658 Y57.809 E197.26824
G1 X158.859 Y57.809 E199.17076
G1 X159.117 Y58.209 E199.18658
G1 X101.272 Y58.209 E201.11052
G1 X101.272 Y58.609 E201.12382
G1 X159.117 Y58.609 E203.04776
G1 X159.117 Y59.009 E203.06106
G1 X101.272 Y59.009 E204.98500
G0 X104.879 Y55.409 F7200
G1 X155.638 Y55.409 E206.67326 F2400
G1 X155.638 Y55.009 E206.68656
G1 X104.879 Y55.009 E208.37484
G1 X104.879 Y54.609 E208.38814
G1 X155.638 Y54.609 E210.07640
G1 X155.252 Y54.209 E210.09490
G1 X105.265 Y54.209 E211.75746
G1 X105.652 Y53.809 E211.77596
G1 X154.865 Y53.809 E213.41282
G1 X154.350 Y53.409 E213.43450
G1 X106.167 Y53.409 E215.03708
G1 X106.554 Y53.009 E215.05558
G1 X153.964 Y53.009 E216.63244
G1 X153.577 Y52.609 E216.65092
G1 X106.940 Y52.609 E218.20208
G0 X112.093 Y52.209 F7200
G1 X148.424 Y52.209 E219.41044 F2400
G1 X148.424 Y51.809 E219.42374
G1 X112.093 Y51.809 E220.63210
G1 X112.093 Y51.409 E220.64540
G1 X148.424 Y51.409 E221.85376
G1 X148.424 Y51.009 E221.86706
G1 X112.093 Y51.009 E223.07542
G1 X112.480 Y50.609 E223.09392
G1 X148.037 Y50.609 E224.27656
G1 X147.651 Y50.209 E224.29506
G1 X112.866 Y50.209 E225.45200
G1 X113.253 Y49.809 E225.47048
G1 X147.264 Y49.809 E226.60172
G1 X146.749 Y49.409 E226.62342
G1 X113.768 Y49.409 E227.72036
G1 X114.155 Y49.009 E227.73886
G1 X146.363 Y49.009 E228.81010
G0 X126.909 Y77.809 F7200
G1 X169.939 Y77.809 E230.24128 F2400
G1 X169.939 Y78.209 E230.25458
G1 X127.682 Y78.209 E231.66004
G1 X128.455 Y78.609 E231.68898
G1 X169.939 Y78.609 E233.06874
G1 X169.939 Y79.009 E233.08204
G1 X129.228 Y79.009 E234.43610
G1 X130.130 Y79.409 E234.46890
G1 X169.939 Y79.409 E235.79296
G1 X169.939 Y79.809 E235.80626
G1 X140.823 Y79.809 E236.77466
G1 X140.823 Y80.209 E236.78796
G1 X169.939 Y80.209 E237.75636
G1 X169.939 Y80.609 E237.76966
G1 X140.823 Y80.609 E238.73806
G1 X140.823 Y81.009 E238.75138
G1 X169.939 Y81.009 E239.71978
G1 X169.939 Y81.409 E239.73308
G1 X140.823 Y81.409 E240.70148
G1 X140.823 Y81.809 E240.71478
G1 X169.939 Y81.809 E241.68318
G1 X169.939 Y82.209 E241.69648
G1 X140.823 Y82.209 E242.66488
G1 X140.823 Y82.609 E242.67820
G1 X169.939 Y82.609 E243.64660
G1 X169.939 Y83.009 E243.65990
G1 X140.823 Y83.009 E244.62830
G1 X140.823 Y83.409 E244.64160
G1 X169.939 Y83.409 E245.61000
G1 X169.939 Y83.809 E245.62330
G1 X140.823 Y83.809 E246.59170
G1 X140.823 Y84.209 E246.60502
G1 X169.939 Y84.209 E247.57342
G1 X169.939 Y84.609 E247.58672
G1 X140.823 Y84.609 E248.55512
G1 X140.823 Y85.009 E248.56842
G1 X169.939 Y85.009 E249.53682
G1 X169.939 Y85.409 E249.55012
G1 X140.823 Y85.409 E250.51852
G1 X140.823 Y85.809 E250.53182
G1 X169.939 Y85.809 E251.50022
G1 X169.939 Y86.209 E251.51354
G1 X140.823 Y86.209 E252.48194
G1 X140.823 Y86.609 E252.49524
G1 X169.939 Y86.609 E253.46364
G1 X169.939 Y87.009 E253.47694
G1 X140.823 Y87.009 E254.44534
G1 X140.823 Y87.409 E254.45864
G1 X169.939 Y87.409 E255.42704
G1 X169.939 Y87.809 E255.44036
G1 X140.823 Y87.809 E256.40876
G1 X140.823 Y88.209 E256.42206
G1 X169.939 Y88.209 E257.39044
G1 X169.939 Y88.609 E257.40374
G1 X140.823 Y88.609 E258.37214
G1 X140.823 Y89.009 E258.38544
G1 X169.939 Y89.009 E259.35382
G1 X169.939 Y89.409 E259.36712
G1 X140.823 Y89.409 E260.33552
G1 X140.823 Y89.809 E260.34882
G1 X169.939 Y89.809 E261.31720
G1 X169.939 Y90.209 E261.33050
G1 X140.823 Y90.209 E262.29888
G1 X140.823 Y90.609 E262.31220
G1 X169.939 Y90.609 E263.28058
G1 X169.939 Y91.009 E263.29388
G1 X140.823 Y91.009 E264.26226
G1 X140.823 Y91.409 E264.27558
G1 X169.939 Y91.409 E265.24396
G1 X169.939 Y91.809 E265.25726
G1 X140.823 Y91.809 E266.22564
G1 X140.823 Y92.209 E266.23896
G1 X169.939 Y92.209 E267.20734
G1 X169.939 Y92.609 E267.22064
G1 X140.823 Y92.609 E268.18902
G1 X140.823 Y93.009 E268.20234
G1 X169.939 Y93.009 E269.17072
G1 X169.939 Y93.409 E269.18402
G1 X140.823 Y93.409 E270.15240
G1 X140.823 Y93.809 E270.16572
G1 X169.939 Y93.809 E271.13410
G1 X169.939 Y94.209 E271.14740
G1 X140.823 Y94.209 E272.11578
G1 X140.823 Y94.609 E272.12908
G1 X169.939 Y94.609 E273.09748
G1 X169.939 Y95.009 E273.11078
G1 X140.823 Y95.009 E274.07916
G1 X140.823 Y95.409 E274.09246
G1 X169.939 Y95.409 E275.06086
G1 X169.939 Y95.809 E275.07416
G1 X90.450 Y95.809 E277.71796
G1 X90.450 Y96.209 E277.73126
G1 X169.939 Y96.209 E280.37506
G1 X169.939 Y96.609 E280.38836
G1 X90.450 Y96.609 E283.03216
G1 X90.450 Y97.009 E283.04548
G1 X169.939 Y97.009 E285.68928
G1 X169.939 Y97.409 E285.70258
G1 X90.450 Y97.409 E288.34638
G1 X90.450 Y97.809 E288.35968
G1 X169.939 Y97.809 E291.00348
G1 X169.939 Y98.209 E291.01678
G1 X90.450 Y98.209 E293.66058
G1 X90.450 Y98.609 E293.67388
G1 X169.939 Y98.609 E296.31768
G1 X169.939 Y99.009 E296.33100
G1 X90.450 Y99.009 E298.97480
G0 X88.775 Y99.409 F7200
G1 X171.614 Y99.409 E301.73002 F2400
G1 X172.000 Y99.809 E301.74850
G1 X88.388 Y99.809 E304.52944
G1 X88.002 Y100.209 E304.54794
G1 X172.387 Y100.209 E307.35458
G1 X172.773 Y100.609 E307.37308
G1 X87.615 Y100.609 E310.20542
G1 X87.229 Y101.009 E310.22390
G1 X173.159 Y101.009 E313.08198
G1 X173.546 Y101.409 E313.10046
G1 X86.842 Y101.409 E315.98422
G1 X86.842 Y101.809 E315.99752
G1 X173.546 Y101.809 E318.88128
G1 X173.546 Y102.209 E318.89460
G1 X86.842 Y102.209 E321.77836
G1 X86.842 Y102.609 E321.79166
G1 X173.546 Y102.609 E324.67542
G1 X173.546 Y103.009 E324.68872
G1 X86.842 Y103.009 E327.57248
G1 X86.842 Y103.409 E327.58578
G1 X173.546 Y103.409 E330.46954
G1 X173.546 Y103.809 E330.48284
G1 X86.842 Y103.809 E333.36660
G1 X86.842 Y104.209 E333.37992
G1 X173.546 Y104.209 E336.26368
G1 X173.546 Y104.609 E336.27696
G1 X86.842 Y104.609 E339.16072
G1 X86.842 Y105.009 E339.17404
G1 X173.546 Y105.009 E342.05780
G1 X173.546 Y105.409 E342.07112
G1 X86.842 Y105.409 E344.95488
G1 X86.842 Y105.809 E344.96816
G1 X173.546 Y105.809 E347.85192
G1 X173.546 Y106.209 E347.86524
G1 X86.842 Y106.209 E350.74900
G1 X86.842 Y106.609 E350.76228
G1 X173.546 Y106.609 E353.64604
G1 X173.546 Y107.009 E353.65936
G1 X86.842 Y107.009 E356.54312
G1 X86.842 Y107.409 E356.55644
G1 X173.546 Y107.409 E359.44020
G1 X173.546 Y107.809 E359.45348
G1 X86.971 Y107.809 E362.33296
G1 X87.358 Y108.209 E362.35148
G1 X173.546 Y108.209 E365.21812
G1 X173.546 Y108.609 E365.23140
G1 X87.744 Y108.609 E368.08520
G1 X88.131 Y109.009 E368.10368
G1 X173.546 Y109.009 E370.94460
G1 X173.546 Y109.409 E370.95792
G1 X88.517 Y109.409 E373.78600
G1 X88.904 Y109.809 E373.80448
G1 X173.546 Y109.809 E376.61968
G1 X173.546 Y110.209 E376.63300
G1 X90.450 Y110.209 E379.39680
G1 X90.450 Y110.609 E379.41008
G1 X173.546 Y110.609 E382.17388
G1 X173.546 Y111.009 E382.18720
G1 X90.450 Y111.009 E384.95100
G1 X90.579 Y111.409 E384.96496
G1 X173.417 Y111.409 E387.72020
G1 X173.031 Y111.809 E387.73868
G1 X90.965 Y111.809 E390.46820
G1 X91.352 Y112.209 E390.48668
G1 X172.644 Y112.209 E393.19048
G1 X172.258 Y112.609 E393.20900
G1 X91.738 Y112.609 E395.88708
G1 X92.125 Y113.009 E395.90556
G1 X171.871 Y113.009 E398.55796
G1 X171.485 Y113.409 E398.57644
G1 X92.511 Y113.409 E401.20312
G0 X90.450 Y95.409 F7200
G1 X119.566 Y95.409 E402.17152 F2400
G1 X119.566 Y95.009 E402.18480
G1 X90.450 Y95.009 E403.15320
G1 X90.450 Y94.609 E403.16652
G1 X119.566 Y94.609 E404.13488
G1 X119.566 Y94.209 E404.14820
G1 X90.450 Y94.209 E405.11656
G1 X90.450 Y93.809 E405.12988
G1 X119.566 Y93.809 E406.09828
G1 X119.566 Y93.409 E406.11156
G1 X90.450 Y93.409 E407.07996
G1 X90.450 Y93.009 E407.09328
G1 X119.566 Y93.009 E408.06164
G1 X119.566 Y92.609 E408.07496
G1 X90.450 Y92.609 E409.04332
G1 X90.450 Y92.209 E409.05664
G1 X119.566 Y92.209 E410.02504
G1 X119.566 Y91.809 E410.03832
G1 X90.450 Y91.809 E411.00672
G1 X90.450 Y91.409 E411.02000
G1 X119.566 Y91.409 E411.98840
G1 X119.566 Y91.009 E412.00172
G1 X90.450 Y91.009 E412.97008
G1 X90.450 Y90.609 E412.98340
G1 X119.566 Y90.609 E413.95180
G1 X119.566 Y90.209 E413.96508
G1 X90.450 Y90.209 E414.93348
G1 X90.450 Y89.809 E414.94676
G1 X119.566 Y89.809 E415.91516
G1 X119.566 Y89.409 E415.92848
G1 X90.450 Y89.409 E416.89684
G1 X90.450 Y89.009 E416.91016
G1 X119.566 Y89.009 E417.87856
G1 X119.566 Y88.609 E417.89184
G1 X90.450 Y88.609 E418.86024
G1 X90.450 Y88.209 E418.87352
G1 X119.566 Y88.209 E419.84192
G1 X119.566 Y87.809 E419.85524
G1 X90.450 Y87.809 E420.82360
G1 X90.450 Y87.409 E420.83692
G1 X119.566 Y87.409 E421.80528
G1 X119.566 Y87.009 E421.81860
G1 X90.450 Y87.009 E422.78700
G1 X90.450 Y86.609 E422.80028
G1 X119.566 Y86.609 E423.76868
G1 X119.566 Y86.209 E423.78200
G1 X90.450 Y86.209 E424.75036
G1 X90.450 Y85.809 E424.76368
G1 X119.566 Y85.809 E425.73204
G1 X119.566 Y85.409 E425.74536
G1 X90.450 Y85.409 E426.71376
G1 X90.450 Y85.009 E426.72704
G1 X119.566 Y85.009 E427.69544
G1 X119.566 Y84.609 E427.70876
G1 X90.450 Y84.609 E428.67712
G1 X90.450 Y84.209 E428.69044
G1 X119.566 Y84.209 E429.65880
G1 X119.566 Y83.809 E429.67212
G1 X90.450 Y83.809 E430.64052
G1 X90.450 Y83.409 E430.65380
G1 X119.566 Y83.409 E431.62220
G1 X119.566 Y83.009 E431.63548
G1 X90.450 Y83.009 E432.60388
G1 X90.450 Y82.609 E432.61720
G1 X119.566 Y82.609 E433.58556
G1 X119.566 Y82.209 E433.59888
G1 X90.450 Y82.209 E434.56728
G1 X90.450 Y81.809 E434.58056
G1 X119.566 Y81.809 E435.54896
G1 X119.566 Y81.409 E435.56224
G1 X90.450 Y81.409 E436.53064
G1 X90.450 Y81.009 E436.54396
G1 X119.566 Y81.009 E437.51232
G1 X119.566 Y80.609 E437.52564
G1 X90.450 Y80.609 E438.49400
G1 X90.450 Y80.209 E438.50732
G1 X119.566 Y80.209 E439.47572
G1 X119.566 Y79.809 E439.48900
G1 X90.450 Y79.809 E440.45740
G1 X90.450 Y79.409 E440.47072
G1 X119.566 Y79.409 E441.43908
G1 X119.566 Y79.009 E441.45240
G1 X90.450 Y79.009 E442.42076
G1 X90.450 Y78.609 E442.43408
G1 X119.566 Y78.609 E443.40248
G1 X119.566 Y78.209 E443.41576
G1 X90.450 Y78.209 E444.38416
G1 X90.450 Y77.809 E444.39748
G1 X119.566 Y77.809 E445.36584



; ------------------------------------
; Raft Layer #4
; ------------------------------------
G92 E0 ;reset extr
G0 F600 Z1.400
;segType:Raft
G0 F3000 E-1.00000
G0 F600 Z3.400
G0 X119.923 Y95.475 F7200
G0 F600 Z1.400
G0 F3000 E0.00000
G1 X119.923 Y128.198 E1.08838 F2400
G1 X120.323 Y128.198 E1.10168
G1 X120.323 Y95.475 E2.19006
G1 X120.723 Y95.475 E2.20336
G1 X120.723 Y128.198 E3.29174
G1 X121.123 Y128.198 E3.30504
G1 X121.123 Y95.475 E4.39342
G1 X121.523 Y95.475 E4.40673
G1 X121.523 Y128.198 E5.49510
G1 X121.923 Y128.198 E5.50841
G1 X121.923 Y95.475 E6.59678
G1 X122.323 Y95.475 E6.61009
G1 X122.323 Y128.198 E7.69847
G1 X122.723 Y128.198 E7.71177
G1 X122.723 Y95.475 E8.80015
G1 X123.123 Y95.475 E8.81345
G1 X123.123 Y128.198 E9.90183
G1 X123.523 Y128.198 E9.91513
G1 X123.523 Y95.475 E11.00351
G1 X123.923 Y95.475 E11.01681
G1 X123.923 Y128.198 E12.10519
G1 X124.323 Y128.198 E12.11849
G1 X124.323 Y95.475 E13.20687
G1 X124.723 Y95.475 E13.22018
G1 X124.723 Y128.198 E14.30855
G1 X125.123 Y128.198 E14.32186
G1 X125.123 Y95.475 E15.41023
G1 X125.523 Y95.475 E15.42354
G1 X125.523 Y128.198 E16.51192
G1 X125.923 Y128.198 E16.52522
G1 X125.923 Y95.475 E17.61360
G1 X126.323 Y95.475 E17.62690
G1 X126.323 Y128.198 E18.71528
G1 X126.723 Y128.198 E18.72858
G1 X126.723 Y95.475 E19.81696
G1 X127.123 Y95.475 E19.83026
G1 X127.123 Y128.198 E20.91864
G1 X127.523 Y128.198 E20.93194
G1 X127.523 Y95.475 E22.02032
G1 X127.923 Y95.475 E22.03362
G1 X127.923 Y128.198 E23.12200
G1 X128.323 Y128.198 E23.13530
G1 X128.323 Y95.475 E24.22368
G1 X128.723 Y95.475 E24.23699
G1 X128.723 Y128.198 E25.32536
G1 X129.123 Y128.198 E25.33867
G1 X129.123 Y95.475 E26.42704
G1 X129.522 Y95.475 E26.44035
G1 X129.522 Y128.198 E27.52872
G1 X129.923 Y128.198 E27.54203
G1 X129.923 Y95.475 E28.63040
G1 X130.322 Y95.475 E28.64371
G1 X130.322 Y128.198 E29.73209
G1 X130.723 Y128.198 E29.74539
G1 X130.723 Y95.475 E30.83377
G1 X131.123 Y95.475 E30.84707
G1 X131.123 Y128.198 E31.93545
G1 X131.522 Y128.198 E31.94875
G1 X131.522 Y95.475 E33.03713
G1 X131.923 Y95.475 E33.05044
G1 X131.923 Y128.198 E34.13881
G1 X132.323 Y128.198 E34.15212
G1 X132.323 Y95.475 E35.24050
G1 X132.723 Y95.475 E35.25380
G1 X132.723 Y128.198 E36.34218
G1 X133.123 Y128.198 E36.35549
G1 X133.123 Y95.475 E37.44387
G1 X133.522 Y95.475 E37.45717
G1 X133.522 Y128.198 E38.54555
G1 X133.922 Y128.198 E38.55886
G1 X133.922 Y95.475 E39.64724
G1 X134.323 Y95.475 E39.66054
G1 X134.323 Y128.198 E40.74892
G1 X134.722 Y128.198 E40.76223
G1 X134.722 Y95.475 E41.85061
G1 X135.123 Y95.475 E41.86391
G1 X135.123 Y128.198 E42.95229
G1 X135.522 Y128.198 E42.96560
G1 X135.522 Y95.475 E44.05398
G1 X135.922 Y95.475 E44.06728
G1 X135.922 Y128.198 E45.15566
G1 X136.322 Y128.198 E45.16897
G1 X136.322 Y95.475 E46.25735
G1 X136.722 Y95.475 E46.27065
G1 X136.722 Y128.198 E47.35903
G1 X137.123 Y128.198 E47.37234
G1 X137.123 Y95.475 E48.46071
G1 X137.522 Y95.475 E48.47402
G1 X137.522 Y128.198 E49.56240
G1 X137.923 Y128.198 E49.57571
G1 X137.923 Y95.475 E50.66408
G1 X138.323 Y95.475 E50.67739
G1 X138.323 Y128.198 E51.76577
G1 X138.723 Y128.198 E51.77907
G1 X138.723 Y95.475 E52.86745
G1 X139.123 Y95.475 E52.88076
G1 X139.123 Y128.198 E53.96914
G1 X139.523 Y128.198 E53.98244
G1 X139.523 Y95.475 E55.07082
G1 X139.923 Y95.475 E55.08413
G1 X139.923 Y128.198 E56.17251
G1 X140.323 Y128.198 E56.18581
G1 X140.323 Y95.475 E57.27419
G1 X140.723 Y95.475 E57.28750
G1 X140.723 Y128.198 E58.37588
G1 X141.123 Y128.198 E58.38918
G1 X141.123 Y48.709 E61.03300
G1 X141.523 Y48.709 E61.04630
G1 X141.523 Y128.198 E63.69012
G1 X141.923 Y128.198 E63.70342
G1 X141.923 Y48.709 E66.34723
G1 X142.323 Y48.709 E66.36054
G1 X142.323 Y128.198 E69.00435
G1 X142.723 Y127.811 E69.02285
G1 X142.723 Y48.709 E71.65381
G1 X143.123 Y48.709 E71.66712
G1 X143.123 Y127.425 E74.28522
G1 X143.523 Y127.038 E74.30372
G1 X143.523 Y48.709 E76.90897
G1 X143.923 Y48.709 E76.92227
G1 X143.923 Y126.652 E79.51467
G1 X144.323 Y126.265 E79.53317
G1 X144.323 Y48.709 E82.11270
G1 X144.723 Y48.709 E82.12601
G1 X144.723 Y125.879 E84.69270
G0 X162.723 Y115.057 F7200
G1 X162.723 Y59.402 E86.54379 F2400
G1 X162.323 Y59.402 E86.55710
G1 X162.323 Y115.443 E88.42105
G1 X161.923 Y115.830 E88.43955
G1 X161.923 Y59.402 E90.31636
G1 X161.523 Y59.402 E90.32967
G1 X161.523 Y116.216 E92.21933
G1 X161.123 Y116.603 E92.23783
G1 X161.123 Y59.659 E94.13178
G1 X160.723 Y59.659 E94.14509
G1 X160.723 Y117.118 E96.05618
G1 X160.323 Y117.376 E96.07200
G1 X160.323 Y59.402 E98.00023
G1 X159.923 Y59.402 E98.01353
G1 X159.923 Y117.376 E99.94176
G1 X159.523 Y117.376 E99.95507
G1 X159.523 Y59.402 E101.88330
G0 X159.123 Y58.113 F7200
G1 X159.123 Y118.664 E103.89722 F2400
G1 X158.723 Y119.051 E103.91573
G1 X158.723 Y57.727 E105.95536
G1 X158.323 Y57.340 E105.97386
G1 X158.323 Y119.437 E108.03921
G1 X157.923 Y119.824 E108.05771
G1 X157.923 Y56.954 E110.14877
G1 X157.523 Y56.567 E110.16727
G1 X157.523 Y120.210 E112.28403
G1 X157.123 Y120.597 E112.30254
G1 X157.123 Y56.181 E114.44501
G1 X156.723 Y55.794 E114.46351
G1 X156.723 Y120.983 E116.63169
G1 X156.323 Y120.983 E116.64500
G1 X156.323 Y55.794 E118.81318
G1 X155.923 Y55.794 E118.82648
G1 X155.923 Y120.983 E120.99467
G1 X155.523 Y120.983 E121.00797
G1 X155.523 Y54.506 E123.21901
G1 X155.123 Y54.120 E123.23751
G1 X155.123 Y120.983 E125.46140
G1 X154.723 Y120.983 E125.47471
G1 X154.723 Y53.733 E127.71145
G1 X154.323 Y53.347 E127.72995
G1 X154.323 Y120.983 E129.97955
G1 X153.923 Y120.983 E129.99286
G1 X153.923 Y52.960 E132.25531
G1 X153.523 Y52.574 E132.27380
G1 X153.523 Y120.983 E134.54912
G1 X153.123 Y120.983 E134.56242
G1 X153.123 Y52.316 E136.84630
G1 X152.723 Y52.316 E136.85960
G1 X152.723 Y120.983 E139.14348
G1 X152.323 Y120.983 E139.15678
G1 X152.323 Y52.316 E141.44066
G1 X151.923 Y52.316 E141.45396
G1 X151.923 Y122.271 E143.78069
G1 X151.523 Y122.658 E143.79918
G1 X151.523 Y52.316 E146.13876
G1 X151.123 Y52.316 E146.15207
G1 X151.123 Y123.044 E148.50450
G1 X150.723 Y123.431 E148.52299
G1 X150.723 Y52.316 E150.88829
G1 X150.323 Y52.316 E150.90160
G1 X150.323 Y123.817 E153.27974
G1 X149.923 Y124.204 E153.29823
G1 X149.923 Y52.316 E155.68924
G1 X149.523 Y52.316 E155.70255
G1 X149.523 Y124.590 E158.10640
G1 X149.123 Y124.590 E158.11971
G1 X149.123 Y52.316 E160.52356
G1 X148.723 Y52.316 E160.53687
G1 X148.723 Y124.590 E162.94072
G1 X148.323 Y124.590 E162.95403
G1 X148.323 Y50.899 E165.40501
G1 X147.923 Y50.512 E165.42351
G1 X147.923 Y124.590 E167.88736
G1 X147.523 Y124.590 E167.90066
G1 X147.523 Y50.126 E170.37736
G1 X147.123 Y49.739 E170.39586
G1 X147.123 Y124.590 E172.88542
G1 X146.723 Y124.590 E172.89872
G1 X146.723 Y49.353 E175.40114
G1 X146.323 Y48.966 E175.41964
G1 X146.323 Y124.590 E177.93490
G1 X145.923 Y124.590 E177.94820
G1 X145.923 Y48.709 E180.47204
G1 X145.523 Y48.709 E180.48534
G1 X145.523 Y124.590 E183.00918
G1 X145.123 Y124.590 E183.02248
G1 X145.123 Y48.709 E185.54632
G0 X163.123 Y59.402 F7200
G1 X163.123 Y113.769 E187.35456 F2400
G1 X163.523 Y113.769 E187.36786
G1 X163.523 Y59.402 E189.17610
G1 X163.923 Y59.402 E189.18940
G1 X163.923 Y113.769 E190.99766
G1 X164.323 Y113.769 E191.01096
G1 X164.323 Y59.402 E192.81920
G1 X164.723 Y59.402 E192.83250
G1 X164.723 Y113.769 E194.64074
G1 X165.123 Y113.769 E194.65406
G1 X165.123 Y59.402 E196.46230
G1 X165.523 Y59.402 E196.47560
G1 X165.523 Y113.769 E198.28384
G1 X165.923 Y113.769 E198.29714
G1 X165.923 Y59.402 E200.10540
G1 X166.323 Y59.402 E200.11870
G1 X166.323 Y113.769 E201.92694
G1 X166.723 Y113.769 E201.94024
G1 X166.723 Y59.402 E203.74848
G1 X167.123 Y59.402 E203.76180
G1 X167.123 Y113.769 E205.57004
G1 X167.523 Y113.769 E205.58334
G1 X167.523 Y59.402 E207.39158
G1 X167.923 Y59.402 E207.40490
G1 X167.923 Y113.769 E209.21314
G1 X168.323 Y113.769 E209.22644
G1 X168.323 Y59.402 E211.03468
G1 X168.723 Y59.402 E211.04798
G1 X168.723 Y113.769 E212.85624
G1 X169.123 Y113.769 E212.86954
G1 X169.123 Y59.402 E214.67778
G1 X169.523 Y59.402 E214.69108
G1 X169.523 Y113.769 E216.49932
G1 X169.923 Y113.769 E216.51264
G1 X169.923 Y76.150 E217.76384
G1 X169.923 Y75.506 E217.78526
G1 X169.923 Y59.402 E218.32088
G1 X170.323 Y59.402 E218.33418
G1 X170.323 Y74.217 E218.82696
G1 X170.723 Y74.217 E218.84026
G1 X170.723 Y59.402 E219.33302
G1 X171.123 Y59.402 E219.34632
G1 X171.123 Y74.217 E219.83910
G1 X171.523 Y73.960 E219.85492
G1 X171.523 Y59.659 E220.33056
G1 X171.923 Y60.046 E220.34904
G1 X171.923 Y73.573 E220.79896
G1 X172.323 Y73.058 E220.82066
G1 X172.323 Y60.561 E221.23630
G1 X172.723 Y60.948 E221.25480
G1 X172.723 Y72.671 E221.64472
G1 X173.123 Y72.285 E221.66320
G1 X173.123 Y61.334 E222.02744
G1 X173.523 Y61.721 E222.04592
G1 X173.523 Y71.898 E222.38444
G0 X170.323 Y99.082 F7200
G1 X170.323 Y113.769 E222.87292 F2400
G1 X170.723 Y113.769 E222.88624
G1 X170.723 Y99.082 E223.37472
G1 X171.123 Y99.082 E223.38802
G1 X171.123 Y113.769 E223.87650
G1 X171.523 Y113.511 E223.89232
G1 X171.523 Y99.340 E224.36366
G1 X171.923 Y99.726 E224.38216
G1 X171.923 Y113.124 E224.82778
G1 X172.323 Y112.609 E224.84948
G1 X172.323 Y100.241 E225.26084
G1 X172.723 Y100.628 E225.27934
G1 X172.723 Y112.223 E225.66500
G1 X173.123 Y111.836 E225.68348
G1 X173.123 Y101.014 E226.04342
G1 X173.523 Y101.401 E226.06192
G1 X173.523 Y111.450 E226.39614
G0 X140.723 Y79.757 F7200
G1 X140.723 Y48.709 E227.42882 F2400
G1 X140.323 Y48.709 E227.44212
G1 X140.323 Y79.757 E228.47480
G1 X139.923 Y79.757 E228.48810
G1 X139.923 Y48.709 E229.52076
G1 X139.523 Y48.709 E229.53408
G1 X139.523 Y79.757 E230.56674
G1 X139.123 Y79.757 E230.58004
G1 X139.123 Y48.709 E231.61272
G1 X138.723 Y48.709 E231.62602
G1 X138.723 Y79.757 E232.65870
G1 X138.323 Y79.757 E232.67200
G1 X138.323 Y48.709 E233.70466
G1 X137.923 Y48.709 E233.71798
G1 X137.923 Y79.757 E234.75064
G1 X137.522 Y79.757 E234.76394
G1 X137.522 Y48.709 E235.79662
G1 X137.123 Y48.709 E235.80992
G1 X137.123 Y79.757 E236.84260
G1 X136.722 Y79.757 E236.85590
G1 X136.722 Y48.709 E237.88856
G1 X136.322 Y48.709 E237.90188
G1 X136.322 Y79.757 E238.93454
G1 X135.922 Y79.757 E238.94784
G1 X135.922 Y48.709 E239.98052
G1 X135.522 Y48.709 E239.99382
G1 X135.522 Y79.757 E241.02648
G1 X135.123 Y79.757 E241.03980
G1 X135.123 Y48.709 E242.07246
G1 X134.722 Y48.709 E242.08576
G1 X134.722 Y79.757 E243.11844
G1 X134.323 Y79.757 E243.13174
G1 X134.323 Y48.709 E244.16442
G1 X133.922 Y48.709 E244.17772
G1 X133.922 Y79.757 E245.21038
G1 X133.522 Y79.757 E245.22370
G1 X133.522 Y48.709 E246.25636
G1 X133.123 Y48.709 E246.26966
G1 X133.123 Y79.757 E247.30234
G1 X132.723 Y79.757 E247.31564
G1 X132.723 Y48.709 E248.34832
G1 X132.323 Y48.709 E248.36162
G1 X132.323 Y79.757 E249.39428
G1 X131.923 Y79.757 E249.40760
G1 X131.923 Y48.709 E250.44026
G1 X131.522 Y48.709 E250.45356
G1 X131.522 Y79.757 E251.48624
G1 X131.123 Y79.757 E251.49954
G1 X131.123 Y48.709 E252.53222
G1 X130.723 Y48.709 E252.54552
G1 X130.723 Y79.757 E253.57818
G1 X130.322 Y79.499 E253.59400
G1 X130.322 Y48.709 E254.61812
G1 X129.923 Y48.709 E254.63142
G1 X129.923 Y79.242 E255.64696
G1 X129.522 Y79.113 E255.66094
G1 X129.522 Y48.709 E256.67218
G1 X129.123 Y48.709 E256.68548
G1 X129.123 Y78.984 E257.69244
G1 X128.723 Y78.726 E257.70828
G1 X128.723 Y48.709 E258.70666
G1 X128.323 Y48.709 E258.71998
G1 X128.323 Y78.598 E259.71408
G1 X127.923 Y78.340 E259.72992
G1 X127.923 Y48.709 E260.71546
G1 X127.523 Y48.709 E260.72876
G1 X127.523 Y78.211 E261.71002
G1 X127.123 Y77.953 E261.72586
G1 X127.123 Y48.709 E262.69854
G1 X126.723 Y48.709 E262.71186
G1 X126.723 Y77.825 E263.68024
G1 X126.323 Y77.825 E263.69354
G1 X126.323 Y48.709 E264.66192
G1 X125.923 Y48.709 E264.67524
G1 X125.923 Y77.825 E265.64362
G1 X125.523 Y77.825 E265.65692
G1 X125.523 Y48.709 E266.62530
G1 X125.123 Y48.709 E266.63862
G1 X125.123 Y77.825 E267.60700
G1 X124.723 Y77.825 E267.62030
G1 X124.723 Y48.709 E268.58868
G1 X124.323 Y48.709 E268.60198
G1 X124.323 Y77.825 E269.57038
G1 X123.923 Y77.825 E269.58368
G1 X123.923 Y48.709 E270.55206
G1 X123.523 Y48.709 E270.56536
G1 X123.523 Y77.825 E271.53376
G1 X123.123 Y77.825 E271.54706
G1 X123.123 Y48.709 E272.51544
G1 X122.723 Y48.709 E272.52874
G1 X122.723 Y77.825 E273.49714
G1 X122.323 Y77.825 E273.51044
G1 X122.323 Y48.709 E274.47882
G1 X121.923 Y48.709 E274.49212
G1 X121.923 Y77.825 E275.46052
G1 X121.523 Y77.825 E275.47382
G1 X121.523 Y48.709 E276.44220
G1 X121.123 Y48.709 E276.45550
G1 X121.123 Y77.825 E277.42388
G1 X120.723 Y77.825 E277.43720
G1 X120.723 Y48.709 E278.40558
G1 X120.323 Y48.709 E278.41888
G1 X120.323 Y77.825 E279.38726
G1 X119.923 Y77.825 E279.40058
G1 X119.923 Y48.709 E280.36896
G1 X119.523 Y48.709 E280.38226
G1 X119.523 Y128.198 E283.02606
G1 X119.123 Y128.198 E283.03936
G1 X119.123 Y48.709 E285.68316
G1 X118.723 Y48.709 E285.69648
G1 X118.723 Y128.198 E288.34028
G1 X118.323 Y128.198 E288.35358
G1 X118.323 Y48.709 E290.99738
G1 X117.923 Y48.709 E291.01068
G1 X117.923 Y127.940 E293.64594
G1 X117.523 Y127.554 E293.66442
G1 X117.523 Y48.709 E296.28680
G1 X117.123 Y48.709 E296.30010
G1 X117.123 Y127.167 E298.90964
G1 X116.723 Y126.781 E298.92814
G1 X116.723 Y48.709 E301.52482
G1 X116.323 Y48.709 E301.53812
G1 X116.323 Y126.394 E304.12194
G1 X115.923 Y126.008 E304.14044
G1 X115.923 Y48.709 E306.71142
G1 X115.523 Y48.709 E306.72474
G1 X115.523 Y124.590 E309.24856
G1 X115.123 Y124.590 E309.26188
G1 X115.123 Y48.709 E311.78570
G1 X114.723 Y48.709 E311.79902
G1 X114.723 Y124.590 E314.32284
G1 X114.323 Y124.590 E314.33616
G1 X114.323 Y48.966 E316.85140
G1 X113.923 Y49.353 E316.86990
G1 X113.923 Y124.590 E319.37232
G1 X113.523 Y124.590 E319.38562
G1 X113.523 Y49.739 E321.87518
G1 X113.123 Y50.126 E321.89368
G1 X113.123 Y124.590 E324.37040
G1 X112.723 Y124.590 E324.38370
G1 X112.723 Y50.512 E326.84754
G1 X112.323 Y50.899 E326.86602
G1 X112.323 Y124.590 E329.31702
G1 X111.923 Y124.590 E329.33032
G1 X111.923 Y52.316 E331.73420
G1 X111.523 Y52.316 E331.74750
G1 X111.523 Y124.590 E334.15136
G1 X111.123 Y124.590 E334.16468
G1 X111.123 Y52.316 E336.56856
G1 X110.723 Y52.316 E336.58184
G1 X110.723 Y124.333 E338.97716
G1 X110.323 Y123.946 E338.99564
G1 X110.323 Y52.316 E341.37808
G1 X109.923 Y52.316 E341.39140
G1 X109.923 Y123.560 E343.76096
G1 X109.523 Y123.173 E343.77944
G1 X109.523 Y52.316 E346.13616
G1 X109.123 Y52.316 E346.14948
G1 X109.123 Y122.787 E348.49336
G1 X108.723 Y122.400 E348.51184
G1 X108.723 Y52.316 E350.84288
G1 X108.323 Y52.316 E350.85616
G1 X108.323 Y120.983 E353.14004
G1 X107.923 Y120.983 E353.15336
G1 X107.923 Y52.316 E355.43724
G1 X107.523 Y52.316 E355.45052
G1 X107.523 Y120.983 E357.73440
G1 X107.123 Y120.983 E357.74772
G1 X107.123 Y52.574 E360.02300
G1 X106.723 Y52.960 E360.04152
G1 X106.723 Y120.983 E362.30396
G1 X106.323 Y120.983 E362.31728
G1 X106.323 Y53.347 E364.56688
G1 X105.923 Y53.733 E364.58536
G1 X105.923 Y120.983 E366.82212
G1 X105.523 Y120.983 E366.83540
G1 X105.523 Y54.120 E369.05928
G1 X105.123 Y54.506 E369.07780
G1 X105.123 Y120.983 E371.28880
G0 X101.523 Y118.793 F7200
G1 X101.523 Y58.113 E373.30704 F2400
G1 X101.923 Y57.727 E373.32552
G1 X101.923 Y119.180 E375.36944
G1 X102.323 Y119.566 E375.38792
G1 X102.323 Y57.340 E377.45760
G1 X102.723 Y56.954 E377.47608
G1 X102.723 Y119.953 E379.57140
G1 X103.123 Y120.339 E379.58992
G1 X103.123 Y56.567 E381.71096
G1 X103.523 Y56.181 E381.72948
G1 X103.523 Y120.726 E383.87624
G1 X103.923 Y120.983 E383.89204
G1 X103.923 Y55.794 E386.06024
G1 X104.323 Y55.794 E386.07356
G1 X104.323 Y120.983 E388.24172
G1 X104.723 Y120.983 E388.25504
G1 X104.723 Y55.794 E390.42320
G0 X101.123 Y59.402 F7200
G1 X101.123 Y117.376 E392.35144 F2400
G1 X100.723 Y117.376 E392.36476
G1 X100.723 Y59.402 E394.29296
G1 X100.323 Y59.402 E394.30628
G1 X100.323 Y117.376 E396.23448
G1 X99.923 Y117.247 E396.24848
G1 X99.923 Y59.659 E398.16384
G1 X99.523 Y60.175 E398.18556
G1 X99.523 Y116.732 E400.06664
G1 X99.123 Y116.345 E400.08516
G1 X99.123 Y60.561 E401.94052
G1 X98.723 Y60.948 E401.95900
G1 X98.723 Y115.959 E403.78868
G1 X98.323 Y115.572 E403.80720
G1 X98.323 Y61.334 E405.61116
G1 X97.923 Y61.721 E405.62964
G1 X97.923 Y115.186 E407.40788
G0 X97.523 Y113.769 F7200
G1 X97.523 Y61.334 E409.15188 F2400
G1 X97.123 Y60.948 E409.17036
G1 X97.123 Y113.769 E410.92720
G1 X96.723 Y113.769 E410.94052
G1 X96.723 Y60.561 E412.71020
G1 X96.323 Y60.175 E412.72868
G1 X96.323 Y113.769 E414.51124
G1 X95.923 Y113.769 E414.52452
G1 X95.923 Y59.659 E416.32420
G1 X95.523 Y59.402 E416.34004
G1 X95.523 Y113.769 E418.14832
G1 X95.123 Y113.769 E418.16164
G1 X95.123 Y59.402 E419.96988
G1 X94.723 Y59.402 E419.98320
G1 X94.723 Y113.769 E421.79144
G1 X94.323 Y113.769 E421.80476
G1 X94.323 Y59.402 E423.61300
G1 X93.923 Y59.402 E423.62632
G1 X93.923 Y113.769 E425.43456
G1 X93.523 Y113.769 E425.44788
G1 X93.523 Y59.402 E427.25612
G1 X93.123 Y59.402 E427.26944
G1 X93.123 Y113.769 E429.07768
G1 X92.723 Y113.640 E429.09168
G1 X92.723 Y59.402 E430.89564
G1 X92.323 Y59.402 E430.90892
G1 X92.323 Y113.253 E432.70004
G1 X91.923 Y112.738 E432.72176
G1 X91.923 Y59.402 E434.49568
G1 X91.523 Y59.402 E434.50900
G1 X91.523 Y112.351 E436.27012
G1 X91.123 Y111.965 E436.28860
G1 X91.123 Y59.402 E438.03688
G1 X90.723 Y59.402 E438.05016
G1 X90.723 Y111.578 E439.78560
G0 X90.323 Y110.161 F7200
G1 X90.323 Y99.082 E440.15408 F2400
G1 X89.923 Y99.082 E440.16740
G1 X89.923 Y110.161 E440.53588
G1 X89.523 Y110.161 E440.54920
G1 X89.523 Y99.082 E440.91768
G1 X89.123 Y99.211 E440.93168
G1 X89.123 Y110.033 E441.29160
G1 X88.723 Y109.646 E441.31008
G1 X88.723 Y99.597 E441.64432
G1 X88.323 Y100.112 E441.66600
G1 X88.323 Y109.131 E441.96596
G1 X87.923 Y108.744 E441.98448
G1 X87.923 Y100.499 E442.25868
G1 X87.523 Y100.885 E442.27720
G1 X87.523 Y108.358 E442.52572
G1 X87.123 Y107.971 E442.54420
G1 X87.123 Y101.272 E442.76704
G0 X90.323 Y77.825 F7200
G1 X90.323 Y59.402 E443.37980 F2400
G1 X89.923 Y59.402 E443.39308
G1 X89.923 Y77.825 E444.00584
G1 X89.523 Y77.825 E444.01916
G1 X89.523 Y59.402 E444.63192
G1 X89.123 Y59.659 E444.64776
G1 X89.123 Y77.567 E445.24336
G1 X88.723 Y77.181 E445.26188
G1 X88.723 Y60.046 E445.83176
G1 X88.323 Y60.561 E445.85344
G1 X88.323 Y76.665 E446.38908
G1 X87.923 Y76.279 E446.40756
G1 X87.923 Y60.948 E446.91748
G1 X87.523 Y61.334 E446.93596
G1 X87.523 Y75.892 E447.42016
G1 X87.123 Y75.506 E447.43864
G1 X87.123 Y61.721 E447.89716


; ------------------------------------
; Layer #0
; ------------------------------------
G21 ; mm
G90 ; abs
G92 E0 ;reset extr
G0 F600 Z1.850
;segType:SoftSupport
G0 F3000 E-1.00000
G0 X120.424 Y72.800 F5400
G0 F3000 E0.00000
G1 X120.424 Y72.797 E0.00004 F2400
G0 X120.424 Y72.797 F5400
;segType:SupportTouch
G1 X120.424 Y71.179 E0.04578 F2400
G1 X122.224 Y71.179 E0.09667
G0 X122.224 Y71.179 F5400
G1 X122.224 Y72.777 E0.14185 F2400
G0 X122.224 Y72.777 F5400
;segType:SoftSupport
G1 X122.224 Y72.780 E0.14190 F2400
G0 X124.024 Y72.760 F5400
G1 X124.024 Y72.757 E0.14194 F2400
G0 X124.024 Y72.757 F5400
;segType:SupportTouch
G1 X124.024 Y71.179 E0.18656 F2400
G1 X125.824 Y71.179 E0.23745
G0 X125.824 Y71.179 F5400
G1 X125.824 Y72.738 E0.28151 F2400
G0 X125.824 Y72.738 F5400
;segType:SoftSupport
G1 X125.824 Y72.740 E0.28155 F2400
G0 X127.624 Y72.720 F5400
G1 X127.624 Y72.718 E0.28159 F2400
G0 X127.624 Y72.718 F5400
;segType:SupportTouch
G1 X127.624 Y71.179 E0.32509 F2400
G1 X129.424 Y71.179 E0.37598
G0 X129.424 Y71.179 F5400
G1 X129.424 Y72.303 E0.40776 F2400
G0 X133.024 Y71.179 F5400
G1 X133.024 Y72.264 E0.43844 F2400
G0 X131.224 Y72.284 F5400
G1 X131.224 Y71.179 E0.46967 F2400
G1 X133.024 Y71.179 E0.52056
G0 X134.824 Y72.245 F5400
G1 X134.824 Y71.179 E0.55069 F2400
G1 X136.624 Y71.179 E0.60158
G0 X136.624 Y71.179 F5400
G1 X136.624 Y72.226 E0.63117 F2400
G0 X138.424 Y72.206 F5400
G1 X138.424 Y71.179 E0.66021 F2400
G1 X140.224 Y71.179 E0.71110
G0 X140.224 Y71.179 F5400
G1 X140.224 Y72.187 E0.73960 F2400
G0 X142.024 Y72.168 F5400
G1 X142.024 Y71.179 E0.76755 F2400
G1 X143.824 Y71.179 E0.81844
G0 X143.824 Y71.179 F5400
G1 X143.824 Y72.148 E0.84584 F2400
G0 F3000 E-0.15416
G0 X144.639 Y73.136 F5400
G0 X136.370 Y73.227
G0 X132.822 Y73.741
G0 X133.485 Y74.055
G0 X133.506 Y73.642
G0 F3000 E0.84584
;segType:InnerHair
G1 X133.392 Y73.616 E0.84889 F2400
G1 X133.278 Y73.591 E0.85142
G1 X133.164 Y73.566 E0.85345
G0 X133.134 Y73.560 F5400
G0 X133.267 Y73.589
G0 X133.399 Y73.618
G0 X133.532 Y73.647
G0 X133.665 Y73.676
G1 X133.621 Y73.655 E0.85505 F2400
G1 X133.735 Y73.654 E0.85881
G1 X133.849 Y73.653 E0.86258
G1 X133.964 Y73.652 E0.86634
G1 X134.078 Y73.650 E0.87011
G1 X134.192 Y73.649 E0.87387
G1 X134.306 Y73.648 E0.87764
G1 X134.421 Y73.647 E0.88141
G1 X134.535 Y73.645 E0.88517
G1 X134.649 Y73.644 E0.88894
G1 X134.763 Y73.643 E0.89270
G1 X134.878 Y73.642 E0.89647
G1 X134.992 Y73.640 E0.90023
G1 X135.106 Y73.639 E0.90400
G1 X135.221 Y73.638 E0.90777
G1 X135.335 Y73.637 E0.91153
G1 X135.449 Y73.635 E0.91530
G1 X135.563 Y73.634 E0.91906
G1 X135.678 Y73.633 E0.92283
G1 X135.792 Y73.632 E0.92660
G1 X135.906 Y73.630 E0.93036
G1 X136.021 Y73.629 E0.93413
G1 X136.135 Y73.628 E0.93790
G1 X136.249 Y73.627 E0.94166
G1 X136.364 Y73.625 E0.94543
G1 X136.478 Y73.624 E0.94920
G1 X136.592 Y73.623 E0.95296
G1 X136.706 Y73.622 E0.95673
G1 X136.821 Y73.620 E0.96050
G1 X136.935 Y73.619 E0.96426
G1 X137.049 Y73.618 E0.96803
G1 X137.164 Y73.617 E0.97179
G1 X137.278 Y73.615 E0.97556
G1 X137.392 Y73.614 E0.97933
G1 X137.506 Y73.613 E0.98309
G1 X137.621 Y73.611 E0.98686
G1 X137.735 Y73.610 E0.99063
G1 X137.849 Y73.609 E0.99440
G1 X137.964 Y73.608 E0.99816
G1 X138.078 Y73.606 E1.00193
G1 X138.192 Y73.605 E1.00570
G1 X138.306 Y73.604 E1.00946
G1 X138.421 Y73.603 E1.01323
G1 X138.535 Y73.601 E1.01700
G1 X138.649 Y73.600 E1.02077
G1 X138.764 Y73.599 E1.02453
G1 X138.878 Y73.598 E1.02830
G1 X138.992 Y73.596 E1.03207
G1 X139.106 Y73.595 E1.03583
G1 X139.221 Y73.594 E1.03960
G1 X139.335 Y73.593 E1.04337
G1 X139.449 Y73.591 E1.04714
G1 X139.563 Y73.590 E1.05090
G1 X139.678 Y73.589 E1.05467
G1 X139.792 Y73.588 E1.05844
G1 X139.906 Y73.586 E1.06221
G1 X140.021 Y73.585 E1.06597
G1 X140.135 Y73.584 E1.06974
G1 X140.249 Y73.583 E1.07351
G1 X140.364 Y73.581 E1.07728
G1 X140.478 Y73.580 E1.08104
G1 X140.592 Y73.579 E1.08481
G1 X140.706 Y73.578 E1.08858
G1 X140.821 Y73.576 E1.09235
G1 X140.935 Y73.575 E1.09612
G1 X141.049 Y73.574 E1.09988
G1 X141.164 Y73.573 E1.10365
G1 X141.278 Y73.571 E1.10742
G1 X141.392 Y73.570 E1.11119
G1 X141.506 Y73.569 E1.11496
G1 X141.621 Y73.568 E1.11872
G1 X141.735 Y73.566 E1.12249
G1 X141.849 Y73.565 E1.12626
G1 X141.964 Y73.564 E1.13003
G1 X142.078 Y73.563 E1.13380
G1 X142.192 Y73.561 E1.13757
G1 X142.306 Y73.560 E1.14133
G1 X142.421 Y73.559 E1.14510
G1 X142.535 Y73.557 E1.14887
G1 X142.649 Y73.556 E1.15264
G1 X142.763 Y73.555 E1.15641
G1 X142.878 Y73.554 E1.16018
G1 X142.992 Y73.552 E1.16394
G1 X143.106 Y73.551 E1.16771
G1 X143.221 Y73.550 E1.17148
G1 X143.335 Y73.549 E1.17525
G1 X143.449 Y73.548 E1.17902
G1 X143.564 Y73.546 E1.18280
G1 X143.678 Y73.545 E1.18657
G1 X143.792 Y73.544 E1.19035
G1 X143.906 Y73.543 E1.19412
G1 X144.021 Y73.542 E1.19790
G1 X144.135 Y73.541 E1.20168
G1 X144.249 Y73.539 E1.20547
G1 X144.364 Y73.538 E1.20925
G0 X144.777 Y73.561 F5400
;segType:Perimeter
G1 X144.992 Y74.331 E1.23586 F1439
G1 X143.266 Y74.348 E1.29326
G1 X143.175 Y74.349 E1.29630
G1 X133.397 Y74.456 E1.62154
G1 X130.572 Y73.116 E1.72553
G1 X130.457 Y72.973 E1.73411
G0 X130.351 Y72.949 F5400
G0 X130.245 Y72.926
G0 X130.139 Y72.903
G0 X130.033 Y72.879
G0 X129.927 Y72.856
G0 X129.821 Y72.833
G0 X129.715 Y72.810
G1 X129.735 Y72.814 E1.73450 F1439
G1 X129.826 Y72.834 E1.73660
G1 X129.918 Y72.854 E1.73903
G1 X130.009 Y72.874 E1.74179
G1 X130.101 Y72.894 E1.74488
G1 X130.192 Y72.914 E1.74829
G1 X130.284 Y72.934 E1.75203
G1 X130.375 Y72.954 E1.75610
G1 X130.466 Y72.975 E1.76050
G1 X130.558 Y72.891 E1.76462
G1 X145.035 Y72.732 E2.24615
G1 X145.051 Y74.271 E2.29734
G0 X144.277 Y74.071 F5400
G0 X143.948 Y73.941
;segType:Loop
G1 X143.335 Y73.947 E2.31774 F2400
G1 X143.221 Y73.948 E2.32154
G1 X133.485 Y74.055 E2.64538
G1 X132.254 Y73.471 E2.69070
G0 X132.207 Y73.356 F5400
G0 X132.074 Y73.327
G0 X131.941 Y73.298
G0 X131.809 Y73.269
G0 X131.676 Y73.240
G0 X131.544 Y73.211
G0 X131.411 Y73.182
G1 X131.449 Y73.190 E2.69141 F2400
G1 X131.563 Y73.215 E2.69404
G1 X131.678 Y73.240 E2.69719
G1 X131.792 Y73.265 E2.70084
G1 X131.906 Y73.290 E2.70501
G1 X132.021 Y73.316 E2.70969
G1 X132.135 Y73.341 E2.71489
G1 X132.249 Y73.366 E2.72060
G1 X132.364 Y73.271 E2.72553
G1 X144.639 Y73.136 E3.13384
G1 X144.648 Y73.934 E3.16040
G1 X144.148 Y73.939 E3.17701
G0 F3000 E2.17701
G0 X144.135 Y73.142 F5400
G0 X143.824 Y54.979
G0 F3000 E3.17701
;segType:Support
G1 X116.824 Y54.979 E3.94033 F2400
G1 X116.824 Y53.179 E3.99122
G1 X143.824 Y53.179 E4.75454
G0 X151.024 Y56.779 F5400
G1 X109.624 Y56.779 E5.92496 F2400
G0 X106.024 Y60.379 F5400
G1 X154.624 Y60.379 E7.29894 F2400
G1 X154.624 Y62.179 E7.34982
G1 X106.024 Y62.179 E8.72380
G0 X102.424 Y65.779 F5400
G1 X158.224 Y65.779 E10.30133 F2400
G1 X158.224 Y63.979 E10.35222
G1 X102.424 Y63.979 E11.92975
G0 X109.624 Y58.579 F5400
G1 X151.024 Y58.579 E13.10017 F2400
G0 X145.624 Y71.179 F5400
G1 X165.424 Y71.179 E13.65994 F2400
G0 X163.624 Y65.779 F5400
G1 X169.024 Y65.779 E13.81260 F2400
G1 X169.024 Y63.979 E13.86349
G1 X163.624 Y63.979 E14.01615
G0 X169.024 Y69.379 F5400
G1 X91.624 Y69.379 E16.20434 F2400
G0 X91.624 Y63.979 F5400
G1 X93.424 Y63.979 E16.25523 F2400
G1 X93.424 Y65.779 E16.30611
G1 X91.624 Y65.779 E16.35700
G1 X91.624 Y67.579 E16.40789
G1 X169.024 Y67.579 E18.59608
G0 X165.424 Y72.979 F5400
G1 X145.636 Y72.979 E19.15548 F2400
G1 X145.653 Y74.779 E19.20637
G1 X161.824 Y74.779 E19.66352
G1 X161.824 Y76.579 E19.71441
G1 X145.624 Y76.579 E20.17240
G1 X145.624 Y78.379 E20.22329
G1 X165.424 Y78.379 E20.78306
G0 X165.424 Y83.779 F5400
G1 X145.624 Y83.779 E21.34283 F2400
G1 X145.624 Y81.979 E21.39372
G1 X165.424 Y81.979 E21.95348
G1 X165.424 Y80.179 E22.00437
G1 X145.624 Y80.179 E22.56414
G0 X145.624 Y85.579 F5400
G1 X165.424 Y85.579 E23.12391 F2400
G1 X165.424 Y87.379 E23.17480
G1 X145.624 Y87.379 E23.73457
G1 X145.624 Y89.179 E23.78546
G1 X165.424 Y89.179 E24.34522
G1 X165.424 Y90.979 E24.39611
G1 X145.624 Y90.979 E24.95588
G1 X145.624 Y92.779 E25.00677
G1 X165.424 Y92.779 E25.56654
G1 X165.424 Y94.579 E25.61743
G1 X145.624 Y94.579 E26.17719
G1 X145.624 Y96.379 E26.22808
G1 X165.424 Y96.379 E26.78785
G1 X165.424 Y98.179 E26.83874
G1 X145.624 Y98.179 E27.39851
G0 F3000 E26.39851
G0 X142.024 Y100.567 F5400
G0 F3000 E27.39851
;segType:SoftSupport
G1 X142.024 Y101.779 E27.41866 F2400
G1 X143.824 Y101.779 E27.44859
G1 X143.824 Y100.548 E27.46907
G0 X143.824 Y100.548 F5400
;segType:SupportTouch
G1 X143.824 Y99.979 E27.48514 F2400
G0 X143.824 Y99.979 F5400
G1 X142.024 Y99.979 E27.53603 F2400
G1 X142.024 Y100.567 E27.55267
G0 F3000 E26.55267
G0 X145.624 Y99.979 F5400
G0 F3000 E27.55267
;segType:Support
G1 X165.424 Y99.979 E28.11243 F2400
G0 X169.024 Y103.579 F5400
G1 X91.624 Y103.579 E30.30062 F2400
G1 X91.624 Y105.379 E30.35151
G1 X169.024 Y105.379 E32.53969
G1 X169.024 Y107.179 E32.59058
G1 X163.624 Y107.179 E32.74324
G1 X163.624 Y108.979 E32.79413
G1 X169.024 Y108.979 E32.94679
G0 X165.424 Y101.779 F5400
G1 X145.624 Y101.779 E33.50656 F2400
G0 X158.224 Y107.179 F5400
G1 X95.223 Y107.179 E35.28764 F2400
G1 X95.223 Y108.979 E35.33853
G1 X158.224 Y108.979 E37.11961
G1 X158.224 Y110.779 E37.17050
G1 X102.424 Y110.779 E38.74803
G1 X102.424 Y112.579 E38.79892
G1 X158.224 Y112.579 E40.37644
G0 X154.624 Y114.379 F5400
G1 X106.024 Y114.379 E41.75042 F2400
G1 X106.024 Y116.179 E41.80131
G1 X154.624 Y116.179 E43.17529
G0 X147.424 Y117.979 F5400
G1 X113.224 Y117.979 E44.14216 F2400
G1 X113.224 Y119.779 E44.19305
G1 X147.424 Y119.779 E45.15992
G0 X140.224 Y123.379 F5400
G1 X120.424 Y123.379 E45.71969 F2400
G1 X120.424 Y121.579 E45.77058
G1 X140.224 Y121.579 E46.33035
G0 F3000 E45.33035
G0 X138.424 Y100.607 F5400
G0 F3000 E46.33035
;segType:SoftSupport
G1 X138.424 Y101.779 E46.34984 F2400
G1 X140.224 Y101.779 E46.37977
G1 X140.224 Y100.587 E46.39960
G0 X140.224 Y100.587 F5400
;segType:SupportTouch
G1 X140.224 Y99.979 E46.41679 F2400
G0 X140.224 Y99.979 F5400
G1 X138.424 Y99.979 E46.46768 F2400
G1 X138.424 Y100.607 E46.48543
G0 X136.624 Y100.627 F5400
G1 X136.624 Y99.979 E46.50374 F2400
G0 X136.624 Y99.979 F5400
G1 X134.824 Y99.979 E46.55463 F2400
G1 X134.824 Y100.647 E46.57350
G0 X134.824 Y100.647 F5400
;segType:SoftSupport
G1 X134.824 Y101.779 E46.59233 F2400
G1 X136.624 Y101.779 E46.62226
G1 X136.624 Y100.627 E46.64142
G0 F3000 E45.64142
G0 X133.024 Y99.979 F5400
G0 F3000 E46.64142
;segType:SupportTouch
G1 X133.024 Y100.666 E46.66085 F2400
G0 X133.024 Y100.666 F5400
;segType:SoftSupport
G1 X133.024 Y101.779 E46.67936 F2400
G1 X131.224 Y101.779 E46.70929
G1 X131.224 Y100.686 E46.72747
G0 X131.224 Y100.686 F5400
;segType:SupportTouch
G1 X131.224 Y99.979 E46.74746 F2400
G1 X133.024 Y99.979 E46.79835
G0 X127.624 Y100.726 F5400
G1 X127.624 Y99.979 E46.81946 F2400
G1 X129.424 Y99.979 E46.87034
G0 X129.424 Y99.979 F5400
G1 X129.424 Y100.706 E46.89089 F2400
G0 X129.424 Y100.706 F5400
;segType:SoftSupport
G1 X129.424 Y101.779 E46.90874 F2400
G1 X127.624 Y101.779 E46.93867
G1 X127.624 Y100.726 E46.95619
G0 X124.024 Y100.765 F5400
G1 X124.024 Y101.284 E46.96482 F2400
G0 X124.024 Y101.284 F5400
;segType:SupportTouch
G1 X124.024 Y101.779 E46.97881 F2400
G1 X125.067 Y101.779 E47.00831
G0 X125.067 Y101.779 F5400
;segType:SoftSupport
G1 X125.824 Y101.779 E47.02089 F2400
G1 X125.824 Y100.745 E47.03808
G0 X125.824 Y100.745 F5400
;segType:SupportTouch
G1 X125.824 Y99.979 E47.05975 F2400
G0 X125.824 Y99.979 F5400
G1 X124.024 Y99.979 E47.11064 F2400
G1 X124.024 Y100.765 E47.13286
G0 X122.224 Y99.979 F5400
G1 X122.224 Y101.779 E47.18375 F2400
G1 X120.424 Y101.779 E47.23464
G1 X120.424 Y99.979 E47.28553
G1 X122.224 Y99.979 E47.33642
G0 X118.624 Y99.979 F5400
G1 X118.624 Y101.779 E47.38730 F2400
G1 X116.824 Y101.779 E47.43819
G1 X116.824 Y99.979 E47.48908
G1 X118.624 Y99.979 E47.53997
G0 F3000 E46.53997
G0 X115.024 Y101.779 F5400
G0 F3000 E47.53997
;segType:Support
G1 X98.824 Y101.779 E47.99796 F2400
G1 X98.824 Y99.979 E48.04885
G1 X115.024 Y99.979 E48.50684
G1 X115.024 Y98.179 E48.55773
G1 X95.223 Y98.179 E49.11750
G1 X95.223 Y96.379 E49.16839
G1 X115.024 Y96.379 E49.72816
G0 X115.024 Y90.979 F5400
G1 X95.224 Y90.979 E50.28792 F2400
G1 X95.223 Y92.779 E50.33881
G1 X115.024 Y92.779 E50.89858
G1 X115.024 Y94.579 E50.94947
G1 X95.223 Y94.579 E51.50924
G0 X95.223 Y85.579 F5400
G1 X115.024 Y85.579 E52.06901 F2400
G1 X115.024 Y87.379 E52.11989
G1 X95.223 Y87.379 E52.67966
G1 X95.224 Y89.179 E52.73055
G1 X115.024 Y89.179 E53.29032
G0 X115.024 Y83.779 F5400
G1 X95.223 Y83.779 E53.85009 F2400
G1 X95.223 Y81.979 E53.90098
G1 X115.024 Y81.979 E54.46075
G0 X115.024 Y76.579 F5400
G1 X98.824 Y76.579 E54.91874 F2400
G0 X95.223 Y80.179 F5400
G1 X115.024 Y80.179 E55.47851 F2400
G1 X115.024 Y78.379 E55.52939
G1 X95.223 Y78.379 E56.08916
G0 X98.824 Y74.779 F5400
G1 X115.024 Y74.779 E56.54716 F2400
G1 X115.024 Y72.979 E56.59804
G1 X91.624 Y72.979 E57.25959
G1 X91.624 Y71.179 E57.31048
G1 X115.024 Y71.179 E57.97202
G0 X116.824 Y72.839 F5400
;segType:SoftSupport
G1 X116.824 Y72.837 E57.97206 F2400
G0 X116.824 Y72.837 F5400
;segType:SupportTouch
G1 X116.824 Y71.179 E58.01892 F2400
G1 X118.624 Y71.179 E58.06981
G0 X118.624 Y71.179 F5400
G1 X118.624 Y72.817 E58.11611 F2400
G0 X118.624 Y72.817 F5400
;segType:SoftSupport
G1 X118.624 Y72.819 E58.11616 F2400
; ------------------------------------
; Layer #1
; ------------------------------------
G92 E0 ;reset extr
G0 F3000 E-1.00000
G0 F600 Z1.800
G0 X158.224 Y107.179 F7200
G0 F3000 E0.00000
;segType:Support
G1 X95.223 Y107.179 E1.78108 F3600
G1 X95.223 Y108.979 E1.83197
G1 X158.224 Y108.979 E3.61305
G0 X163.624 Y107.179 F7200
G1 X169.024 Y107.179 E3.76571 F3600
G1 X169.024 Y105.379 E3.81660
G1 X91.624 Y105.379 E6.00479
G1 X91.624 Y103.579 E6.05567
G1 X169.024 Y103.579 E8.24386
G0 X165.424 Y96.379 F7200
G1 X145.624 Y96.379 E8.80363 F3600
G1 X145.624 Y94.579 E8.85451
G1 X165.424 Y94.579 E9.41428
G1 X165.424 Y92.779 E9.46517
G1 X145.624 Y92.779 E10.02494
G0 F3000 E9.02494
G0 X142.024 Y100.565 F7200
G0 F3000 E10.02494
;segType:SoftSupport
G1 X142.024 Y100.567 E10.02498 F3600
G0 X143.824 Y100.548 F7200
G1 X143.824 Y100.545 E10.02503 F3600
G0 X143.824 Y100.545 F7200
;segType:SupportTouch
G1 X143.824 Y99.979 E10.04103 F3600
G1 X142.024 Y99.979 E10.09191
G1 X142.024 Y100.565 E10.10847
G0 X140.224 Y100.587 F7200
;segType:SoftSupport
G1 X140.224 Y100.584 E10.10851 F3600
G0 X140.224 Y100.584 F7200
;segType:SupportTouch
G1 X140.224 Y99.979 E10.12563 F3600
G0 X140.224 Y99.979 F7200
G1 X138.424 Y99.979 E10.17652 F3600
G1 X138.424 Y100.604 E10.19419
G0 X138.424 Y100.604 F7200
;segType:SoftSupport
G1 X138.424 Y100.607 E10.19424 F3600
G0 X136.624 Y100.627 F7200
G1 X136.624 Y100.624 E10.19428 F3600
G0 X136.624 Y100.624 F7200
;segType:SupportTouch
G1 X136.624 Y99.979 E10.21252 F3600
G0 X136.624 Y99.979 F7200
G1 X134.824 Y99.979 E10.26340 F3600
G1 X134.824 Y100.644 E10.28220
G0 X134.824 Y100.644 F7200
;segType:SoftSupport
G1 X134.824 Y100.647 E10.28224 F3600
G0 X133.024 Y100.666 F7200
G1 X133.024 Y100.664 E10.28229 F3600
G0 X133.024 Y100.664 F7200
;segType:SupportTouch
G1 X133.024 Y99.979 E10.30164 F3600
G0 X133.024 Y99.979 F7200
G1 X131.224 Y99.979 E10.35253 F3600
G1 X131.224 Y100.683 E10.37244
G0 X131.224 Y100.683 F7200
;segType:SoftSupport
G1 X131.224 Y100.686 E10.37249 F3600
G0 X129.424 Y100.706 F7200
G1 X129.424 Y100.703 E10.37253 F3600
G0 X129.424 Y100.703 F7200
;segType:SupportTouch
G1 X129.424 Y99.979 E10.39301 F3600
G0 X129.424 Y99.979 F7200
G1 X127.624 Y99.979 E10.44389 F3600
G1 X127.624 Y100.723 E10.46493
G0 X127.624 Y100.723 F7200
;segType:SoftSupport
G1 X127.624 Y100.726 E10.46497 F3600
G0 X125.824 Y100.745 F7200
G1 X125.824 Y100.743 E10.46502 F3600
G0 X125.824 Y100.743 F7200
;segType:SupportTouch
G1 X125.824 Y99.979 E10.48661 F3600
G0 X125.824 Y99.979 F7200
G1 X124.024 Y99.979 E10.53750 F3600
G1 X124.024 Y100.763 E10.55965
G0 X124.024 Y100.763 F7200
;segType:SoftSupport
G1 X124.024 Y100.765 E10.55969 F3600
G0 X125.067 Y101.779 F7200
G1 X124.024 Y101.779 E10.57705 F3600
G1 X124.024 Y101.284 E10.58528
G0 X120.424 Y100.802 F7200
G1 X120.424 Y101.779 E10.60152 F3600
G1 X122.224 Y101.779 E10.63146
G1 X122.224 Y100.782 E10.64803
G0 X122.224 Y100.782 F7200
;segType:SupportTouch
G1 X122.224 Y99.979 E10.67074 F3600
G0 X122.224 Y99.979 F7200
G1 X120.424 Y99.979 E10.72163 F3600
G1 X120.424 Y100.802 E10.74490
G0 X116.824 Y100.842 F7200
G1 X116.824 Y99.979 E10.76930 F3600
G1 X118.624 Y99.979 E10.82018
G0 X118.624 Y99.979 F7200
G1 X118.624 Y100.822 E10.84402 F3600
G0 X118.624 Y100.822 F7200
;segType:SoftSupport
G1 X118.624 Y101.779 E10.85993 F3600
G1 X116.824 Y101.779 E10.88987
G1 X116.824 Y100.842 E10.90545
G0 X115.024 Y101.779 F7200
;segType:Support
G1 X98.824 Y101.779 E11.36344 F3600
G1 X98.824 Y99.979 E11.41433
G1 X115.024 Y99.979 E11.87232
G1 X115.024 Y98.179 E11.92321
G1 X95.223 Y98.179 E12.48298
G0 X95.223 Y92.779 F7200
G1 X115.024 Y92.779 E13.04275 F3600
G1 X115.024 Y94.579 E13.09364
G1 X95.223 Y94.579 E13.65340
G1 X95.223 Y96.379 E13.70429
G1 X115.024 Y96.379 E14.26406
G0 X115.024 Y90.979 F7200
G1 X95.223 Y90.979 E14.82383 F3600
G1 X95.223 Y89.179 E14.87472
G1 X115.024 Y89.179 E15.43449
G1 X115.024 Y87.379 E15.48538
G1 X95.223 Y87.379 E16.04514
G1 X95.223 Y85.579 E16.09603
G1 X115.024 Y85.579 E16.65580
G1 X115.024 Y83.779 E16.70669
G1 X95.224 Y83.779 E17.26646
G1 X95.224 Y81.979 E17.31735
G1 X115.024 Y81.979 E17.87711
G1 X115.024 Y80.179 E17.92800
G1 X95.223 Y80.179 E18.48777
G1 X95.223 Y78.379 E18.53866
G1 X115.024 Y78.379 E19.09843
G1 X115.024 Y76.579 E19.14932
G1 X98.824 Y76.579 E19.60731
G1 X98.824 Y74.779 E19.65820
G1 X114.777 Y74.779 E20.10922
G1 X114.760 Y72.979 E20.16011
G1 X91.624 Y72.979 E20.81421
G1 X91.624 Y71.179 E20.86510
G1 X115.024 Y71.179 E21.52664
G0 X116.824 Y72.439 F7200
;segType:SupportTouch
G1 X116.824 Y71.179 E21.56227 F3600
G1 X118.624 Y71.179 E21.61316
G0 X118.624 Y71.179 F7200
G1 X118.624 Y72.420 E21.64823 F3600
G0 X125.824 Y71.179 F7200
G1 X124.024 Y71.179 E21.69912 F3600
G1 X124.024 Y72.361 E21.73253
G0 X125.824 Y72.341 F7200
G1 X125.824 Y71.179 E21.76540 F3600
G0 X122.224 Y72.381 F7200
G1 X122.224 Y71.179 E21.79936 F3600
G0 X122.224 Y71.179 F7200
G1 X120.424 Y71.179 E21.85025 F3600
G1 X120.424 Y72.400 E21.88477
G0 F3000 E20.88477
G0 X117.277 Y73.435 F7200
G0 X115.767 Y73.931
G0 X116.021 Y73.848
G0 F3000 E21.88477
;segType:InnerHair
G1 X116.135 Y73.846 E21.88855 F3600
G1 X116.249 Y73.845 E21.89233
G1 X116.363 Y73.844 E21.89611
G1 X116.478 Y73.842 E21.89989
G1 X116.592 Y73.841 E21.90367
G1 X116.706 Y73.840 E21.90744
G1 X116.821 Y73.838 E21.91121
G1 X116.935 Y73.837 E21.91499
G1 X117.049 Y73.836 E21.91876
G1 X117.164 Y73.834 E21.92253
G1 X117.278 Y73.833 E21.92629
G1 X117.392 Y73.832 E21.93006
G1 X143.106 Y73.548 E22.77714
G1 X143.221 Y73.547 E22.78091
G1 X143.335 Y73.546 E22.78467
G1 X143.449 Y73.545 E22.78844
G1 X143.564 Y73.544 E22.79221
G1 X143.678 Y73.543 E22.79599
G1 X143.792 Y73.541 E22.79976
G1 X143.906 Y73.540 E22.80354
G1 X144.021 Y73.539 E22.80731
G1 X144.135 Y73.538 E22.81109
G1 X144.249 Y73.537 E22.81487
G1 X144.364 Y73.536 E22.81866
G0 X144.778 Y73.558 F7200
;segType:Perimeter
G1 X144.993 Y74.329 E22.84526 F2159
G1 X143.266 Y74.345 E22.90271
G1 X143.175 Y74.346 E22.90575
G1 X117.484 Y74.629 E23.76030
G1 X115.375 Y74.655 E23.83042
G1 X115.358 Y73.057 E23.88356
G1 X116.021 Y73.048 E23.90560
G1 X145.036 Y72.729 E24.87071
G1 X145.053 Y74.268 E24.92190
G0 X144.278 Y74.068 F7200
G0 X143.950 Y73.938
;segType:Loop
G1 X143.221 Y73.945 E24.94615 F3600
G1 X117.506 Y74.228 E25.80146
G1 X115.771 Y74.250 E25.85919
G1 X115.762 Y73.452 E25.88573
G1 X116.021 Y73.449 E25.89432
G1 X144.640 Y73.133 E26.84627
G1 X144.649 Y73.932 E26.87283
G1 X144.150 Y73.937 E26.88944
G0 F3000 E25.88944
G0 X144.005 Y73.140 F7200
G0 X143.824 Y72.146
G0 F3000 E26.88944
;segType:SupportTouch
G1 X143.824 Y71.179 E26.91677 F3600
G0 F3000 E25.91677
G0 X154.624 Y62.179 F7200
G0 F3000 E26.91677
;segType:Support
G1 X106.024 Y62.179 E28.29075 F3600
G0 X102.424 Y63.979 F7200
G1 X158.224 Y63.979 E29.86828 F3600
G1 X158.224 Y65.779 E29.91917
G1 X102.424 Y65.779 E31.49669
G0 X93.424 Y65.779 F7200
G1 X91.624 Y65.779 E31.54758 F3600
G1 X91.624 Y63.979 E31.59847
G1 X93.424 Y63.979 E31.64936
G0 X106.024 Y60.379 F7200
G1 X154.624 Y60.379 E33.02334 F3600
G0 X151.024 Y58.579 F7200
G1 X109.624 Y58.579 E34.19376 F3600
G1 X109.624 Y56.779 E34.24465
G1 X151.024 Y56.779 E35.41507
G0 X143.824 Y53.179 F7200
G1 X116.824 Y53.179 E36.17840 F3600
G1 X116.824 Y54.979 E36.22928
G1 X143.824 Y54.979 E36.99260
G0 F3000 E35.99260
G0 X133.024 Y71.179 F7200
G0 F3000 E36.99260
;segType:SupportTouch
G1 X131.224 Y71.179 E37.04349 F3600
G1 X131.224 Y72.283 E37.07470
G0 X127.624 Y72.322 F7200
G1 X127.624 Y71.179 E37.10701 F3600
G1 X129.424 Y71.179 E37.15790
G0 X129.424 Y71.179 F7200
G1 X129.424 Y72.302 E37.18965 F3600
G0 X133.024 Y72.263 F7200
G1 X133.024 Y71.179 E37.22031 F3600
G0 X136.624 Y72.224 F7200
G1 X136.624 Y71.179 E37.24986 F3600
G0 X136.624 Y71.179 F7200
G1 X134.824 Y71.179 E37.30074 F3600
G1 X134.824 Y72.244 E37.33085
G0 X138.424 Y72.205 F7200
G1 X138.424 Y71.179 E37.35984 F3600
G1 X140.224 Y71.179 E37.41073
G0 X140.224 Y71.179 F7200
G1 X140.224 Y72.185 E37.43917 F3600
G0 X142.024 Y72.166 F7200
G1 X142.024 Y71.179 E37.46707 F3600
G1 X143.824 Y71.179 E37.51795
G0 X145.624 Y71.179 F7200
;segType:Support
G1 X165.424 Y71.179 E38.07772 F3600
G0 X169.024 Y63.979 F7200
G1 X163.624 Y63.979 E38.23039 F3600
G1 X163.624 Y65.779 E38.28127
G1 X169.024 Y65.779 E38.43394
G1 X169.024 Y67.579 E38.48483
G1 X91.624 Y67.579 E40.67301
G1 X91.624 Y69.379 E40.72390
G1 X169.024 Y69.379 E42.91208
G0 X165.424 Y81.979 F7200
G1 X145.624 Y81.979 E43.47185 F3600
G1 X145.624 Y83.779 E43.52274
G1 X165.424 Y83.779 E44.08251
G0 X161.824 Y76.579 F7200
G1 X145.624 Y76.579 E44.54050 F3600
G1 X145.624 Y78.379 E44.59139
G1 X165.424 Y78.379 E45.15116
G1 X165.424 Y80.179 E45.20204
G1 X145.624 Y80.179 E45.76181
G0 X145.638 Y72.979 F7200
G1 X165.424 Y72.979 E46.32118 F3600
G0 X161.824 Y74.779 F7200
G1 X145.655 Y74.779 E46.77830 F3600
G0 X145.624 Y89.179 F7200
G1 X165.424 Y89.179 E47.33806 F3600
G1 X165.424 Y87.379 E47.38895
G1 X145.624 Y87.379 E47.94872
G1 X145.624 Y85.579 E47.99961
G1 X165.424 Y85.579 E48.55938
G0 X165.424 Y90.979 F7200
G1 X145.624 Y90.979 E49.11915 F3600
G0 X145.624 Y98.179 F7200
G1 X165.424 Y98.179 E49.67892 F3600
G1 X165.424 Y99.979 E49.72980
G1 X145.624 Y99.979 E50.28957
G1 X145.624 Y101.779 E50.34046
G1 X165.424 Y101.779 E50.90023
G0 X169.024 Y108.979 F7200
G1 X163.624 Y108.979 E51.05289 F3600
G0 X158.224 Y112.579 F7200
G1 X102.424 Y112.579 E52.63042 F3600
G0 X106.024 Y114.379 F7200
G1 X154.624 Y114.379 E54.00440 F3600
G1 X154.624 Y116.179 E54.05529
G1 X106.024 Y116.179 E55.42926
G0 X113.224 Y119.779 F7200
G1 X147.424 Y119.779 E56.39614 F3600
G0 X140.224 Y123.379 F7200
G1 X120.424 Y123.379 E56.95590 F3600
G1 X120.424 Y121.579 E57.00679
G1 X140.224 Y121.579 E57.56656
G0 X147.424 Y117.979 F7200
G1 X113.224 Y117.979 E58.53343 F3600
G0 X102.424 Y110.779 F7200
G1 X158.224 Y110.779 E60.11096 F3600
; ------------------------------------
; Layer #2
; ------------------------------------
G92 E0 ;reset extr
G0 F3000 E-1.00000
G0 F600 Z2.000
G0 X115.024 Y87.379 F7200
G0 F3000 E0.00000
;segType:Support
G1 X95.223 Y87.379 E0.55977 F3600
G0 X95.223 Y94.579 F7200
G1 X115.024 Y94.579 E1.11954 F3600
G0 F3000 E0.11954
G0 X118.624 Y100.822 F7200
G0 F3000 E1.11954
;segType:SoftSupport
G1 X118.624 Y100.820 E1.11958 F3600
G0 X118.624 Y100.820 F7200
;segType:SupportTouch
G1 X118.624 Y99.979 E1.14334 F3600
G1 X116.824 Y99.979 E1.19423
G1 X116.824 Y100.839 E1.21855
G0 X116.824 Y100.839 F7200
;segType:SoftSupport
G1 X116.824 Y100.842 E1.21859 F3600
G0 X115.024 Y99.979 F7200
;segType:Support
G1 X98.824 Y99.979 E1.67658 F3600
G1 X98.824 Y101.779 E1.72747
G1 X115.024 Y101.779 E2.18546
G0 X113.224 Y117.979 F7200
G1 X147.424 Y117.979 E3.15233 F3600
G0 X140.224 Y121.579 F7200
G1 X120.424 Y121.579 E3.71210 F3600
G1 X120.424 Y123.379 E3.76299
G1 X140.224 Y123.379 E4.32276
G0 X147.424 Y119.779 F7200
G1 X113.224 Y119.779 E5.28963 F3600
G0 X106.024 Y116.179 F7200
G1 X154.624 Y116.179 E6.66361 F3600
G1 X154.624 Y114.379 E6.71450
G1 X106.024 Y114.379 E8.08847
G0 X102.424 Y112.579 F7200
G1 X158.224 Y112.579 E9.66600 F3600
G1 X158.224 Y110.779 E9.71689
G1 X102.424 Y110.779 E11.29442
G0 X95.223 Y108.979 F7200
G1 X158.224 Y108.979 E13.07550 F3600
G0 X163.624 Y108.979 F7200
G1 X169.024 Y108.979 E13.22816 F3600
G1 X169.024 Y107.179 E13.27905
G1 X163.624 Y107.179 E13.43171
G0 X158.224 Y107.179 F7200
G1 X95.223 Y107.179 E15.21279 F3600
G0 X91.624 Y105.379 F7200
G1 X169.024 Y105.379 E17.40098 F3600
G1 X169.024 Y103.579 E17.45186
G1 X91.624 Y103.579 E19.64005
G0 X95.223 Y98.179 F7200
G1 X115.024 Y98.179 E20.19982 F3600
G1 X115.024 Y96.379 E20.25071
G1 X95.223 Y96.379 E20.81048
G0 X95.224 Y92.779 F7200
G1 X115.024 Y92.779 E21.37024 F3600
G1 X115.024 Y90.979 E21.42113
G1 X95.223 Y90.979 E21.98090
G1 X95.223 Y89.179 E22.03179
G1 X115.024 Y89.179 E22.59156
G0 F3000 E21.59156
G0 X115.772 Y74.247 F7200
G0 X115.995 Y74.245
G0 X116.047 Y73.446
G0 X115.792 Y73.448
G0 X115.765 Y73.634
G0 X116.021 Y73.845
G0 F3000 E22.59156
;segType:InnerHair
G1 X116.135 Y73.844 E22.59535 F3600
G1 X116.249 Y73.843 E22.59914
G1 X116.363 Y73.841 E22.60293
G1 X116.478 Y73.840 E22.60672
G1 X116.592 Y73.839 E22.61050
G1 X116.706 Y73.838 E22.61429
G1 X116.821 Y73.836 E22.61808
G1 X116.935 Y73.835 E22.62187
G1 X117.049 Y73.834 E22.62566
G1 X117.164 Y73.833 E22.62944
G1 X117.278 Y73.831 E22.63323
G1 X117.392 Y73.830 E22.63702
G1 X117.506 Y73.829 E22.64081
G1 X117.621 Y73.828 E22.64460
G1 X117.735 Y73.826 E22.64838
G1 X117.849 Y73.825 E22.65217
G1 X117.964 Y73.824 E22.65596
G1 X118.078 Y73.823 E22.65975
G1 X118.192 Y73.821 E22.66353
G1 X118.306 Y73.820 E22.66732
G1 X118.421 Y73.819 E22.67111
G1 X118.535 Y73.817 E22.67489
G1 X118.649 Y73.816 E22.67868
G1 X118.764 Y73.815 E22.68247
G1 X118.878 Y73.814 E22.68625
G1 X118.992 Y73.812 E22.69004
G1 X119.106 Y73.811 E22.69382
G1 X119.221 Y73.810 E22.69761
G1 X119.335 Y73.809 E22.70140
G1 X119.449 Y73.807 E22.70518
G1 X119.563 Y73.806 E22.70897
G1 X119.678 Y73.805 E22.71275
G1 X119.792 Y73.804 E22.71654
G1 X119.906 Y73.802 E22.72033
G1 X120.021 Y73.801 E22.72411
G1 X120.135 Y73.800 E22.72790
G1 X120.249 Y73.799 E22.73168
G1 X120.363 Y73.797 E22.73547
G1 X120.478 Y73.796 E22.73925
G1 X120.592 Y73.795 E22.74304
G1 X120.706 Y73.793 E22.74682
G1 X120.821 Y73.792 E22.75060
G1 X120.935 Y73.791 E22.75439
G1 X121.049 Y73.790 E22.75817
G1 X121.164 Y73.788 E22.76196
G1 X121.278 Y73.787 E22.76574
G1 X121.392 Y73.786 E22.76952
G1 X121.506 Y73.785 E22.77331
G1 X121.621 Y73.783 E22.77709
G1 X121.735 Y73.782 E22.78088
G1 X121.849 Y73.781 E22.78466
G1 X121.964 Y73.780 E22.78845
G1 X122.078 Y73.778 E22.79223
G1 X122.192 Y73.777 E22.79601
G1 X122.306 Y73.776 E22.79979
G1 X122.421 Y73.774 E22.80357
G1 X122.535 Y73.773 E22.80736
G1 X122.649 Y73.772 E22.81114
G1 X122.764 Y73.771 E22.81492
G1 X122.878 Y73.769 E22.81870
G1 X122.992 Y73.768 E22.82249
G1 X123.106 Y73.767 E22.82627
G1 X123.221 Y73.766 E22.83005
G1 X123.335 Y73.764 E22.83383
G1 X123.449 Y73.763 E22.83762
G1 X123.563 Y73.762 E22.84140
G1 X123.678 Y73.761 E22.84518
G1 X123.792 Y73.759 E22.84896
G1 X123.906 Y73.758 E22.85274
G1 X124.021 Y73.757 E22.85653
G1 X124.135 Y73.756 E22.86031
G1 X124.249 Y73.754 E22.86409
G1 X124.363 Y73.753 E22.86787
G1 X124.478 Y73.752 E22.87165
G1 X124.592 Y73.750 E22.87543
G1 X124.706 Y73.749 E22.87921
G1 X124.821 Y73.748 E22.88299
G1 X124.935 Y73.747 E22.88677
G1 X125.049 Y73.745 E22.89055
G1 X125.164 Y73.744 E22.89433
G1 X125.278 Y73.743 E22.89811
G1 X125.392 Y73.742 E22.90189
G1 X125.506 Y73.740 E22.90567
G1 X125.621 Y73.739 E22.90945
G1 X125.735 Y73.738 E22.91323
G1 X125.849 Y73.737 E22.91701
G1 X125.963 Y73.735 E22.92079
G1 X126.078 Y73.734 E22.92457
G1 X126.192 Y73.733 E22.92835
G1 X126.306 Y73.732 E22.93213
G1 X126.421 Y73.730 E22.93591
G1 X126.535 Y73.729 E22.93969
G1 X126.649 Y73.728 E22.94346
G1 X126.764 Y73.726 E22.94724
G1 X126.878 Y73.725 E22.95102
G1 X126.992 Y73.724 E22.95480
G1 X127.106 Y73.723 E22.95858
G1 X127.221 Y73.721 E22.96236
G1 X127.335 Y73.720 E22.96613
G1 X127.449 Y73.719 E22.96991
G1 X127.563 Y73.718 E22.97369
G1 X127.678 Y73.716 E22.97747
G1 X127.792 Y73.715 E22.98125
G1 X127.906 Y73.714 E22.98503
G1 X128.021 Y73.713 E22.98881
G1 X128.135 Y73.711 E22.99258
G1 X128.249 Y73.710 E22.99636
G1 X128.363 Y73.709 E23.00013
G1 X128.478 Y73.708 E23.00391
G1 X128.592 Y73.706 E23.00769
G1 X128.706 Y73.705 E23.01146
G1 X128.821 Y73.704 E23.01524
G1 X128.935 Y73.702 E23.01902
G1 X129.049 Y73.701 E23.02279
G1 X129.164 Y73.700 E23.02657
G1 X129.278 Y73.699 E23.03035
G1 X129.392 Y73.697 E23.03412
G1 X129.506 Y73.696 E23.03790
G1 X129.621 Y73.695 E23.04168
G1 X129.735 Y73.694 E23.04545
G1 X129.849 Y73.692 E23.04923
G1 X129.964 Y73.691 E23.05301
G1 X130.078 Y73.690 E23.05678
G1 X130.192 Y73.689 E23.06056
G1 X130.306 Y73.687 E23.06433
G1 X130.421 Y73.686 E23.06811
G1 X130.535 Y73.685 E23.07188
G1 X130.649 Y73.683 E23.07565
G1 X130.763 Y73.682 E23.07943
G1 X130.878 Y73.681 E23.08320
G1 X130.992 Y73.680 E23.08698
G1 X131.106 Y73.678 E23.09075
G1 X131.221 Y73.677 E23.09453
G1 X131.335 Y73.676 E23.09830
G1 X131.449 Y73.675 E23.10208
G1 X131.563 Y73.673 E23.10585
G1 X131.678 Y73.672 E23.10962
G1 X131.792 Y73.671 E23.11340
G1 X131.906 Y73.670 E23.11717
G1 X132.021 Y73.668 E23.12095
G1 X132.135 Y73.667 E23.12472
G1 X132.249 Y73.666 E23.12849
G1 X132.364 Y73.665 E23.13226
G1 X132.478 Y73.663 E23.13604
G1 X132.592 Y73.662 E23.13981
G1 X132.706 Y73.661 E23.14358
G1 X132.821 Y73.659 E23.14736
G1 X132.935 Y73.658 E23.15113
G1 X133.049 Y73.657 E23.15490
G1 X133.164 Y73.656 E23.15867
G1 X133.278 Y73.654 E23.16245
G1 X133.392 Y73.653 E23.16622
G1 X133.506 Y73.652 E23.16999
G1 X133.621 Y73.651 E23.17376
G1 X133.735 Y73.649 E23.17754
G1 X133.849 Y73.648 E23.18131
G1 X133.964 Y73.647 E23.18508
G1 X134.078 Y73.646 E23.18885
G1 X134.192 Y73.644 E23.19262
G1 X134.306 Y73.643 E23.19639
G1 X134.421 Y73.642 E23.20016
G1 X134.535 Y73.641 E23.20393
G1 X134.649 Y73.639 E23.20770
G1 X134.763 Y73.638 E23.21147
G1 X134.878 Y73.637 E23.21525
G1 X134.992 Y73.635 E23.21902
G1 X135.106 Y73.634 E23.22279
G1 X135.221 Y73.633 E23.22656
G1 X135.335 Y73.632 E23.23033
G1 X135.449 Y73.630 E23.23410
G1 X135.563 Y73.629 E23.23787
G1 X135.678 Y73.628 E23.24164
G1 X135.792 Y73.627 E23.24541
G1 X135.906 Y73.625 E23.24918
G1 X136.021 Y73.624 E23.25295
G1 X136.135 Y73.623 E23.25672
G1 X136.249 Y73.622 E23.26049
G1 X136.364 Y73.620 E23.26425
G1 X136.478 Y73.619 E23.26802
G1 X136.592 Y73.618 E23.27179
G1 X136.706 Y73.616 E23.27556
G1 X136.821 Y73.615 E23.27933
G1 X136.935 Y73.614 E23.28310
G1 X137.049 Y73.613 E23.28687
G1 X137.164 Y73.611 E23.29064
G1 X137.278 Y73.610 E23.29441
G1 X137.392 Y73.609 E23.29817
G1 X137.506 Y73.608 E23.30194
G1 X137.621 Y73.606 E23.30571
G1 X137.735 Y73.605 E23.30948
G1 X137.849 Y73.604 E23.31325
G1 X137.964 Y73.603 E23.31701
G1 X138.078 Y73.601 E23.32078
G1 X138.192 Y73.600 E23.32455
G1 X138.306 Y73.599 E23.32832
G1 X138.421 Y73.598 E23.33208
G1 X138.535 Y73.596 E23.33585
G1 X138.649 Y73.595 E23.33962
G1 X138.764 Y73.594 E23.34338
G1 X138.878 Y73.592 E23.34715
G1 X138.992 Y73.591 E23.35092
G1 X139.106 Y73.590 E23.35468
G1 X139.221 Y73.589 E23.35845
G1 X139.335 Y73.587 E23.36222
G1 X139.449 Y73.586 E23.36599
G1 X139.563 Y73.585 E23.36975
G1 X139.678 Y73.584 E23.37352
G1 X139.792 Y73.582 E23.37728
G1 X139.906 Y73.581 E23.38105
G1 X140.021 Y73.580 E23.38481
G1 X140.135 Y73.579 E23.38858
G1 X140.249 Y73.577 E23.39234
G1 X140.364 Y73.576 E23.39611
G1 X140.478 Y73.575 E23.39987
G1 X140.592 Y73.574 E23.40364
G1 X140.706 Y73.572 E23.40740
G1 X140.821 Y73.571 E23.41117
G1 X140.935 Y73.570 E23.41493
G1 X141.049 Y73.568 E23.41870
G1 X141.164 Y73.567 E23.42246
G1 X141.278 Y73.566 E23.42623
G1 X141.392 Y73.565 E23.42999
G1 X141.506 Y73.563 E23.43376
G1 X141.621 Y73.562 E23.43752
G1 X141.735 Y73.561 E23.44129
G1 X141.849 Y73.560 E23.44505
G1 X141.964 Y73.558 E23.44881
G1 X142.078 Y73.557 E23.45258
G1 X142.192 Y73.556 E23.45634
G1 X142.306 Y73.555 E23.46010
G1 X142.421 Y73.553 E23.46386
G1 X142.535 Y73.552 E23.46763
G1 X142.649 Y73.551 E23.47139
G1 X142.763 Y73.550 E23.47515
G1 X142.878 Y73.548 E23.47892
G1 X142.992 Y73.547 E23.48268
G1 X143.106 Y73.546 E23.48644
G1 X143.221 Y73.545 E23.49021
G1 X143.335 Y73.544 E23.49398
G1 X143.449 Y73.542 E23.49775
G1 X143.564 Y73.541 E23.50152
G1 X143.678 Y73.540 E23.50530
G1 X143.792 Y73.539 E23.50907
G1 X143.906 Y73.538 E23.51285
G1 X144.021 Y73.537 E23.51663
G1 X144.135 Y73.535 E23.52041
G1 X144.249 Y73.534 E23.52419
G1 X144.364 Y73.533 E23.52797
G0 X144.779 Y73.556 F7200
;segType:Perimeter
G1 X144.995 Y74.326 E23.55458 F2159
G1 X143.175 Y74.343 E23.61510
G1 X118.215 Y74.618 E24.44533
