; GCode generated by CraftWare

G28 X Y ; home horizontally
G28 Z ; home vertically


M104 S250 ;set head temp (no wait)
M190 S65 ;set bed temp (wait)
M109 S250 ;set head temp (wait)
; ------------------------------------
; Layer #0
; ------------------------------------
M106 S0 ;turn off fan
G21 ; mm
G90 ; abs
G92 E0 ;reset extr
G0 F600 Z0.200
;segType:Skirt
G0 F3000 E-1.00000
G0 X151.750 Y118.438 F5400
G0 F3000 E0.00000
G1 X148.313 Y121.875 E0.16168 F2400
G1 X148.000 Y122.063 E0.17381
G1 X112.000 Y122.063 E1.37118
G1 X111.625 Y121.938 E1.38432
G1 X107.937 Y118.250 E1.55778
G1 X107.937 Y88.000 E2.56390
G0 X107.937 Y87.750 F5400
G1 X107.937 Y82.750 E2.73020 F2400
G1 X108.000 Y81.812 E2.76146
G1 X111.687 Y78.125 E2.93490
G1 X112.625 Y78.062 E2.96616
G1 X131.875 Y78.062 E3.60642
G0 X131.375 Y78.062 F5400
G1 X147.875 Y78.062 E4.15521 F2400
G1 X148.250 Y78.187 E4.16836
G1 X151.750 Y81.687 E4.33299
G1 X151.938 Y82.000 E4.34512
G1 X151.938 Y117.875 E5.53832
G1 X151.875 Y118.313 E5.55303
G0 X152.250 Y118.313 F5400
G1 X148.250 Y122.313 E5.74118 F2400
G1 X147.875 Y122.438 E5.75433
G1 X111.875 Y122.438 E6.95169
G1 X111.562 Y122.250 E6.96382
G1 X107.562 Y118.250 E7.15197
G1 X107.562 Y82.250 E8.34934
G1 X107.623 Y81.825 E8.36362
G0 F3000 E7.36362
G0 X113.600 Y83.600 F5400
G0 X113.600 Y87.199
G0 X146.078 Y116.400
G0 X145.678 Y116.039
G0 F3000 E8.36362
;segType:HShell
G1 X113.961 Y84.322 E9.85550 F2400
G0 X113.600 Y83.600 F5400
G0 X113.416 Y83.780
;segType:Perimeter
G1 X113.260 Y83.200 E9.87546 F1439
G1 X146.800 Y83.200 E10.99098
G1 X146.800 Y116.800 E12.10849
G1 X113.200 Y116.800 E13.22600
G1 X113.200 Y83.260 E14.34152
G0 X113.973 Y83.467 F5400
G0 X114.300 Y83.600
;segType:Loop
G1 X146.400 Y83.600 E15.40914 F2400
G1 X146.400 Y116.400 E16.50005
G1 X113.600 Y116.400 E17.59096
G1 X113.600 Y83.600 E18.68186
G1 X114.100 Y83.600 E18.69849
G0 X113.961 Y84.888 F5400
;segType:HShell
G1 X145.112 Y116.039 E20.16376 F2400
G0 X144.546 Y116.039 F5400
G1 X113.961 Y85.454 E21.60242 F2400
G0 X113.961 Y86.019 F5400
G1 X143.981 Y116.039 E23.01447 F2400
G0 X143.415 Y116.039 F5400
G1 X113.961 Y86.585 E24.39992 F2400
G0 X113.961 Y87.151 F5400
G1 X142.849 Y116.039 E25.75875 F2400
G0 X142.284 Y116.039 F5400
G1 X113.961 Y87.716 E27.09098 F2400
G0 X113.961 Y88.282 F5400
G1 X141.718 Y116.039 E28.39660 F2400
G0 X141.152 Y116.039 F5400
G1 X113.961 Y88.848 E29.67561 F2400
G0 X113.961 Y89.414 F5400
G1 X140.586 Y116.039 E30.92801 F2400
G0 X140.021 Y116.039 F5400
G1 X113.961 Y89.979 E32.15381 F2400
G0 X113.961 Y90.545 F5400
G1 X139.455 Y116.039 E33.35299 F2400
G0 X138.889 Y116.039 F5400
G1 X113.961 Y91.111 E34.52557 F2400
G0 X113.961 Y91.676 F5400
G1 X138.324 Y116.039 E35.67154 F2400
G0 X137.758 Y116.039 F5400
G1 X113.961 Y92.242 E36.79091 F2400
G0 X113.961 Y92.808 F5400
G1 X137.192 Y116.039 E37.88366 F2400
G0 X136.627 Y116.039 F5400
G1 X113.961 Y93.373 E38.94981 F2400
G0 X113.961 Y93.939 F5400
G1 X136.061 Y116.039 E39.98935 F2400
G0 X135.495 Y116.039 F5400
G1 X113.961 Y94.505 E41.00228 F2400
G0 X113.961 Y95.070 F5400
G1 X134.930 Y116.039 E41.98860 F2400
G0 X134.364 Y116.039 F5400
G1 X113.961 Y95.636 E42.94831 F2400
G0 X113.961 Y96.202 F5400
G1 X133.798 Y116.039 E43.88142 F2400
G0 X133.233 Y116.039 F5400
G1 X113.961 Y96.767 E44.78792 F2400
G0 X113.961 Y97.333 F5400
G1 X132.667 Y116.039 E45.66781 F2400
G0 X132.101 Y116.039 F5400
G1 X113.961 Y97.899 E46.52109 F2400
G0 X113.961 Y98.464 F5400
G1 X131.536 Y116.039 E47.34777 F2400
G0 X130.970 Y116.039 F5400
G1 X113.961 Y99.030 E48.14783 F2400
G0 X113.961 Y99.596 F5400
G1 X130.404 Y116.039 E48.92129 F2400
G0 X129.838 Y116.039 F5400
G1 X113.961 Y100.162 E49.66814 F2400
G0 X113.961 Y100.727 F5400
G1 X129.273 Y116.039 E50.38838 F2400
G0 X128.707 Y116.039 F5400
G1 X113.961 Y101.293 E51.08201 F2400
G0 X113.961 Y101.859 F5400
G1 X128.141 Y116.039 E51.74904 F2400
G0 X127.576 Y116.039 F5400
G1 X113.961 Y102.424 E52.38945 F2400
G0 X113.961 Y102.990 F5400
G1 X127.010 Y116.039 E53.00326 F2400
G0 X126.444 Y116.039 F5400
G1 X113.961 Y103.556 E53.59046 F2400
G0 X113.961 Y104.121 F5400
G1 X125.879 Y116.039 E54.15105 F2400
G0 X125.313 Y116.039 F5400
G1 X113.961 Y104.687 E54.68504 F2400
G0 X113.961 Y105.253 F5400
G1 X124.747 Y116.039 E55.19242 F2400
G0 X124.182 Y116.039 F5400
G1 X113.961 Y105.818 E55.67319 F2400
G0 X113.961 Y106.384 F5400
G1 X123.616 Y116.039 E56.12734 F2400
G0 X123.050 Y116.039 F5400
G1 X113.961 Y106.950 E56.55490 F2400
G0 X113.961 Y107.515 F5400
G1 X122.485 Y116.039 E56.95584 F2400
G0 X121.919 Y116.039 F5400
G1 X113.961 Y108.081 E57.33018 F2400
G0 X113.961 Y108.647 F5400
G1 X121.353 Y116.039 E57.67790 F2400
G0 X120.788 Y116.039 F5400
G1 X113.961 Y109.213 E57.99903 F2400
G0 X113.961 Y109.778 F5400
G1 X120.222 Y116.039 E58.29354 F2400
G0 X119.656 Y116.039 F5400
G1 X113.961 Y110.344 E58.56144 F2400
G0 X113.961 Y110.910 F5400
G1 X119.090 Y116.039 E58.80273 F2400
G0 X118.525 Y116.039 F5400
G1 X113.961 Y111.475 E59.01742 F2400
G0 X113.961 Y112.041 F5400
G1 X117.959 Y116.039 E59.20550 F2400
G0 X117.393 Y116.039 F5400
G1 X113.961 Y112.607 E59.36697 F2400
G0 X113.961 Y113.172 F5400
G1 X116.828 Y116.039 E59.50184 F2400
G0 X116.262 Y116.039 F5400
G1 X113.961 Y113.738 E59.61009 F2400
G0 X113.961 Y114.304 F5400
G1 X115.696 Y116.039 E59.69174 F2400
G0 X115.131 Y116.039 F5400
G1 X113.961 Y114.869 E59.74678 F2400
G0 X113.961 Y115.435 F5400
G1 X114.565 Y116.039 E59.77521 F2400
G0 X113.999 Y116.039 F5400
G1 X113.961 Y116.001 E59.77703 F2400
G0 F3000 E58.77703
G0 X113.600 Y116.003 F5400
G0 X146.400 Y115.834
G0 X146.039 Y115.836
G0 F3000 E59.77703
G1 X114.164 Y83.961 E61.27634 F2400
G0 X114.730 Y83.961 F5400
G1 X146.039 Y115.270 E62.74903 F2400
G0 X146.039 Y114.704 F5400
G1 X115.296 Y83.961 E64.19512 F2400
G0 X115.861 Y83.961 F5400
G1 X146.039 Y114.139 E65.61460 F2400
G0 X146.039 Y113.573 F5400
G1 X116.427 Y83.961 E67.00748 F2400
G0 X116.993 Y83.961 F5400
G1 X146.039 Y113.007 E68.37374 F2400
G0 X146.039 Y112.442 F5400
G1 X117.559 Y83.961 E69.71340 F2400
G0 X118.124 Y83.961 F5400
G1 X146.039 Y111.876 E71.02645 F2400
G0 X146.039 Y111.310 F5400
G1 X118.690 Y83.961 E72.31289 F2400
G0 X119.256 Y83.961 F5400
G1 X146.039 Y110.744 E73.57273 F2400
G0 X146.039 Y110.179 F5400
G1 X119.821 Y83.961 E74.80595 F2400
G0 X120.387 Y83.961 F5400
G1 X146.039 Y109.613 E76.01257 F2400
G0 X146.039 Y109.047 F5400
G1 X120.953 Y83.961 E77.19258 F2400
G0 X121.518 Y83.961 F5400
G1 X146.039 Y108.482 E78.34598 F2400
G0 X146.039 Y107.916 F5400
G1 X122.084 Y83.961 E79.47277 F2400
G0 X122.650 Y83.961 F5400
G1 X146.039 Y107.350 E80.57295 F2400
G0 X146.039 Y106.785 F5400
G1 X123.215 Y83.961 E81.64653 F2400
G0 X123.781 Y83.961 F5400
G1 X146.039 Y106.219 E82.69350 F2400
G0 X146.039 Y105.653 F5400
G1 X124.347 Y83.961 E83.71386 F2400
G0 X124.912 Y83.961 F5400
G1 X146.039 Y105.088 E84.70761 F2400
G0 X146.039 Y104.522 F5400
G1 X125.478 Y83.961 E85.67476 F2400
G0 X126.044 Y83.961 F5400
G1 X146.039 Y103.956 E86.61530 F2400
G0 X146.039 Y103.391 F5400
G1 X126.609 Y83.961 E87.52922 F2400
G0 X127.175 Y83.961 F5400
G1 X146.039 Y102.825 E88.41654 F2400
G0 X146.039 Y102.259 F5400
G1 X127.741 Y83.961 E89.27725 F2400
G0 X128.307 Y83.961 F5400
G1 X146.039 Y101.693 E90.11136 F2400
G0 X146.039 Y101.128 F5400
G1 X128.872 Y83.961 E90.91885 F2400
G0 X129.438 Y83.961 F5400
G1 X146.039 Y100.562 E91.69974 F2400
G0 X146.039 Y99.996 F5400
G1 X130.004 Y83.961 E92.45402 F2400
G0 X130.569 Y83.961 F5400
G1 X146.039 Y99.431 E93.18169 F2400
G0 X146.039 Y98.865 F5400
G1 X131.135 Y83.961 E93.88275 F2400
G0 X131.701 Y83.961 F5400
G1 X146.039 Y98.299 E94.55721 F2400
G0 X146.039 Y97.734 F5400
G1 X132.266 Y83.961 E95.20506 F2400
G0 X132.832 Y83.961 F5400
G1 X146.039 Y97.168 E95.82629 F2400
G0 X146.039 Y96.602 F5400
G1 X133.398 Y83.961 E96.42092 F2400
G0 X133.963 Y83.961 F5400
G1 X146.039 Y96.037 E96.98895 F2400
G0 X146.039 Y95.471 F5400
G1 X134.529 Y83.961 E97.53036 F2400
G0 X135.095 Y83.961 F5400
G1 X146.039 Y94.905 E98.04517 F2400
G0 X146.039 Y94.340 F5400
G1 X135.660 Y83.961 E98.53336 F2400
G0 X136.226 Y83.961 F5400
G1 X146.039 Y93.774 E98.99496 F2400
G0 X146.039 Y93.208 F5400
G1 X136.792 Y83.961 E99.42994 F2400
G0 X137.357 Y83.961 F5400
G1 X146.039 Y92.643 E99.83831 F2400
G0 X146.039 Y92.077 F5400
G1 X137.923 Y83.961 E100.22008 F2400
G0 X138.489 Y83.961 F5400
G1 X146.039 Y91.511 E100.57523 F2400
G0 X146.039 Y90.945 F5400
G1 X139.055 Y83.961 E100.90379 F2400
G0 X139.620 Y83.961 F5400
G1 X146.039 Y90.380 E101.20573 F2400
G0 X146.039 Y89.814 F5400
G1 X140.186 Y83.961 E101.48106 F2400
G0 X140.752 Y83.961 F5400
G1 X146.039 Y89.248 E101.72979 F2400
G0 X146.039 Y88.683 F5400
G1 X141.317 Y83.961 E101.95190 F2400
G0 X141.883 Y83.961 F5400
G1 X146.039 Y88.117 E102.14742 F2400
G0 X146.039 Y87.551 F5400
G1 X142.449 Y83.961 E102.31631 F2400
G0 X143.014 Y83.961 F5400
G1 X146.039 Y86.986 E102.45861 F2400
G0 X146.039 Y86.420 F5400
G1 X143.580 Y83.961 E102.57430 F2400
G0 X144.146 Y83.961 F5400
G1 X146.039 Y85.854 E102.66338 F2400
G0 X146.039 Y85.289 F5400
G1 X144.711 Y83.961 E102.72585 F2400
G0 X145.277 Y83.961 F5400
G1 X146.039 Y84.723 E102.76170 F2400
G0 X146.039 Y84.157 F5400
G1 X145.843 Y83.961 E102.77096 F2400
; ------------------------------------
; Layer #1
; ------------------------------------
G92 E0 ;reset extr
G0 F3000 E-1.00000
G0 F600 Z0.400
G0 X116.624 Y83.961 F7200
G0 F3000 E0.00000
;segType:HShell
G1 X113.961 Y86.624 E0.12527 F3600
G0 X113.961 Y86.058 F7200
G1 X116.058 Y83.961 E0.22394 F3600
G0 X115.492 Y83.961 F7200
G1 X113.961 Y85.492 E0.29600 F3600
G0 X113.961 Y84.927 F7200
G1 X114.927 Y83.961 E0.34145 F3600
G0 X113.961 Y84.361 F7200
G1 X114.361 Y83.961 E0.36029 F3600
G0 X113.416 Y83.780 F7200
;segType:Perimeter
G1 X113.260 Y83.200 E0.38024 F2159
G1 X146.800 Y83.200 E1.49576
G1 X146.800 Y116.800 E2.61328
G1 X113.200 Y116.800 E3.73079
G1 X113.200 Y83.260 E4.84631
G0 X113.973 Y83.467 F7200
G0 X114.300 Y83.600
;segType:Loop
G1 X146.400 Y83.600 E5.91393 F3600
G1 X146.400 Y116.400 E7.00484
G1 X113.600 Y116.400 E8.09574
G1 X113.600 Y83.600 E9.18665
G1 X114.100 Y83.600 E9.20328
G0 F3000 E8.20328
G0 X113.961 Y87.190 F7200
G0 F3000 E9.20328
;segType:HShell
G1 X117.190 Y83.961 E9.35516 F3600
G0 X117.755 Y83.961 F7200
G1 X113.961 Y87.755 E9.53365 F3600
G0 X113.961 Y88.321 F7200
G1 X118.321 Y83.961 E9.73875 F3600
G0 X118.887 Y83.961 F7200
G1 X113.961 Y88.887 E9.97046 F3600
G0 X113.961 Y89.452 F7200
G1 X119.452 Y83.961 E10.22877 F3600
G0 X120.018 Y83.961 F7200
G1 X113.961 Y90.018 E10.51369 F3600
G0 X113.961 Y90.584 F7200
G1 X120.584 Y83.961 E10.82522 F3600
G0 X121.149 Y83.961 F7200
G1 X113.961 Y91.149 E11.16336 F3600
G0 X113.961 Y91.715 F7200
G1 X121.715 Y83.961 E11.52811 F3600
G0 X122.281 Y83.961 F7200
G1 X113.961 Y92.281 E11.91946 F3600
G0 X113.961 Y92.846 F7200
G1 X122.846 Y83.961 E12.33742 F3600
G0 X123.412 Y83.961 F7200
G1 X113.961 Y93.412 E12.78200 F3600
G0 X113.961 Y93.978 F7200
G1 X123.978 Y83.961 E13.25317 F3600
G0 X124.543 Y83.961 F7200
G1 X113.961 Y94.543 E13.75096 F3600
G0 X113.961 Y95.109 F7200
G1 X125.109 Y83.961 E14.27536 F3600
G0 X125.675 Y83.961 F7200
G1 X113.961 Y95.675 E14.82636 F3600
G0 X113.961 Y96.240 F7200
G1 X126.240 Y83.961 E15.40397 F3600
G0 X126.806 Y83.961 F7200
G1 X113.961 Y96.806 E16.00819 F3600
G0 X113.961 Y97.372 F7200
G1 X127.372 Y83.961 E16.63902 F3600
G0 X127.938 Y83.961 F7200
G1 X113.961 Y97.938 E17.29645 F3600
G0 X113.961 Y98.503 F7200
G1 X128.503 Y83.961 E17.98050 F3600
G0 X129.069 Y83.961 F7200
G1 X113.961 Y99.069 E18.69115 F3600
G0 X113.961 Y99.635 F7200
G1 X129.635 Y83.961 E19.42841 F3600
G0 X130.200 Y83.961 F7200
G1 X113.961 Y100.200 E20.19228 F3600
G0 X113.961 Y100.766 F7200
G1 X130.766 Y83.961 E20.98276 F3600
G0 X131.332 Y83.961 F7200
G1 X113.961 Y101.332 E21.79984 F3600
G0 X113.961 Y101.897 F7200
G1 X131.897 Y83.961 E22.64353 F3600
G0 X132.463 Y83.961 F7200
G1 X113.961 Y102.463 E23.51383 F3600
G0 X113.961 Y103.029 F7200
G1 X133.029 Y83.961 E24.41074 F3600
G0 X133.594 Y83.961 F7200
G1 X113.961 Y103.594 E25.33426 F3600
G0 X113.961 Y104.160 F7200
G1 X134.160 Y83.961 E26.28439 F3600
G0 X134.726 Y83.961 F7200
G1 X113.961 Y104.726 E27.26112 F3600
G0 X113.961 Y105.291 F7200
G1 X135.291 Y83.961 E28.26446 F3600
G0 X135.857 Y83.961 F7200
G1 X113.961 Y105.857 E29.29441 F3600
G0 X113.961 Y106.423 F7200
G1 X136.423 Y83.961 E30.35097 F3600
G0 X136.989 Y83.961 F7200
G1 X113.961 Y106.988 E31.43413 F3600
G0 X113.961 Y107.554 F7200
G1 X137.554 Y83.961 E32.54391 F3600
G0 X138.120 Y83.961 F7200
G1 X113.961 Y108.120 E33.68029 F3600
G0 X113.961 Y108.686 F7200
G1 X138.686 Y83.960 E34.84328 F3600
G0 X139.251 Y83.960 F7200
G1 X113.961 Y109.251 E36.03288 F3600
G0 X113.961 Y109.817 F7200
G1 X139.817 Y83.960 E37.24909 F3600
G0 X140.383 Y83.960 F7200
G1 X113.961 Y110.383 E38.49190 F3600
G0 X113.961 Y110.948 F7200
G1 X140.948 Y83.960 E39.76133 F3600
G0 X141.514 Y83.960 F7200
G1 X113.961 Y111.514 E41.05736 F3600
G0 X113.961 Y112.080 F7200
G1 X142.080 Y83.960 E42.38000 F3600
G0 X142.645 Y83.960 F7200
G1 X113.961 Y112.645 E43.72925 F3600
G0 X113.961 Y113.211 F7200
G1 X143.211 Y83.960 E45.10510 F3600
G0 X143.777 Y83.960 F7200
G1 X113.961 Y113.777 E46.50757 F3600
G0 X113.961 Y114.342 F7200
G1 X144.342 Y83.960 E47.93664 F3600
G0 X144.908 Y83.960 F7200
G1 X113.961 Y114.908 E49.39232 F3600
G0 X113.961 Y115.474 F7200
G1 X145.474 Y83.960 E50.87461 F3600
G0 X146.040 Y83.960 F7200
G1 X113.961 Y116.039 E52.38351 F3600
G0 X114.526 Y116.039 F7200
G1 X146.039 Y84.526 E53.86579 F3600
G0 X146.039 Y85.092 F7200
G1 X115.092 Y116.039 E55.32147 F3600
G0 X115.658 Y116.039 F7200
G1 X146.039 Y85.658 E56.75054 F3600
G0 X146.039 Y86.223 F7200
G1 X116.223 Y116.039 E58.15301 F3600
G0 X116.789 Y116.039 F7200
G1 X146.039 Y86.789 E59.52886 F3600
G0 X146.039 Y87.355 F7200
G1 X117.355 Y116.039 E60.87811 F3600
G0 X117.920 Y116.039 F7200
G1 X146.039 Y87.920 E62.20075 F3600
G0 X146.039 Y88.486 F7200
G1 X118.486 Y116.039 E63.49678 F3600
G0 X119.052 Y116.039 F7200
G1 X146.039 Y89.052 E64.76620 F3600
G0 X146.039 Y89.617 F7200
G1 X119.617 Y116.039 E66.00901 F3600
G0 X120.183 Y116.039 F7200
G1 X146.039 Y90.183 E67.22522 F3600
G0 X146.039 Y90.749 F7200
G1 X120.749 Y116.039 E68.41482 F3600
G0 X121.314 Y116.039 F7200
G1 X146.039 Y91.314 E69.57781 F3600
G0 X146.039 Y91.880 F7200
G1 X121.880 Y116.039 E70.71419 F3600
G0 X122.446 Y116.039 F7200
G1 X146.039 Y92.446 E71.82396 F3600
G0 X146.039 Y93.012 F7200
G1 X123.011 Y116.039 E72.90713 F3600
G0 X123.577 Y116.039 F7200
G1 X146.039 Y93.577 E73.96369 F3600
G0 X146.039 Y94.143 F7200
G1 X124.143 Y116.039 E74.99363 F3600
G0 X124.709 Y116.039 F7200
G1 X146.039 Y94.709 E75.99697 F3600
G0 X146.039 Y95.274 F7200
G1 X125.274 Y116.039 E76.97370 F3600
G0 X125.840 Y116.039 F7200
G1 X146.039 Y95.840 E77.92383 F3600
G0 X146.039 Y96.406 F7200
G1 X126.406 Y116.039 E78.84735 F3600
G0 X126.971 Y116.039 F7200
G1 X146.039 Y96.971 E79.74425 F3600
G0 X146.039 Y97.537 F7200
G1 X127.537 Y116.039 E80.61455 F3600
G0 X128.103 Y116.039 F7200
G1 X146.039 Y98.103 E81.45824 F3600
G0 X146.039 Y98.668 F7200
G1 X128.668 Y116.039 E82.27532 F3600
G0 X129.234 Y116.039 F7200
G1 X146.039 Y99.234 E83.06580 F3600
G0 X146.039 Y99.800 F7200
G1 X129.800 Y116.039 E83.82967 F3600
G0 X130.365 Y116.039 F7200
G1 X146.039 Y100.365 E84.56693 F3600
G0 X146.039 Y100.931 F7200
G1 X130.931 Y116.039 E85.27757 F3600
G0 X131.497 Y116.039 F7200
G1 X146.039 Y101.497 E85.96162 F3600
G0 X146.039 Y102.062 F7200
G1 X132.062 Y116.039 E86.61905 F3600
G0 X132.628 Y116.039 F7200
G1 X146.039 Y102.628 E87.24988 F3600
G0 X146.039 Y103.194 F7200
G1 X133.194 Y116.039 E87.85410 F3600
G0 X133.760 Y116.039 F7200
G1 X146.039 Y103.760 E88.43171 F3600
G0 X146.039 Y104.325 F7200
G1 X134.325 Y116.039 E88.98271 F3600
G0 X134.891 Y116.039 F7200
G1 X146.039 Y104.891 E89.50710 F3600
G0 X146.039 Y105.457 F7200
G1 X135.457 Y116.039 E90.00489 F3600
G0 X136.022 Y116.039 F7200
G1 X146.039 Y106.022 E90.47607 F3600
G0 X146.039 Y106.588 F7200
G1 X136.588 Y116.039 E90.92064 F3600
G0 X137.154 Y116.039 F7200
G1 X146.039 Y107.154 E91.33860 F3600
G0 X146.039 Y107.719 F7200
G1 X137.719 Y116.039 E91.72995 F3600
G0 X138.285 Y116.039 F7200
G1 X146.039 Y108.285 E92.09470 F3600
G0 X146.039 Y108.851 F7200
G1 X138.851 Y116.039 E92.43283 F3600
G0 X139.416 Y116.039 F7200
G1 X146.039 Y109.416 E92.74436 F3600
G0 X146.039 Y109.982 F7200
G1 X139.982 Y116.039 E93.02928 F3600
G0 X140.548 Y116.039 F7200
G1 X146.039 Y110.548 E93.28760 F3600
G0 X146.039 Y111.113 F7200
G1 X141.113 Y116.039 E93.51930 F3600
G0 X141.679 Y116.039 F7200
G1 X146.039 Y111.679 E93.72440 F3600
G0 X146.039 Y112.245 F7200
G1 X142.245 Y116.039 E93.90289 F3600
G0 X142.810 Y116.039 F7200
G1 X146.039 Y112.811 E94.05476 F3600
G0 X146.039 Y113.376 F7200
G1 X143.376 Y116.039 E94.18004 F3600
G0 X143.942 Y116.039 F7200
G1 X146.039 Y113.942 E94.27870 F3600
G0 X146.039 Y114.508 F7200
G1 X144.508 Y116.039 E94.35076 F3600
G0 X145.073 Y116.039 F7200
G1 X146.039 Y115.073 E94.39621 F3600
G0 X146.039 Y115.639 F7200
G1 X145.639 Y116.039 E94.41505 F3600
; ------------------------------------
; Layer #2
; ------------------------------------
G92 E0 ;reset extr
G0 F3000 E-1.00000
G0 F600 Z0.600
G0 X145.678 Y116.039 F7200
G0 F3000 E0.00000
;segType:HShell
G1 X113.961 Y84.322 E1.49188 F3600
G0 X113.600 Y83.600 F7200
G0 X113.416 Y83.780
;segType:Perimeter
G1 X113.260 Y83.200 E1.51183 F2159
G1 X146.800 Y83.200 E2.62735
G1 X146.800 Y116.800 E3.74487
G1 X113.200 Y116.800 E4.86238
G1 X113.200 Y83.260 E5.97790
G0 X113.973 Y83.467 F7200
G0 X114.300 Y83.600
;segType:Loop
G1 X146.400 Y83.600 E7.04552 F3600
G1 X146.400 Y116.400 E8.13643
G1 X113.600 Y116.400 E9.22733
G1 X113.600 Y83.600 E10.31824
G1 X114.100 Y83.600 E10.33487
G0 X114.164 Y83.961 F7200
;segType:HShell
G1 X146.039 Y115.836 E11.83417 F3600
G0 X146.039 Y115.270 F7200
G1 X114.730 Y83.961 E13.30687 F3600
G0 X115.296 Y83.961 F7200
G1 X146.039 Y114.704 E14.75296 F3600
G0 X146.039 Y114.139 F7200
G1 X115.861 Y83.961 E16.17244 F3600
G0 X116.427 Y83.961 F7200
G1 X146.039 Y113.573 E17.56531 F3600
G0 X146.039 Y113.007 F7200
G1 X116.993 Y83.961 E18.93158 F3600
G0 X117.559 Y83.961 F7200
G1 X146.039 Y112.441 E20.27123 F3600
G0 X146.039 Y111.876 F7200
G1 X118.124 Y83.961 E21.58428 F3600
G0 X118.690 Y83.961 F7200
G1 X146.039 Y111.310 E22.87072 F3600
G0 X146.039 Y110.744 F7200
G1 X119.256 Y83.961 E24.13056 F3600
G0 X119.821 Y83.961 F7200
G1 X146.039 Y110.179 E25.36378 F3600
G0 X146.039 Y109.613 F7200
G1 X120.387 Y83.961 E26.57040 F3600
G0 X120.953 Y83.961 F7200
G1 X146.039 Y109.047 E27.75040 F3600
G0 X146.039 Y108.482 F7200
G1 X121.518 Y83.961 E28.90380 F3600
G0 X122.084 Y83.961 F7200
G1 X146.039 Y107.916 E30.03060 F3600
G0 X146.039 Y107.350 F7200
G1 X122.650 Y83.961 E31.13078 F3600
G0 X123.215 Y83.961 F7200
G1 X146.039 Y106.785 E32.20435 F3600
G0 X146.039 Y106.219 F7200
G1 X123.781 Y83.961 E33.25132 F3600
G0 X124.347 Y83.961 F7200
G1 X146.039 Y105.653 E34.27168 F3600
G0 X146.039 Y105.088 F7200
G1 X124.912 Y83.961 E35.26543 F3600
G0 X125.478 Y83.961 F7200
G1 X146.039 Y104.522 E36.23258 F3600
G0 X146.039 Y103.956 F7200
G1 X126.044 Y83.961 E37.17311 F3600
G0 X126.609 Y83.961 F7200
G1 X146.039 Y103.391 E38.08704 F3600
G0 X146.039 Y102.825 F7200
G1 X127.175 Y83.961 E38.97436 F3600
G0 X127.741 Y83.961 F7200
G1 X146.039 Y102.259 E39.83507 F3600
G0 X146.039 Y101.693 F7200
G1 X128.307 Y83.961 E40.66917 F3600
G0 X128.872 Y83.961 F7200
G1 X146.039 Y101.128 E41.47667 F3600
G0 X146.039 Y100.562 F7200
G1 X129.438 Y83.961 E42.25756 F3600
G0 X130.004 Y83.961 F7200
G1 X146.039 Y99.996 E43.01184 F3600
G0 X146.039 Y99.431 F7200
G1 X130.569 Y83.961 E43.73950 F3600
G0 X131.135 Y83.961 F7200
G1 X146.039 Y98.865 E44.44057 F3600
G0 X146.039 Y98.299 F7200
G1 X131.701 Y83.961 E45.11502 F3600
G0 X132.266 Y83.961 F7200
G1 X146.039 Y97.734 E45.76287 F3600
G0 X146.039 Y97.168 F7200
G1 X132.832 Y83.961 E46.38410 F3600
G0 X133.398 Y83.961 F7200
G1 X146.039 Y96.602 E46.97874 F3600
G0 X146.039 Y96.037 F7200
G1 X133.963 Y83.961 E47.54676 F3600
G0 X134.529 Y83.961 F7200
G1 X146.039 Y95.471 E48.08818 F3600
G0 X146.039 Y94.905 F7200
G1 X135.095 Y83.961 E48.60298 F3600
G0 X135.660 Y83.961 F7200
G1 X146.039 Y94.340 E49.09118 F3600
G0 X146.039 Y93.774 F7200
G1 X136.226 Y83.961 E49.55277 F3600
G0 X136.792 Y83.961 F7200
G1 X146.039 Y93.208 E49.98775 F3600
G0 X146.039 Y92.643 F7200
G1 X137.358 Y83.961 E50.39612 F3600
G0 X137.923 Y83.961 F7200
G1 X146.039 Y92.077 E50.77789 F3600
G0 X146.039 Y91.511 F7200
G1 X138.489 Y83.961 E51.13305 F3600
G0 X139.055 Y83.961 F7200
G1 X146.039 Y90.945 E51.46160 F3600
G0 X146.039 Y90.380 F7200
G1 X139.620 Y83.961 E51.76354 F3600
G0 X140.186 Y83.961 F7200
G1 X146.039 Y89.814 E52.03887 F3600
G0 X146.039 Y89.248 F7200
G1 X140.752 Y83.961 E52.28760 F3600
G0 X141.317 Y83.961 F7200
G1 X146.039 Y88.683 E52.50971 F3600
G0 X146.039 Y88.117 F7200
G1 X141.883 Y83.961 E52.70522 F3600
G0 X142.449 Y83.961 F7200
G1 X146.039 Y87.551 E52.87412 F3600
G0 X146.039 Y86.986 F7200
G1 X143.014 Y83.961 E53.01641 F3600
G0 X143.580 Y83.961 F7200
G1 X146.039 Y86.420 E53.13210 F3600
G0 X146.039 Y85.854 F7200
G1 X144.146 Y83.961 E53.22117 F3600
G0 X144.711 Y83.961 F7200
G1 X146.039 Y85.289 E53.28364 F3600
G0 X146.039 Y84.723 F7200
G1 X145.277 Y83.961 E53.31950 F3600
G0 X145.843 Y83.961 F7200
G1 X146.039 Y84.157 E53.32875 F3600
G0 F3000 E52.32875
G0 X146.056 Y83.600 F7200
G0 X145.102 Y116.400
G0 X145.112 Y116.039
G0 F3000 E53.32875
G1 X113.961 Y84.888 E54.79402 F3600
G0 X113.961 Y85.454 F7200
G1 X144.546 Y116.039 E56.23268 F3600
G0 X143.981 Y116.039 F7200
G1 X113.961 Y86.019 E57.64473 F3600
G0 X113.961 Y86.585 F7200
G1 X143.415 Y116.039 E59.03018 F3600
G0 X142.849 Y116.039 F7200
G1 X113.961 Y87.151 E60.38901 F3600
G0 X113.961 Y87.716 F7200
G1 X142.284 Y116.039 E61.72124 F3600
G0 X141.718 Y116.039 F7200
G1 X113.961 Y88.282 E63.02686 F3600
G0 X113.961 Y88.848 F7200
G1 X141.152 Y116.039 E64.30587 F3600
G0 X140.586 Y116.039 F7200
G1 X113.961 Y89.414 E65.55828 F3600
G0 X113.961 Y89.979 F7200
G1 X140.021 Y116.039 E66.78408 F3600
G0 X139.455 Y116.039 F7200
G1 X113.961 Y90.545 E67.98326 F3600
G0 X113.961 Y91.111 F7200
G1 X138.889 Y116.039 E69.15584 F3600
G0 X138.324 Y116.039 F7200
G1 X113.961 Y91.676 E70.30181 F3600
G0 X113.961 Y92.242 F7200
G1 X137.758 Y116.039 E71.42118 F3600
G0 X137.192 Y116.039 F7200
G1 X113.961 Y92.808 E72.51393 F3600
G0 X113.961 Y93.373 F7200
G1 X136.627 Y116.039 E73.58008 F3600
G0 X136.061 Y116.039 F7200
G1 X113.961 Y93.939 E74.61962 F3600
G0 X113.961 Y94.505 F7200
G1 X135.495 Y116.039 E75.63255 F3600
G0 X134.930 Y116.039 F7200
G1 X113.961 Y95.070 E76.61887 F3600
G0 X113.961 Y95.636 F7200
G1 X134.364 Y116.039 E77.57859 F3600
G0 X133.798 Y116.039 F7200
G1 X113.961 Y96.202 E78.51169 F3600
G0 X113.961 Y96.767 F7200
G1 X133.233 Y116.039 E79.41819 F3600
G0 X132.667 Y116.039 F7200
G1 X113.961 Y97.333 E80.29808 F3600
G0 X113.961 Y97.899 F7200
G1 X132.101 Y116.039 E81.15136 F3600
G0 X131.536 Y116.039 F7200
G1 X113.961 Y98.464 E81.97804 F3600
G0 X113.961 Y99.030 F7200
G1 X130.970 Y116.039 E82.77810 F3600
G0 X130.404 Y116.039 F7200
G1 X113.961 Y99.596 E83.55156 F3600
G0 X113.961 Y100.162 F7200
G1 X129.838 Y116.039 E84.29841 F3600
G0 X129.273 Y116.039 F7200
G1 X113.961 Y100.727 E85.01865 F3600
G0 X113.961 Y101.293 F7200
G1 X128.707 Y116.039 E85.71229 F3600
G0 X128.141 Y116.039 F7200
G1 X113.961 Y101.859 E86.37931 F3600
G0 X113.961 Y102.424 F7200
G1 X127.576 Y116.039 E87.01973 F3600
G0 X127.010 Y116.039 F7200
G1 X113.961 Y102.990 E87.63354 F3600
G0 X113.961 Y103.556 F7200
G1 X126.444 Y116.039 E88.22074 F3600
G0 X125.879 Y116.039 F7200
G1 X113.961 Y104.121 E88.78133 F3600
G0 X113.961 Y104.687 F7200
G1 X125.313 Y116.039 E89.31532 F3600
G0 X124.747 Y116.039 F7200
G1 X113.961 Y105.253 E89.82270 F3600
G0 X113.961 Y105.818 F7200
G1 X124.182 Y116.039 E90.30347 F3600
G0 X123.616 Y116.039 F7200
G1 X113.961 Y106.384 E90.75763 F3600
G0 X113.961 Y106.950 F7200
G1 X123.050 Y116.039 E91.18518 F3600
G0 X122.485 Y116.039 F7200
G1 X113.961 Y107.515 E91.58613 F3600
G0 X113.961 Y108.081 F7200
G1 X121.919 Y116.039 E91.96046 F3600
G0 X121.353 Y116.039 F7200
G1 X113.961 Y108.647 E92.30820 F3600
G0 X113.961 Y109.213 F7200
G1 X120.788 Y116.039 E92.62932 F3600
G0 X120.222 Y116.039 F7200
G1 X113.961 Y109.778 E92.92383 F3600
G0 X113.961 Y110.344 F7200
G1 X119.656 Y116.039 E93.19173 F3600
G0 X119.090 Y116.039 F7200
G1 X113.961 Y110.910 E93.43303 F3600
G0 X113.961 Y111.475 F7200
G1 X118.525 Y116.039 E93.64772 F3600
G0 X117.959 Y116.039 F7200
G1 X113.961 Y112.041 E93.83580 F3600
G0 X113.961 Y112.607 F7200
G1 X117.393 Y116.039 E93.99727 F3600
G0 X116.828 Y116.039 F7200
G1 X113.961 Y113.172 E94.13213 F3600
G0 X113.961 Y113.738 F7200
G1 X116.262 Y116.039 E94.24039 F3600
G0 X115.696 Y116.039 F7200
G1 X113.961 Y114.304 E94.32204 F3600
G0 X113.961 Y114.869 F7200
G1 X115.131 Y116.039 E94.37708 F3600
G0 X114.565 Y116.039 F7200
G1 X113.961 Y115.435 E94.40551 F3600
G0 X113.961 Y116.001 F7200
G1 X113.999 Y116.039 E94.40733 F3600
; ------------------------------------
; Layer #3
; ------------------------------------
M106 S255 ;set fan speed
G92 E0 ;reset extr
G0 F3000 E-1.00000
G0 F600 Z0.800
G0 X113.970 Y116.400 F7200
G0 X116.653 Y83.600
G0 X116.624 Y83.961
G0 F3000 E0.00000
;segType:HShell
G1 X113.961 Y86.624 E0.12527 F3600
G0 X113.961 Y86.058 F7200
G1 X116.058 Y83.961 E0.22393 F3600
G0 X115.492 Y83.961 F7200
G1 X113.961 Y85.492 E0.29599 F3600
G0 X113.961 Y84.927 F7200
G1 X114.927 Y83.961 E0.34144 F3600
G0 X113.961 Y84.361 F7200
G1 X114.361 Y83.961 E0.36028 F3600
G0 X113.416 Y83.780 F7200
;segType:Perimeter
G1 X113.260 Y83.200 E0.38023 F2159
G1 X146.800 Y83.200 E1.49575
G1 X146.800 Y116.800 E2.61326
G1 X113.200 Y116.800 E3.73078
G1 X113.200 Y83.260 E4.84630
G0 X113.973 Y83.467 F7200
G0 X114.300 Y83.600
;segType:Loop
G1 X146.400 Y83.600 E5.91392 F3600
G1 X146.400 Y116.400 E7.00483
G1 X113.600 Y116.400 E8.09573
G1 X113.600 Y83.600 E9.18664
G1 X114.100 Y83.600 E9.20327
G0 F3000 E8.20327
G0 X114.100 Y83.600 F7200
G0 X145.989 Y116.400
G0 X145.639 Y116.039
G0 F3000 E9.20327
;segType:HShell
G1 X146.039 Y115.639 E9.22211 F3600
G0 X146.039 Y115.073 F7200
G1 X145.073 Y116.039 E9.26756 F3600
G0 X144.508 Y116.039 F7200
G1 X146.039 Y114.508 E9.33962 F3600
G0 X146.039 Y113.942 F7200
G1 X143.942 Y116.039 E9.43828 F3600
G0 X143.376 Y116.039 F7200
G1 X146.039 Y113.376 E9.56356 F3600
G0 X146.039 Y112.810 F7200
G1 X142.810 Y116.039 E9.71544 F3600
G0 X142.245 Y116.039 F7200
G1 X146.039 Y112.245 E9.89393 F3600
G0 X146.039 Y111.679 F7200
G1 X141.679 Y116.039 E10.09903 F3600
G0 X141.113 Y116.039 F7200
G1 X146.039 Y111.113 E10.33073 F3600
G0 X146.039 Y110.548 F7200
G1 X140.548 Y116.039 E10.58905 F3600
G0 X139.982 Y116.039 F7200
G1 X146.039 Y109.982 E10.87397 F3600
G0 X146.039 Y109.416 F7200
G1 X139.416 Y116.039 E11.18550 F3600
G0 X138.851 Y116.039 F7200
G1 X146.039 Y108.851 E11.52364 F3600
G0 X146.039 Y108.285 F7200
G1 X138.285 Y116.039 E11.88839 F3600
G0 X137.719 Y116.039 F7200
G1 X146.039 Y107.719 E12.27974 F3600
G0 X146.039 Y107.154 F7200
G1 X137.154 Y116.039 E12.69771 F3600
G0 X136.588 Y116.039 F7200
G1 X146.039 Y106.588 E13.14228 F3600
G0 X146.039 Y106.022 F7200
G1 X136.022 Y116.039 E13.61346 F3600
G0 X135.457 Y116.039 F7200
G1 X146.039 Y105.457 E14.11124 F3600
G0 X146.039 Y104.891 F7200
G1 X134.891 Y116.039 E14.63564 F3600
G0 X134.325 Y116.039 F7200
G1 X146.039 Y104.325 E15.18664 F3600
G0 X146.039 Y103.760 F7200
G1 X133.760 Y116.039 E15.76425 F3600
G0 X133.194 Y116.039 F7200
G1 X146.039 Y103.194 E16.36847 F3600
G0 X146.039 Y102.628 F7200
G1 X132.628 Y116.039 E16.99930 F3600
G0 X132.062 Y116.039 F7200
G1 X146.039 Y102.062 E17.65674 F3600
G0 X146.039 Y101.497 F7200
G1 X131.497 Y116.039 E18.34078 F3600
G0 X130.931 Y116.039 F7200
G1 X146.039 Y100.931 E19.05143 F3600
G0 X146.039 Y100.365 F7200
G1 X130.365 Y116.039 E19.78870 F3600
G0 X129.800 Y116.039 F7200
G1 X146.039 Y99.800 E20.55256 F3600
G0 X146.039 Y99.234 F7200
G1 X129.234 Y116.039 E21.34304 F3600
G0 X128.668 Y116.039 F7200
G1 X146.039 Y98.668 E22.16013 F3600
G0 X146.039 Y98.103 F7200
G1 X128.103 Y116.039 E23.00382 F3600
G0 X127.537 Y116.039 F7200
G1 X146.039 Y97.537 E23.87412 F3600
G0 X146.039 Y96.971 F7200
G1 X126.971 Y116.039 E24.77103 F3600
G0 X126.406 Y116.039 F7200
G1 X146.039 Y96.406 E25.69455 F3600
G0 X146.039 Y95.840 F7200
G1 X125.840 Y116.039 E26.64468 F3600
G0 X125.274 Y116.039 F7200
G1 X146.039 Y95.274 E27.62141 F3600
G0 X146.039 Y94.709 F7200
G1 X124.709 Y116.039 E28.62475 F3600
G0 X124.143 Y116.039 F7200
G1 X146.039 Y94.143 E29.65470 F3600
G0 X146.039 Y93.577 F7200
G1 X123.577 Y116.039 E30.71126 F3600
G0 X123.011 Y116.039 F7200
G1 X146.039 Y93.011 E31.79443 F3600
G0 X146.039 Y92.446 F7200
G1 X122.446 Y116.039 E32.90420 F3600
G0 X121.880 Y116.039 F7200
G1 X146.039 Y91.880 E34.04058 F3600
G0 X146.039 Y91.314 F7200
G1 X121.314 Y116.039 E35.20357 F3600
G0 X120.749 Y116.039 F7200
G1 X146.039 Y90.749 E36.39317 F3600
G0 X146.039 Y90.183 F7200
G1 X120.183 Y116.039 E37.60938 F3600
G0 X119.617 Y116.039 F7200
G1 X146.039 Y89.617 E38.85219 F3600
G0 X146.039 Y89.052 F7200
G1 X119.052 Y116.039 E40.12161 F3600
G0 X118.486 Y116.039 F7200
G1 X146.040 Y88.486 E41.41765 F3600
G0 X146.040 Y87.920 F7200
G1 X117.920 Y116.039 E42.74029 F3600
G0 X117.355 Y116.039 F7200
G1 X146.040 Y87.355 E44.08953 F3600
G0 X146.040 Y86.789 F7200
G1 X116.789 Y116.039 E45.46539 F3600
G0 X116.223 Y116.039 F7200
G1 X146.040 Y86.223 E46.86785 F3600
G0 X146.040 Y85.658 F7200
G1 X115.658 Y116.039 E48.29693 F3600
G0 X115.092 Y116.039 F7200
G1 X146.040 Y85.092 E49.75261 F3600
G0 X146.040 Y84.526 F7200
G1 X114.526 Y116.039 E51.23490 F3600
G0 X113.961 Y116.039 F7200
G1 X146.039 Y83.961 E52.74379 F3600
G0 X145.474 Y83.961 F7200
G1 X113.961 Y115.474 E54.22608 F3600
G0 X113.961 Y114.908 F7200
G1 X144.908 Y83.961 E55.68176 F3600
G0 X144.342 Y83.961 F7200
G1 X113.961 Y114.342 E57.11083 F3600
G0 X113.961 Y113.777 F7200
G1 X143.777 Y83.961 E58.51329 F3600
G0 X143.211 Y83.961 F7200
G1 X113.961 Y113.211 E59.88914 F3600
G0 X113.961 Y112.645 F7200
G1 X142.645 Y83.961 E61.23839 F3600
G0 X142.080 Y83.961 F7200
G1 X113.961 Y112.080 E62.56103 F3600
G0 X113.961 Y111.514 F7200
G1 X141.514 Y83.961 E63.85706 F3600
G0 X140.948 Y83.961 F7200
G1 X113.961 Y110.948 E65.12648 F3600
G0 X113.961 Y110.383 F7200
G1 X140.383 Y83.961 E66.36930 F3600
G0 X139.817 Y83.961 F7200
G1 X113.961 Y109.817 E67.58550 F3600
G0 X113.961 Y109.251 F7200
G1 X139.251 Y83.961 E68.77510 F3600
G0 X138.686 Y83.961 F7200
G1 X113.961 Y108.686 E69.93808 F3600
G0 X113.961 Y108.120 F7200
G1 X138.120 Y83.961 E71.07447 F3600
G0 X137.554 Y83.961 F7200
G1 X113.961 Y107.554 E72.18424 F3600
G0 X113.961 Y106.989 F7200
G1 X136.988 Y83.961 E73.26741 F3600
G0 X136.423 Y83.961 F7200
G1 X113.961 Y106.423 E74.32396 F3600
G0 X113.961 Y105.857 F7200
G1 X135.857 Y83.961 E75.35391 F3600
G0 X135.291 Y83.961 F7200
G1 X113.961 Y105.291 E76.35725 F3600
G0 X113.961 Y104.726 F7200
G1 X134.726 Y83.961 E77.33398 F3600
G0 X134.160 Y83.961 F7200
G1 X113.961 Y104.160 E78.28411 F3600
G0 X113.961 Y103.594 F7200
G1 X133.594 Y83.961 E79.20762 F3600
G0 X133.029 Y83.961 F7200
G1 X113.961 Y103.029 E80.10453 F3600
G0 X113.961 Y102.463 F7200
G1 X132.463 Y83.961 E80.97483 F3600
G0 X131.897 Y83.961 F7200
G1 X113.961 Y101.897 E81.81851 F3600
G0 X113.961 Y101.332 F7200
G1 X131.332 Y83.961 E82.63560 F3600
G0 X130.766 Y83.961 F7200
G1 X113.961 Y100.766 E83.42607 F3600
G0 X113.961 Y100.200 F7200
G1 X130.200 Y83.961 E84.18993 F3600
G0 X129.635 Y83.961 F7200
G1 X113.961 Y99.635 E84.92719 F3600
G0 X113.961 Y99.069 F7200
G1 X129.069 Y83.961 E85.63784 F3600
G0 X128.503 Y83.961 F7200
G1 X113.961 Y98.503 E86.32188 F3600
G0 X113.961 Y97.938 F7200
G1 X127.937 Y83.961 E86.97932 F3600
G0 X127.372 Y83.961 F7200
G1 X113.961 Y97.372 E87.61015 F3600
G0 X113.961 Y96.806 F7200
G1 X126.806 Y83.961 E88.21436 F3600
G0 X126.240 Y83.961 F7200
G1 X113.961 Y96.240 E88.79197 F3600
G0 X113.961 Y95.675 F7200
G1 X125.675 Y83.961 E89.34297 F3600
G0 X125.109 Y83.961 F7200
G1 X113.961 Y95.109 E89.86736 F3600
G0 X113.961 Y94.543 F7200
G1 X124.543 Y83.961 E90.36515 F3600
G0 X123.978 Y83.961 F7200
G1 X113.961 Y93.978 E90.83633 F3600
G0 X113.961 Y93.412 F7200
G1 X123.412 Y83.961 E91.28089 F3600
G0 X122.846 Y83.961 F7200
G1 X113.961 Y92.846 E91.69885 F3600
G0 X113.961 Y92.281 F7200
G1 X122.281 Y83.961 E92.09020 F3600
G0 X121.715 Y83.961 F7200
G1 X113.961 Y91.715 E92.45495 F3600
G0 X113.961 Y91.149 F7200
G1 X121.149 Y83.961 E92.79308 F3600
G0 X120.584 Y83.961 F7200
G1 X113.961 Y90.584 E93.10461 F3600
G0 X113.961 Y90.018 F7200
G1 X120.018 Y83.961 E93.38953 F3600
G0 X119.452 Y83.961 F7200
G1 X113.961 Y89.452 E93.64784 F3600
G0 X113.961 Y88.887 F7200
G1 X118.887 Y83.961 E93.87955 F3600
G0 X118.321 Y83.961 F7200
G1 X113.961 Y88.321 E94.08464 F3600
G0 X113.961 Y87.755 F7200
G1 X117.755 Y83.961 E94.26313 F3600
G0 X117.189 Y83.961 F7200
G1 X113.961 Y87.190 E94.41501 F3600
; ------------------------------------
; Layer #4
; ------------------------------------
G92 E0 ;reset extr
G0 F3000 E-1.00000
G0 F600 Z1.000
G0 X113.961 Y84.322 F7200
G0 F3000 E0.00000
;segType:HShell
G1 X117.956 Y88.317 E0.18792 F3600
G0 X117.956 Y88.883 F7200
G1 X113.961 Y84.888 E0.37584 F3600
G0 X113.600 Y83.600 F7200
G0 X113.416 Y83.780
;segType:Perimeter
G1 X113.260 Y83.200 E0.39579 F2159
G1 X146.800 Y83.200 E1.51131
G1 X146.800 Y116.800 E2.62882
G1 X113.200 Y116.800 E3.74634
G1 X113.200 Y83.260 E4.86186
G0 X113.973 Y83.467 F7200
G0 X114.300 Y83.600
;segType:Loop
G1 X146.400 Y83.600 E5.92948 F3600
G1 X146.400 Y116.400 E7.02039
G1 X113.600 Y116.400 E8.11129
G1 X113.600 Y83.600 E9.20220
G1 X114.100 Y83.600 E9.21883
G0 F3000 E8.21883
G0 X118.162 Y87.959 F7200
G0 F3000 E9.21883
;segType:Infill
G1 X142.040 Y111.837 E10.56660 F4500
G0 X146.036 Y115.832 F7200
G1 X146.039 Y115.836 E10.56680 F4500
G0 X137.722 Y112.043 F7200
G1 X117.956 Y92.277 E11.68248 F4500
G0 X117.956 Y96.803 F7200
G1 X133.196 Y112.043 E12.54273 F4500
G0 X124.145 Y112.043 F7200
G1 X117.956 Y105.854 E12.89210 F4500
G0 X117.956 Y110.379 F7200
G1 X119.620 Y112.043 E12.98603 F4500
G0 X117.956 Y101.328 F7200
G1 X128.671 Y112.043 E13.59084 F4500
G0 X142.040 Y107.311 F7200
G1 X122.688 Y87.959 E14.68318 F4500
G0 X127.213 Y87.959 F7200
G1 X142.040 Y102.786 E15.52009 F4500
G0 X142.040 Y89.209 F7200
G1 X140.790 Y87.959 E15.59068 F4500
G0 X136.264 Y87.959 F7200
G1 X142.040 Y93.735 E15.91670 F4500
G0 X142.040 Y98.260 F7200
G1 X131.739 Y87.959 E16.49817 F4500
G0 F3000 E15.49817
G0 X114.164 Y83.961 F7200
G0 F3000 E16.49817
;segType:HShell
G1 X118.162 Y87.959 E16.68622 F3600
G0 X118.728 Y87.959 F7200
G1 X114.730 Y83.961 E16.87428 F3600
G0 X115.296 Y83.961 F7200
G1 X119.294 Y87.959 E17.06233 F3600
G0 X119.860 Y87.959 F7200
G1 X115.861 Y83.961 E17.25039 F3600
G0 X116.427 Y83.961 F7200
G1 X120.425 Y87.959 E17.43844 F3600
G0 X120.991 Y87.959 F7200
G1 X116.993 Y83.961 E17.62650 F3600
G0 X117.559 Y83.961 F7200
G1 X121.557 Y87.959 E17.81455 F3600
G0 X122.122 Y87.959 F7200
G1 X118.124 Y83.961 E18.00261 F3600
G0 X118.690 Y83.961 F7200
G1 X122.688 Y87.959 E18.19066 F3600
G0 X123.254 Y87.959 F7200
G1 X119.256 Y83.961 E18.37872 F3600
G0 X119.821 Y83.961 F7200
G1 X123.819 Y87.959 E18.56677 F3600
G0 X124.385 Y87.959 F7200
G1 X120.387 Y83.961 E18.75483 F3600
G0 X120.953 Y83.961 F7200
G1 X124.951 Y87.959 E18.94288 F3600
G0 X125.516 Y87.959 F7200
G1 X121.518 Y83.961 E19.13094 F3600
G0 X122.084 Y83.961 F7200
G1 X126.082 Y87.959 E19.31900 F3600
G0 X126.648 Y87.959 F7200
G1 X122.650 Y83.961 E19.50705 F3600
G0 X123.215 Y83.961 F7200
G1 X127.213 Y87.959 E19.69511 F3600
G0 X127.779 Y87.959 F7200
G1 X123.781 Y83.961 E19.88316 F3600
G0 X124.347 Y83.961 F7200
G1 X128.345 Y87.959 E20.07122 F3600
G0 X128.910 Y87.959 F7200
G1 X124.912 Y83.961 E20.25927 F3600
G0 X125.478 Y83.961 F7200
G1 X129.476 Y87.959 E20.44733 F3600
G0 X130.042 Y87.959 F7200
G1 X126.044 Y83.961 E20.63538 F3600
G0 X126.609 Y83.961 F7200
G1 X130.608 Y87.959 E20.82344 F3600
G0 X131.173 Y87.959 F7200
G1 X127.175 Y83.961 E21.01149 F3600
G0 X127.741 Y83.961 F7200
G1 X131.739 Y87.959 E21.19955 F3600
G0 X132.305 Y87.959 F7200
G1 X128.307 Y83.961 E21.38760 F3600
G0 X128.872 Y83.961 F7200
G1 X132.870 Y87.959 E21.57566 F3600
G0 X133.436 Y87.959 F7200
G1 X129.438 Y83.961 E21.76371 F3600
G0 X130.004 Y83.961 F7200
G1 X134.002 Y87.959 E21.95177 F3600
G0 X134.567 Y87.959 F7200
G1 X130.569 Y83.961 E22.13983 F3600
G0 X131.135 Y83.961 F7200
G1 X135.133 Y87.959 E22.32788 F3600
G0 X135.699 Y87.959 F7200
G1 X131.701 Y83.961 E22.51594 F3600
G0 X132.266 Y83.961 F7200
G1 X136.264 Y87.959 E22.70400 F3600
G0 X136.830 Y87.959 F7200
G1 X132.832 Y83.961 E22.89205 F3600
G0 X133.398 Y83.961 F7200
G1 X137.396 Y87.959 E23.08011 F3600
G0 X137.961 Y87.959 F7200
G1 X133.963 Y83.961 E23.26816 F3600
G0 X134.529 Y83.961 F7200
G1 X138.527 Y87.959 E23.45622 F3600
G0 X139.093 Y87.959 F7200
G1 X135.095 Y83.961 E23.64428 F3600
G0 X135.660 Y83.961 F7200
G1 X139.658 Y87.959 E23.83234 F3600
G0 X140.224 Y87.959 F7200
G1 X136.226 Y83.961 E24.02039 F3600
G0 X136.792 Y83.961 F7200
G1 X140.790 Y87.959 E24.20845 F3600
G0 X141.356 Y87.959 F7200
G1 X137.357 Y83.961 E24.39650 F3600
G0 X137.923 Y83.961 F7200
G1 X141.921 Y87.959 E24.58456 F3600
G0 X142.040 Y88.078 F7200
G1 X146.039 Y92.077 E24.77266 F3600
G0 X146.039 Y92.643 F7200
G1 X142.040 Y88.643 E24.96077 F3600
G0 X142.040 Y89.209 F7200
G1 X146.039 Y93.208 E25.14887 F3600
G0 X146.039 Y93.774 F7200
G1 X142.040 Y89.775 E25.33697 F3600
G0 X142.040 Y90.341 F7200
G1 X146.039 Y94.340 E25.52508 F3600
G0 X146.039 Y94.905 F7200
G1 X142.040 Y90.906 E25.71318 F3600
G0 X142.040 Y91.472 F7200
G1 X146.039 Y95.471 E25.90128 F3600
G0 X146.039 Y96.037 F7200
G1 X142.040 Y92.038 E26.08938 F3600
G0 X142.040 Y92.603 F7200
G1 X146.039 Y96.602 E26.27749 F3600
G0 X146.039 Y97.168 F7200
G1 X142.040 Y93.169 E26.46559 F3600
G0 X142.040 Y93.735 F7200
G1 X146.039 Y97.734 E26.65369 F3600
G0 X146.039 Y98.299 F7200
G1 X142.040 Y94.300 E26.84179 F3600
G0 X142.040 Y94.866 F7200
G1 X146.039 Y98.865 E27.02990 F3600
G0 X146.039 Y99.431 F7200
G1 X142.040 Y95.432 E27.21800 F3600
G0 X142.040 Y95.997 F7200
G1 X146.039 Y99.996 E27.40610 F3600
G0 X146.039 Y100.562 F7200
G1 X142.040 Y96.563 E27.59421 F3600
G0 X142.040 Y97.129 F7200
G1 X146.039 Y101.128 E27.78231 F3600
G0 X146.039 Y101.693 F7200
G1 X142.040 Y97.694 E27.97041 F3600
G0 X142.040 Y98.260 F7200
G1 X146.039 Y102.259 E28.15851 F3600
G0 X146.039 Y102.825 F7200
G1 X142.040 Y98.826 E28.34662 F3600
G0 X142.040 Y99.392 F7200
G1 X146.039 Y103.391 E28.53472 F3600
G0 X146.039 Y103.956 F7200
G1 X142.040 Y99.957 E28.72282 F3600
G0 X142.040 Y100.523 F7200
G1 X146.039 Y104.522 E28.91092 F3600
G0 X146.039 Y105.088 F7200
G1 X142.040 Y101.089 E29.09903 F3600
G0 X142.040 Y101.654 F7200
G1 X146.039 Y105.653 E29.28713 F3600
G0 X146.039 Y106.219 F7200
G1 X142.040 Y102.220 E29.47523 F3600
G0 X142.040 Y102.786 F7200
G1 X146.039 Y106.785 E29.66333 F3600
G0 X146.039 Y107.350 F7200
G1 X142.040 Y103.351 E29.85143 F3600
G0 X142.040 Y103.917 F7200
G1 X146.039 Y107.916 E30.03954 F3600
G0 X146.039 Y108.482 F7200
G1 X142.040 Y104.483 E30.22764 F3600
G0 X142.040 Y105.048 F7200
G1 X146.039 Y109.047 E30.41574 F3600
G0 X146.039 Y109.613 F7200
G1 X142.040 Y105.614 E30.60384 F3600
G0 X142.040 Y106.180 F7200
G1 X146.039 Y110.179 E30.79195 F3600
G0 X146.039 Y110.744 F7200
G1 X142.040 Y106.745 E30.98005 F3600
G0 X142.040 Y107.311 F7200
G1 X146.039 Y111.310 E31.16815 F3600
G0 X146.039 Y111.876 F7200
G1 X142.040 Y107.877 E31.35625 F3600
G0 X142.040 Y108.442 F7200
G1 X146.039 Y112.442 E31.54436 F3600
G0 X146.039 Y113.007 F7200
G1 X142.040 Y109.008 E31.73246 F3600
G0 X142.040 Y109.574 F7200
G1 X146.039 Y113.573 E31.92056 F3600
G0 X146.039 Y114.139 F7200
G1 X142.040 Y110.140 E32.10866 F3600
G0 X142.040 Y110.705 F7200
G1 X146.039 Y114.704 E32.29677 F3600
G0 X146.039 Y115.270 F7200
G1 X142.040 Y111.271 E32.48487 F3600
G0 X142.040 Y111.837 F7200
G1 X146.036 Y115.832 E32.67281 F3600
G0 X145.678 Y116.039 F7200
G1 X141.682 Y112.043 E32.86077 F3600
G0 X141.116 Y112.043 F7200
G1 X145.112 Y116.039 E33.04874 F3600
G0 X144.546 Y116.039 F7200
G1 X140.550 Y112.043 E33.23670 F3600
G0 X139.985 Y112.043 F7200
G1 X143.981 Y116.039 E33.42467 F3600
G0 X143.415 Y116.039 F7200
G1 X139.419 Y112.043 E33.61263 F3600
G0 X138.853 Y112.043 F7200
G1 X142.849 Y116.039 E33.80060 F3600
G0 X142.284 Y116.039 F7200
G1 X138.287 Y112.043 E33.98856 F3600
G0 X137.722 Y112.043 F7200
G1 X141.718 Y116.039 E34.17653 F3600
G0 X141.152 Y116.039 F7200
G1 X137.156 Y112.043 E34.36449 F3600
G0 X136.590 Y112.043 F7200
G1 X140.586 Y116.039 E34.55246 F3600
G0 X140.021 Y116.039 F7200
G1 X136.025 Y112.043 E34.74042 F3600
G0 X135.459 Y112.043 F7200
G1 X139.455 Y116.039 E34.92839 F3600
G0 X138.889 Y116.039 F7200
G1 X134.893 Y112.043 E35.11635 F3600
G0 X134.328 Y112.043 F7200
G1 X138.324 Y116.039 E35.30432 F3600
G0 X137.758 Y116.039 F7200
G1 X133.762 Y112.043 E35.49228 F3600
G0 X133.196 Y112.043 F7200
G1 X137.192 Y116.039 E35.68025 F3600
G0 X136.627 Y116.039 F7200
G1 X132.631 Y112.043 E35.86821 F3600
G0 X132.065 Y112.043 F7200
G1 X136.061 Y116.039 E36.05618 F3600
G0 X135.495 Y116.039 F7200
G1 X131.499 Y112.043 E36.24415 F3600
G0 X130.934 Y112.043 F7200
G1 X134.930 Y116.039 E36.43211 F3600
G0 X134.364 Y116.039 F7200
G1 X130.368 Y112.043 E36.62008 F3600
G0 X129.802 Y112.043 F7200
G1 X133.798 Y116.039 E36.80804 F3600
G0 X133.233 Y116.039 F7200
G1 X129.236 Y112.043 E36.99601 F3600
G0 X128.671 Y112.043 F7200
G1 X132.667 Y116.039 E37.18397 F3600
G0 X132.101 Y116.039 F7200
G1 X128.105 Y112.043 E37.37194 F3600
G0 X127.539 Y112.043 F7200
G1 X131.536 Y116.039 E37.55990 F3600
G0 X130.970 Y116.039 F7200
G1 X126.974 Y112.043 E37.74787 F3600
G0 X126.408 Y112.043 F7200
G1 X130.404 Y116.039 E37.93583 F3600
G0 X129.838 Y116.039 F7200
G1 X125.842 Y112.043 E38.12380 F3600
G0 X125.277 Y112.043 F7200
G1 X129.273 Y116.039 E38.31177 F3600
G0 X128.707 Y116.039 F7200
G1 X124.711 Y112.043 E38.49973 F3600
G0 X124.145 Y112.043 F7200
G1 X128.141 Y116.039 E38.68770 F3600
G0 X127.576 Y116.039 F7200
G1 X123.580 Y112.043 E38.87566 F3600
G0 X123.014 Y112.043 F7200
G1 X127.010 Y116.039 E39.06363 F3600
G0 X126.444 Y116.039 F7200
G1 X122.448 Y112.043 E39.25159 F3600
G0 X121.883 Y112.043 F7200
G1 X125.879 Y116.039 E39.43956 F3600
G0 X125.313 Y116.039 F7200
G1 X121.317 Y112.043 E39.62752 F3600
G0 X120.751 Y112.043 F7200
G1 X124.747 Y116.039 E39.81549 F3600
G0 X124.182 Y116.039 F7200
G1 X120.186 Y112.043 E40.00345 F3600
G0 X119.620 Y112.043 F7200
G1 X123.616 Y116.039 E40.19142 F3600
G0 X123.050 Y116.039 F7200
G1 X119.054 Y112.043 E40.37938 F3600
G0 X118.488 Y112.043 F7200
G1 X122.485 Y116.039 E40.56735 F3600
G0 X121.919 Y116.039 F7200
G1 X113.961 Y108.081 E40.94169 F3600
G0 X113.961 Y108.647 F7200
G1 X121.353 Y116.039 E41.28941 F3600
G0 X120.788 Y116.039 F7200
G1 X113.961 Y109.213 E41.61054 F3600
G0 X113.961 Y109.778 F7200
G1 X120.222 Y116.039 E41.90505 F3600
G0 X119.656 Y116.039 F7200
G1 X113.961 Y110.344 E42.17295 F3600
G0 X113.961 Y110.910 F7200
G1 X119.090 Y116.039 E42.41424 F3600
G0 X118.525 Y116.039 F7200
G1 X113.961 Y111.475 E42.62893 F3600
G0 X113.961 Y112.041 F7200
G1 X117.959 Y116.039 E42.81701 F3600
G0 X117.393 Y116.039 F7200
G1 X113.961 Y112.607 E42.97848 F3600
G0 X113.961 Y113.172 F7200
G1 X116.828 Y116.039 E43.11335 F3600
G0 X116.262 Y116.039 F7200
G1 X113.961 Y113.738 E43.22160 F3600
G0 X113.961 Y114.304 F7200
G1 X115.696 Y116.039 E43.30325 F3600
G0 X115.131 Y116.039 F7200
G1 X113.961 Y114.869 E43.35829 F3600
G0 X113.961 Y115.435 F7200
G1 X114.565 Y116.039 E43.38672 F3600
G0 X113.961 Y116.001 F7200
G0 X113.999 Y116.039
G0 F3000 E42.38672
G0 X113.961 Y107.515 F7200
G0 F3000 E43.38672
G1 X117.956 Y111.511 E43.57464 F3600
G0 X117.956 Y110.945 F7200
G1 X113.961 Y106.950 E43.76256 F3600
G0 X113.961 Y106.384 F7200
G1 X117.956 Y110.379 E43.95048 F3600
G0 X117.956 Y109.814 F7200
G1 X113.961 Y105.818 E44.13840 F3600
G0 X113.961 Y105.253 F7200
G1 X117.956 Y109.248 E44.32632 F3600
G0 X117.956 Y108.682 F7200
G1 X113.961 Y104.687 E44.51424 F3600
G0 X113.961 Y104.121 F7200
G1 X117.956 Y108.116 E44.70215 F3600
G0 X117.956 Y107.551 F7200
G1 X113.961 Y103.556 E44.89007 F3600
G0 X113.961 Y102.990 F7200
G1 X117.956 Y106.985 E45.07799 F3600
G0 X117.956 Y106.419 F7200
G1 X113.961 Y102.424 E45.26591 F3600
G0 X113.961 Y101.859 F7200
G1 X117.956 Y105.854 E45.45383 F3600
G0 X117.956 Y105.288 F7200
G1 X113.961 Y101.293 E45.64175 F3600
G0 X113.961 Y100.727 F7200
G1 X117.956 Y104.722 E45.82967 F3600
G0 X117.956 Y104.157 F7200
G1 X113.961 Y100.162 E46.01759 F3600
G0 X113.961 Y99.596 F7200
G1 X117.956 Y103.591 E46.20551 F3600
G0 X117.956 Y103.025 F7200
G1 X113.961 Y99.030 E46.39343 F3600
G0 X113.961 Y98.464 F7200
G1 X117.956 Y102.460 E46.58135 F3600
G0 X117.956 Y101.894 F7200
G1 X113.961 Y97.899 E46.76927 F3600
G0 X113.961 Y97.333 F7200
G1 X117.956 Y101.328 E46.95719 F3600
G0 X117.956 Y100.763 F7200
G1 X113.961 Y96.767 E47.14511 F3600
G0 X113.961 Y96.202 F7200
G1 X117.956 Y100.197 E47.33303 F3600
G0 X117.956 Y99.631 F7200
G1 X113.961 Y95.636 E47.52095 F3600
G0 X113.961 Y95.070 F7200
G1 X117.956 Y99.065 E47.70887 F3600
G0 X117.956 Y98.500 F7200
G1 X113.961 Y94.505 E47.89679 F3600
G0 X113.961 Y93.939 F7200
G1 X117.956 Y97.934 E48.08471 F3600
G0 X117.956 Y97.368 F7200
G1 X113.961 Y93.373 E48.27263 F3600
G0 X113.961 Y92.808 F7200
G1 X117.956 Y96.803 E48.46055 F3600
G0 X117.956 Y96.237 F7200
G1 X113.961 Y92.242 E48.64847 F3600
G0 X113.961 Y91.676 F7200
G1 X117.956 Y95.671 E48.83639 F3600
G0 X117.956 Y95.106 F7200
G1 X113.961 Y91.111 E49.02431 F3600
G0 X113.961 Y90.545 F7200
G1 X117.956 Y94.540 E49.21222 F3600
G0 X117.956 Y93.974 F7200
G1 X113.961 Y89.979 E49.40014 F3600
G0 X113.961 Y89.414 F7200
G1 X117.956 Y93.409 E49.58806 F3600
G0 X117.956 Y92.843 F7200
G1 X113.961 Y88.848 E49.77598 F3600
G0 X113.961 Y88.282 F7200
G1 X117.956 Y92.277 E49.96390 F3600
G0 X117.956 Y91.712 F7200
G1 X113.961 Y87.716 E50.15182 F3600
G0 X113.961 Y87.151 F7200
G1 X117.956 Y91.146 E50.33973 F3600
G0 X117.956 Y90.580 F7200
G1 X113.961 Y86.585 E50.52765 F3600
G0 X113.961 Y86.019 F7200
G1 X117.956 Y90.015 E50.71557 F3600
G0 X117.956 Y89.449 F7200
G1 X113.961 Y85.454 E50.90349 F3600
G0 F3000 E49.90349
G0 X113.600 Y85.471 F7200
G0 X146.400 Y83.934
G0 X145.843 Y83.961
G0 F3000 E50.90349
G1 X146.039 Y84.157 E50.91274 F3600
G0 X146.039 Y84.723 F7200
G1 X145.277 Y83.961 E50.94860 F3600
G0 X144.711 Y83.961 F7200
G1 X146.039 Y85.289 E51.01107 F3600
G0 X146.039 Y85.854 F7200
G1 X144.146 Y83.961 E51.10015 F3600
G0 X143.580 Y83.961 F7200
G1 X146.039 Y86.420 E51.21583 F3600
G0 X146.039 Y86.986 F7200
G1 X143.014 Y83.961 E51.35812 F3600
G0 X142.449 Y83.961 F7200
G1 X146.039 Y87.551 E51.52702 F3600
G0 X146.039 Y88.117 F7200
G1 X141.883 Y83.961 E51.72253 F3600
G0 X141.317 Y83.961 F7200
G1 X146.039 Y88.683 E51.94465 F3600
G0 X146.039 Y89.248 F7200
G1 X140.752 Y83.961 E52.19338 F3600
G0 X140.186 Y83.961 F7200
G1 X146.039 Y89.814 E52.46871 F3600
G0 X146.039 Y90.380 F7200
G1 X139.620 Y83.961 E52.77065 F3600
G0 X139.055 Y83.961 F7200
G1 X146.039 Y90.945 E53.09920 F3600
G0 X146.039 Y91.511 F7200
G1 X138.489 Y83.961 E53.45436 F3600
; ------------------------------------
; Layer #5
; ------------------------------------
G92 E0 ;reset extr
G0 F3000 E-1.00000
G0 F600 Z1.200
G0 X114.300 Y83.600 F7200
G0 F3000 E0.00000
;segType:Loop
G1 X146.400 Y83.600 E1.06762 F3600
G1 X146.400 Y116.400 E2.15853
G1 X113.600 Y116.400 E3.24944
G1 X113.600 Y83.600 E4.34034
G1 X114.100 Y83.600 E4.35697
G0 X113.416 Y83.780 F7200
;segType:Perimeter
G1 X113.260 Y83.200 E4.37693 F2159
G1 X146.800 Y83.200 E5.49245
G1 X146.800 Y116.800 E6.60996
G1 X113.200 Y116.800 E7.72747
G1 X113.200 Y83.260 E8.84299
G0 X113.973 Y83.467 F7200
G0 F3000 E7.84299
G0 X113.723 Y83.200 F7200
G0 X115.148 Y84.720
G0 X114.797 Y84.720
G0 X114.799 Y115.202
G0 X143.726 Y115.202
G0 X144.101 Y115.602
G0 F3000 E8.84299
;segType:Loop
G1 X114.399 Y115.602 E9.83091 F3600
G1 X114.397 Y84.320 E10.87135
G1 X145.599 Y84.320 E11.90916
G1 X145.601 Y115.602 E12.94959
G1 X144.301 Y115.602 E12.99283
G0 X145.141 Y115.202 F7200
;segType:Perimeter
G1 X114.799 Y115.202 E14.00204 F2159
G1 X114.797 Y84.720 E15.01587
G1 X145.199 Y84.720 E16.02705
G1 X145.201 Y115.142 E17.03889
G0 X145.201 Y115.942 F7200
G0 F3000 E16.03889
G0 X114.066 Y115.934 F7200
G0 F3000 E17.03889
;segType:Infill
G1 X113.961 Y116.039 E17.04483 F4500
G0 X114.286 Y116.001 F7200
;segType:InnerHair
G1 X145.714 Y116.001 E18.08295 F3600
G1 X146.001 Y115.714 E18.09637
G1 X146.001 Y115.600 E18.10015
G1 X146.001 Y115.486 E18.10393
G1 X146.001 Y115.371 E18.10772
G1 X146.001 Y115.257 E18.11150
G1 X146.001 Y115.143 E18.11529
G1 X146.000 Y115.029 E18.11907
G1 X146.000 Y114.914 E18.12285
G1 X146.000 Y114.800 E18.12664
G1 X146.000 Y114.686 E18.13042
G1 X146.000 Y114.571 E18.13421
G1 X146.000 Y114.457 E18.13799
G1 X146.000 Y114.343 E18.14178
G1 X146.000 Y114.229 E18.14556
G1 X146.000 Y114.114 E18.14934
G1 X146.000 Y114.000 E18.15313
G1 X146.000 Y113.886 E18.15691
G1 X146.000 Y113.771 E18.16070
G1 X146.000 Y113.657 E18.16448
G1 X146.000 Y113.543 E18.16827
G1 X146.000 Y113.429 E18.17205
G1 X146.000 Y113.314 E18.17584
G1 X146.000 Y113.200 E18.17962
G1 X146.000 Y113.086 E18.18341
G1 X146.000 Y112.971 E18.18720
G1 X146.000 Y112.857 E18.19098
G1 X146.000 Y112.743 E18.19477
G1 X146.000 Y112.629 E18.19855
G1 X146.000 Y112.514 E18.20234
G1 X146.000 Y112.400 E18.20613
G1 X146.000 Y112.286 E18.20991
G1 X146.000 Y112.171 E18.21370
G1 X146.000 Y112.057 E18.21748
G1 X146.000 Y111.943 E18.22127
G1 X146.000 Y111.829 E18.22506
G1 X146.000 Y111.714 E18.22884
G1 X146.000 Y111.600 E18.23263
G1 X146.000 Y111.486 E18.23641
G1 X146.000 Y111.371 E18.24020
G1 X146.000 Y111.257 E18.24399
G1 X146.000 Y111.143 E18.24777
G1 X146.000 Y111.029 E18.25156
G1 X146.000 Y110.914 E18.25535
G1 X146.000 Y110.800 E18.25913
G1 X146.000 Y110.686 E18.26292
G1 X146.000 Y110.571 E18.26671
G1 X146.000 Y110.457 E18.27049
G1 X146.000 Y110.343 E18.27428
G1 X146.000 Y110.229 E18.27807
G1 X146.000 Y110.114 E18.28186
G1 X146.000 Y110.000 E18.28564
G1 X146.000 Y109.886 E18.28943
G1 X146.000 Y109.771 E18.29322
G1 X146.000 Y109.657 E18.29701
G1 X146.000 Y109.543 E18.30080
G1 X146.000 Y109.429 E18.30458
G1 X146.000 Y109.314 E18.30837
G1 X146.000 Y109.200 E18.31216
G1 X146.000 Y109.086 E18.31595
G1 X146.000 Y108.971 E18.31974
G1 X146.000 Y108.857 E18.32352
G1 X146.000 Y108.743 E18.32731
G1 X146.000 Y108.629 E18.33110
G1 X146.000 Y108.514 E18.33489
G1 X146.000 Y108.400 E18.33868
G1 X146.000 Y108.286 E18.34246
G1 X146.000 Y108.171 E18.34625
G1 X146.000 Y108.057 E18.35004
G1 X146.000 Y107.943 E18.35383
G1 X146.000 Y107.829 E18.35762
G1 X146.000 Y107.714 E18.36140
G1 X146.000 Y107.600 E18.36519
G1 X146.000 Y107.486 E18.36898
G1 X146.000 Y107.371 E18.37277
G1 X146.000 Y107.257 E18.37656
G1 X146.000 Y107.143 E18.38035
G1 X146.000 Y107.029 E18.38414
G1 X146.000 Y106.914 E18.38793
G1 X146.000 Y106.800 E18.39172
G1 X146.000 Y106.686 E18.39551
G1 X146.000 Y106.571 E18.39930
G1 X146.000 Y106.457 E18.40309
G1 X146.000 Y106.343 E18.40688
G1 X146.000 Y106.229 E18.41067
G1 X146.000 Y106.114 E18.41446
G1 X146.000 Y106.000 E18.41825
G1 X146.000 Y105.886 E18.42204
G1 X146.000 Y105.771 E18.42583
G1 X146.000 Y105.657 E18.42962
G1 X146.000 Y105.543 E18.43341
G1 X146.000 Y105.429 E18.43720
G1 X146.000 Y105.314 E18.44099
G1 X146.000 Y105.200 E18.44478
G1 X146.000 Y105.086 E18.44857
G1 X146.000 Y104.971 E18.45236
G1 X146.000 Y104.857 E18.45615
G1 X146.000 Y104.743 E18.45994
G1 X146.000 Y104.629 E18.46373
G1 X146.000 Y104.514 E18.46752
G1 X146.000 Y104.400 E18.47131
G1 X146.000 Y104.286 E18.47510
G1 X146.000 Y104.171 E18.47889
G1 X146.000 Y104.057 E18.48268
G1 X146.000 Y103.943 E18.48648
G1 X146.000 Y103.829 E18.49027
G1 X146.000 Y103.714 E18.49406
G1 X146.000 Y103.600 E18.49785
G1 X146.000 Y103.486 E18.50164
G1 X146.000 Y103.371 E18.50543
G1 X146.000 Y103.257 E18.50923
G1 X146.000 Y103.143 E18.51302
G1 X146.000 Y103.029 E18.51681
G1 X146.000 Y102.914 E18.52060
G1 X146.000 Y102.800 E18.52439
G1 X146.000 Y102.686 E18.52819
G1 X146.000 Y102.571 E18.53198
G1 X146.000 Y102.457 E18.53577
G1 X146.000 Y102.343 E18.53956
G1 X146.000 Y102.229 E18.54335
G1 X146.000 Y102.114 E18.54714
G1 X146.000 Y102.000 E18.55094
G1 X146.000 Y101.886 E18.55473
G1 X146.000 Y101.771 E18.55852
G1 X146.000 Y101.657 E18.56231
G1 X146.000 Y101.543 E18.56611
G1 X146.000 Y101.429 E18.56990
G1 X146.000 Y101.314 E18.57369
G1 X146.000 Y101.200 E18.57748
G1 X146.000 Y101.086 E18.58128
G1 X146.000 Y100.971 E18.58507
G1 X146.000 Y100.857 E18.58887
G1 X146.000 Y100.743 E18.59266
G1 X146.000 Y100.629 E18.59645
G1 X146.000 Y100.514 E18.60025
G1 X146.000 Y100.400 E18.60404
G1 X146.000 Y100.286 E18.60783
G1 X146.000 Y100.171 E18.61163
G1 X146.000 Y100.057 E18.61542
G1 X146.000 Y99.943 E18.61922
G1 X146.000 Y99.829 E18.62301
G1 X146.000 Y99.714 E18.62680
G1 X146.000 Y99.600 E18.63060
G1 X146.000 Y99.486 E18.63439
G1 X146.000 Y99.371 E18.63818
G1 X146.000 Y99.257 E18.64198
G1 X146.000 Y99.143 E18.64577
G1 X146.000 Y99.029 E18.64957
G1 X146.000 Y98.914 E18.65336
G1 X146.000 Y98.800 E18.65715
G1 X146.000 Y98.686 E18.66095
G1 X146.000 Y98.571 E18.66474
G1 X146.000 Y98.457 E18.66854
G1 X146.000 Y98.343 E18.67233
G1 X146.000 Y98.229 E18.67613
G1 X146.000 Y98.114 E18.67992
G1 X146.000 Y98.000 E18.68372
G1 X146.000 Y97.886 E18.68751
G1 X146.000 Y97.771 E18.69131
G1 X146.000 Y97.657 E18.69510
G1 X146.000 Y97.543 E18.69890
G1 X146.000 Y97.429 E18.70269
G1 X146.000 Y97.314 E18.70649
G1 X146.000 Y97.200 E18.71029
G1 X146.000 Y97.086 E18.71408
G1 X146.000 Y96.971 E18.71788
G1 X146.000 Y96.857 E18.72167
G1 X146.000 Y96.743 E18.72547
G1 X146.000 Y96.629 E18.72926
G1 X146.000 Y96.514 E18.73306
G1 X146.000 Y96.400 E18.73686
G1 X146.000 Y96.286 E18.74065
G1 X146.000 Y96.171 E18.74445
G1 X146.000 Y96.057 E18.74824
G1 X146.000 Y95.943 E18.75204
G1 X146.000 Y95.829 E18.75583
G1 X146.000 Y95.714 E18.75963
G1 X146.000 Y95.600 E18.76342
G1 X146.000 Y95.486 E18.76722
G1 X146.000 Y95.371 E18.77102
G1 X146.000 Y95.257 E18.77482
G1 X146.000 Y95.143 E18.77861
G1 X146.000 Y95.029 E18.78241
G1 X146.000 Y94.914 E18.78621
G1 X146.000 Y94.800 E18.79001
G1 X146.000 Y94.686 E18.79380
G1 X146.000 Y94.571 E18.79760
G1 X146.000 Y94.457 E18.80140
G1 X146.000 Y94.343 E18.80520
G1 X146.000 Y94.229 E18.80899
G1 X146.000 Y94.114 E18.81279
G1 X146.000 Y94.000 E18.81659
G1 X146.000 Y93.886 E18.82039
G1 X146.000 Y93.771 E18.82418
G1 X146.000 Y93.657 E18.82798
G1 X146.000 Y93.543 E18.83178
G1 X146.000 Y93.429 E18.83558
G1 X146.000 Y93.314 E18.83937
G1 X146.000 Y93.200 E18.84317
G1 X146.000 Y93.086 E18.84697
G1 X146.000 Y92.971 E18.85077
G1 X146.000 Y92.857 E18.85456
G1 X146.000 Y92.743 E18.85836
G1 X146.000 Y92.629 E18.86216
G1 X146.000 Y92.514 E18.86596
G1 X146.000 Y92.400 E18.86976
G1 X146.000 Y92.286 E18.87355
G1 X146.000 Y92.171 E18.87735
G1 X146.000 Y92.057 E18.88115
G1 X146.000 Y91.943 E18.88495
G1 X146.000 Y91.829 E18.88875
G1 X146.000 Y91.714 E18.89255
G1 X146.000 Y91.600 E18.89635
G1 X146.000 Y91.486 E18.90015
G1 X146.000 Y91.371 E18.90395
G1 X146.000 Y91.257 E18.90775
G1 X146.000 Y91.143 E18.91155
G1 X146.000 Y91.029 E18.91535
G1 X146.000 Y90.914 E18.91915
G1 X146.000 Y90.800 E18.92295
G1 X146.000 Y90.686 E18.92675
G1 X146.000 Y90.571 E18.93055
G1 X146.000 Y90.457 E18.93435
G1 X146.000 Y90.343 E18.93815
G1 X146.000 Y90.229 E18.94194
G1 X146.000 Y90.114 E18.94574
G1 X146.000 Y90.000 E18.94954
G1 X146.000 Y89.886 E18.95334
G1 X146.000 Y89.771 E18.95714
G1 X146.000 Y89.657 E18.96094
G1 X146.000 Y89.543 E18.96474
G1 X146.000 Y89.429 E18.96854
G1 X146.000 Y89.314 E18.97234
G1 X146.000 Y89.200 E18.97614
G1 X146.000 Y89.086 E18.97994
G1 X146.000 Y88.971 E18.98375
G1 X146.000 Y88.857 E18.98755
G1 X146.000 Y88.743 E18.99135
G1 X146.000 Y88.629 E18.99515
G1 X146.000 Y88.514 E18.99895
G1 X146.000 Y88.400 E19.00275
G1 X146.000 Y88.286 E19.00655
G1 X146.000 Y88.171 E19.01036
G1 X146.000 Y88.057 E19.01416
G1 X146.000 Y87.943 E19.01796
G1 X146.000 Y87.829 E19.02176
G1 X146.000 Y87.714 E19.02556
G1 X146.000 Y87.600 E19.02936
G1 X146.000 Y87.486 E19.03316
G1 X146.000 Y87.371 E19.03697
G1 X146.000 Y87.257 E19.04077
G1 X146.000 Y87.143 E19.04457
G1 X146.000 Y87.029 E19.04837
G1 X146.000 Y86.914 E19.05217
G1 X146.000 Y86.800 E19.05597
G1 X146.000 Y86.686 E19.05977
G1 X146.000 Y86.571 E19.06357
G1 X146.000 Y86.457 E19.06738
G1 X146.000 Y86.343 E19.07118
G1 X146.000 Y86.229 E19.07498
G1 X146.000 Y86.114 E19.07879
G1 X146.000 Y86.000 E19.08259
G1 X146.000 Y85.886 E19.08639
G1 X146.000 Y85.771 E19.09020
G1 X146.000 Y85.657 E19.09400
G1 X146.000 Y85.543 E19.09780
G1 X146.000 Y85.429 E19.10161
G1 X146.000 Y85.314 E19.10541
G1 X146.000 Y85.200 E19.10921
G1 X146.000 Y85.086 E19.11301
G1 X146.000 Y84.971 E19.11682
G1 X145.999 Y84.857 E19.12062
G1 X145.999 Y84.743 E19.12442
G1 X145.999 Y84.629 E19.12823
G1 X145.999 Y84.514 E19.13203
G1 X145.999 Y84.400 E19.13583
G1 X145.999 Y84.286 E19.13964
G1 X145.999 Y84.171 E19.14344
G1 X145.714 Y83.960 E19.15288
G1 X114.286 Y83.960 E19.98938
G1 X113.999 Y84.171 E20.00112
G1 X113.999 Y84.286 E20.00488
G1 X113.999 Y84.400 E20.00865
G1 X113.999 Y84.514 E20.01241
G1 X113.999 Y84.629 E20.01618
G1 X113.999 Y84.743 E20.01994
G1 X113.999 Y84.857 E20.02371
G1 X113.999 Y84.971 E20.02747
G1 X113.999 Y85.086 E20.03124
G1 X113.999 Y85.200 E20.03500
G1 X113.999 Y85.314 E20.03877
G1 X113.999 Y85.429 E20.04254
G1 X113.999 Y85.543 E20.04630
G1 X113.999 Y85.657 E20.05007
G1 X113.999 Y85.771 E20.05384
G1 X113.999 Y85.886 E20.05760
G1 X113.999 Y86.000 E20.06137
G1 X113.999 Y86.114 E20.06514
G1 X113.999 Y86.229 E20.06891
G1 X113.999 Y86.343 E20.07267
G1 X113.999 Y86.457 E20.07644
G1 X113.999 Y86.571 E20.08021
G1 X113.999 Y86.686 E20.08397
G1 X113.999 Y86.800 E20.08774
G1 X113.999 Y86.914 E20.09151
G1 X113.999 Y87.029 E20.09527
G1 X113.999 Y87.143 E20.09904
G1 X113.999 Y87.257 E20.10281
G1 X113.999 Y87.371 E20.10658
G1 X113.999 Y87.486 E20.11034
G1 X113.999 Y87.600 E20.11411
G1 X113.999 Y87.714 E20.11788
G1 X113.999 Y87.829 E20.12164
G1 X113.999 Y87.943 E20.12541
G1 X113.999 Y88.057 E20.12918
G1 X113.999 Y88.171 E20.13294
G1 X113.999 Y88.286 E20.13671
G1 X113.999 Y88.400 E20.14048
G1 X113.999 Y88.514 E20.14425
G1 X113.999 Y88.629 E20.14802
G1 X113.999 Y88.743 E20.15179
G1 X113.999 Y88.857 E20.15555
G1 X113.999 Y88.971 E20.15932
G1 X113.999 Y89.086 E20.16309
G1 X113.999 Y89.200 E20.16686
G1 X113.999 Y89.314 E20.17063
G1 X113.999 Y89.429 E20.17440
G1 X113.999 Y89.543 E20.17817
G1 X113.999 Y89.657 E20.18194
G1 X113.999 Y89.771 E20.18571
G1 X113.999 Y89.886 E20.18947
G1 X113.999 Y90.000 E20.19324
G1 X113.999 Y90.114 E20.19701
G1 X113.999 Y90.229 E20.20078
G1 X113.999 Y90.343 E20.20455
G1 X113.999 Y90.457 E20.20832
G1 X113.999 Y90.571 E20.21209
G1 X113.999 Y90.686 E20.21586
G1 X113.999 Y90.800 E20.21963
G1 X113.999 Y90.914 E20.22340
G1 X113.999 Y91.029 E20.22716
G1 X113.999 Y91.143 E20.23093
G1 X113.999 Y91.257 E20.23470
G1 X113.999 Y91.371 E20.23847
G1 X113.999 Y91.486 E20.24224
G1 X113.999 Y91.600 E20.24601
G1 X113.999 Y91.714 E20.24978
G1 X113.999 Y91.829 E20.25355
G1 X113.999 Y91.943 E20.25732
G1 X113.999 Y92.057 E20.26109
G1 X113.999 Y92.171 E20.26486
G1 X113.999 Y92.286 E20.26863
G1 X113.999 Y92.400 E20.27240
G1 X113.999 Y92.514 E20.27618
G1 X113.999 Y92.629 E20.27995
G1 X113.999 Y92.743 E20.28372
G1 X113.999 Y92.857 E20.28749
G1 X113.999 Y92.971 E20.29126
G1 X113.999 Y93.086 E20.29503
G1 X113.999 Y93.200 E20.29880
G1 X113.999 Y93.314 E20.30257
G1 X113.999 Y93.429 E20.30634
G1 X113.999 Y93.543 E20.31011
G1 X113.999 Y93.657 E20.31388
G1 X113.999 Y93.771 E20.31765
G1 X113.999 Y93.886 E20.32143
G1 X113.999 Y94.000 E20.32520
G1 X113.999 Y94.114 E20.32897
G1 X113.999 Y94.229 E20.33274
G1 X113.999 Y94.343 E20.33651
G1 X113.999 Y94.457 E20.34028
G1 X113.999 Y94.571 E20.34405
G1 X113.999 Y94.686 E20.34782
G1 X113.999 Y94.800 E20.35160
G1 X113.999 Y94.914 E20.35537
G1 X113.999 Y95.029 E20.35914
G1 X113.999 Y95.143 E20.36291
G1 X113.999 Y95.257 E20.36669
G1 X113.999 Y95.371 E20.37046
G1 X113.999 Y95.486 E20.37423
G1 X113.999 Y95.600 E20.37800
G1 X113.999 Y95.714 E20.38178
G1 X113.999 Y95.829 E20.38555
G1 X113.999 Y95.943 E20.38932
G1 X113.999 Y96.057 E20.39310
G1 X113.999 Y96.171 E20.39687
G1 X113.999 Y96.286 E20.40064
G1 X113.999 Y96.400 E20.40441
G1 X113.999 Y96.514 E20.40819
G1 X113.999 Y96.629 E20.41196
G1 X113.999 Y96.743 E20.41573
G1 X113.999 Y96.857 E20.41950
G1 X113.999 Y96.971 E20.42328
G1 X113.999 Y97.086 E20.42705
G1 X113.999 Y97.200 E20.43082
G1 X113.999 Y97.314 E20.43460
G1 X113.999 Y97.429 E20.43837
G1 X113.999 Y97.543 E20.44214
G1 X113.999 Y97.657 E20.44592
G1 X113.999 Y97.771 E20.44969
G1 X113.999 Y97.886 E20.45346
G1 X113.999 Y98.000 E20.45724
G1 X113.999 Y98.114 E20.46101
G1 X113.999 Y98.229 E20.46479
G1 X113.999 Y98.343 E20.46856
G1 X113.999 Y98.457 E20.47234
G1 X113.999 Y98.571 E20.47611
G1 X113.999 Y98.686 E20.47989
G1 X113.999 Y98.800 E20.48366
G1 X113.999 Y98.914 E20.48744
G1 X113.999 Y99.029 E20.49121
G1 X113.999 Y99.143 E20.49498
G1 X113.999 Y99.257 E20.49876
G1 X113.999 Y99.371 E20.50253
G1 X113.999 Y99.486 E20.50631
G1 X113.999 Y99.600 E20.51008
G1 X113.999 Y99.714 E20.51386
G1 X113.999 Y99.829 E20.51763
G1 X113.999 Y99.943 E20.52141
G1 X113.999 Y100.057 E20.52518
G1 X113.999 Y100.171 E20.52896
G1 X113.999 Y100.286 E20.53273
G1 X113.999 Y100.400 E20.53651
G1 X113.999 Y100.514 E20.54028
G1 X113.999 Y100.629 E20.54405
G1 X113.999 Y100.743 E20.54783
G1 X113.999 Y100.857 E20.55161
G1 X113.999 Y100.971 E20.55538
G1 X113.999 Y101.086 E20.55916
G1 X113.999 Y101.200 E20.56294
G1 X113.999 Y101.314 E20.56671
G1 X113.999 Y101.429 E20.57049
G1 X113.999 Y101.543 E20.57427
G1 X113.999 Y101.657 E20.57804
G1 X113.999 Y101.771 E20.58182
G1 X113.999 Y101.886 E20.58559
G1 X113.999 Y102.000 E20.58937
G1 X113.999 Y102.114 E20.59315
G1 X113.999 Y102.229 E20.59692
G1 X113.999 Y102.343 E20.60070
G1 X113.999 Y102.457 E20.60448
G1 X113.999 Y102.571 E20.60825
G1 X113.999 Y102.686 E20.61203
G1 X113.999 Y102.800 E20.61581
G1 X113.999 Y102.914 E20.61958
G1 X113.999 Y103.029 E20.62336
G1 X113.999 Y103.143 E20.62714
G1 X113.999 Y103.257 E20.63091
G1 X113.999 Y103.371 E20.63469
G1 X113.999 Y103.486 E20.63847
G1 X113.999 Y103.600 E20.64224
G1 X113.999 Y103.714 E20.64602
G1 X113.999 Y103.829 E20.64980
G1 X113.999 Y103.943 E20.65357
G1 X113.999 Y104.057 E20.65735
G1 X113.999 Y104.171 E20.66113
G1 X113.999 Y104.286 E20.66491
G1 X113.999 Y104.400 E20.66869
G1 X113.999 Y104.514 E20.67246
G1 X113.999 Y104.629 E20.67624
G1 X113.999 Y104.743 E20.68002
G1 X113.999 Y104.857 E20.68380
G1 X113.999 Y104.971 E20.68758
G1 X113.999 Y105.086 E20.69136
G1 X113.999 Y105.200 E20.69514
G1 X113.999 Y105.314 E20.69891
G1 X113.999 Y105.429 E20.70269
G1 X113.999 Y105.543 E20.70647
G1 X113.999 Y105.657 E20.71025
G1 X113.999 Y105.771 E20.71403
G1 X113.999 Y105.886 E20.71781
G1 X113.999 Y106.000 E20.72158
G1 X113.999 Y106.114 E20.72536
G1 X113.999 Y106.229 E20.72914
G1 X113.999 Y106.343 E20.73292
G1 X113.999 Y106.457 E20.73670
G1 X113.999 Y106.571 E20.74048
G1 X113.999 Y106.686 E20.74426
G1 X113.999 Y106.800 E20.74803
G1 X113.999 Y106.914 E20.75181
G1 X113.999 Y107.029 E20.75559
G1 X113.999 Y107.143 E20.75937
G1 X113.999 Y107.257 E20.76315
G1 X113.999 Y107.371 E20.76693
G1 X113.999 Y107.486 E20.77071
G1 X113.999 Y107.600 E20.77449
G1 X113.999 Y107.714 E20.77827
G1 X113.999 Y107.829 E20.78205
G1 X113.999 Y107.943 E20.78583
G1 X113.999 Y108.057 E20.78961
G1 X113.999 Y108.171 E20.79339
G1 X113.999 Y108.286 E20.79718
G1 X113.999 Y108.400 E20.80096
G1 X113.999 Y108.514 E20.80474
G1 X113.999 Y108.629 E20.80852
G1 X113.999 Y108.743 E20.81230
G1 X113.999 Y108.857 E20.81608
G1 X113.999 Y108.971 E20.81986
G1 X113.999 Y109.086 E20.82364
G1 X113.999 Y109.200 E20.82742
G1 X113.999 Y109.314 E20.83120
G1 X113.999 Y109.429 E20.83498
G1 X113.999 Y109.543 E20.83876
G1 X113.999 Y109.657 E20.84254
G1 X113.999 Y109.771 E20.84632
G1 X113.999 Y109.886 E20.85010
G1 X113.999 Y110.000 E20.85388
G1 X113.999 Y110.114 E20.85766
G1 X113.999 Y110.229 E20.86144
G1 X113.999 Y110.343 E20.86523
G1 X113.999 Y110.457 E20.86901
G1 X113.999 Y110.571 E20.87279
G1 X113.999 Y110.686 E20.87657
G1 X113.999 Y110.800 E20.88035
G1 X113.999 Y110.914 E20.88414
G1 X113.999 Y111.029 E20.88792
G1 X113.999 Y111.143 E20.89170
G1 X113.999 Y111.257 E20.89548
G1 X113.999 Y111.371 E20.89927
G1 X113.999 Y111.486 E20.90305
G1 X113.999 Y111.600 E20.90683
G1 X113.999 Y111.714 E20.91061
G1 X113.999 Y111.829 E20.91440
G1 X113.999 Y111.943 E20.91818
G1 X113.999 Y112.057 E20.92196
G1 X113.999 Y112.171 E20.92574
G1 X113.999 Y112.286 E20.92952
G1 X113.999 Y112.400 E20.93331
G1 X113.999 Y112.514 E20.93709
G1 X113.999 Y112.629 E20.94087
G1 X113.999 Y112.743 E20.94465
G1 X113.999 Y112.857 E20.94844
G1 X113.999 Y112.971 E20.95222
G1 X113.999 Y113.086 E20.95600
G1 X113.999 Y113.200 E20.95978
G1 X113.999 Y113.314 E20.96357
G1 X113.999 Y113.429 E20.96735
G1 X113.999 Y113.543 E20.97113
G1 X113.999 Y113.657 E20.97492
G1 X113.999 Y113.771 E20.97870
G1 X113.999 Y113.886 E20.98249
G1 X113.999 Y114.000 E20.98627
G1 X113.999 Y114.114 E20.99005
G1 X113.999 Y114.229 E20.99384
G1 X113.999 Y114.343 E20.99762
G1 X114.000 Y114.457 E21.00141
G1 X114.000 Y114.571 E21.00519
G1 X114.000 Y114.686 E21.00898
G1 X114.000 Y114.800 E21.01276
G1 X114.000 Y114.914 E21.01654
G1 X114.000 Y115.029 E21.02033
G1 X114.000 Y115.143 E21.02411
G1 X114.000 Y115.257 E21.02790
G1 X114.000 Y115.371 E21.03168
G1 X114.000 Y115.486 E21.03546
G1 X114.000 Y115.600 E21.03925
G1 X114.000 Y115.714 E21.04303
G0 X113.961 Y116.039 F7200
;segType:HShell
G0 X113.961 Y116.039 F7200
G0 F3000 E20.04303
G0 X113.813 Y116.800 F7200
G0 X114.798 Y111.725
G0 X114.797 Y84.720
G0 X117.596 Y87.598
G0 X119.414 Y87.959
G0 F3000 E21.04303
;segType:Infill
G1 X117.956 Y89.417 E21.12535 F4500
G0 X118.296 Y87.598 F7200
;segType:Loop
G1 X142.401 Y87.598 E21.92709 F3600
G1 X142.401 Y112.404 E22.75211
G1 X117.596 Y112.404 E23.57712
G1 X117.596 Y87.598 E24.40214
G1 X118.096 Y87.598 E24.41877
G0 X118.096 Y87.598 F7200
G0 X117.596 Y87.730
G0 X117.411 Y87.778
;segType:Perimeter
G1 X117.256 Y87.198 E24.43873 F2159
G1 X142.801 Y87.198 E25.28836
G1 X142.801 Y112.804 E26.13999
G1 X117.196 Y112.804 E26.99162
G1 X117.196 Y87.258 E27.84125
G0 X117.968 Y87.466 F7200
G0 F3000 E26.84125
G0 X117.596 Y87.598 F7200
G0 X123.939 Y87.959
G0 F3000 E27.84125
;segType:Infill
G1 X117.956 Y93.942 E28.17900 F4500
G0 X117.956 Y98.468 F7200
G1 X128.465 Y87.959 E28.77220 F4500
G0 X137.516 Y87.959 F7200
G1 X117.956 Y107.519 E29.87626 F4500
G0 X122.482 Y112.043 F7200
G1 X142.040 Y92.485 E30.98022 F4500
G0 X142.040 Y97.011 F7200
G1 X127.008 Y112.043 E31.82874 F4500
G0 X131.533 Y112.043 F7200
G1 X142.040 Y101.536 E32.42182 F4500
G0 X142.040 Y106.061 F7200
G1 X136.059 Y112.043 E32.75947 F4500
G0 X140.584 Y112.043 F7200
G1 X142.040 Y110.587 E32.84168 F4500
G0 F3000 E31.84168
G0 X142.401 Y110.565 F7200
G0 X117.596 Y112.065
G0 X117.957 Y112.043
G0 F3000 E32.84168
G1 X142.040 Y87.960 E34.20107 F4500
G0 F3000 E33.20107
G0 X132.990 Y87.959 F7200
G0 F3000 E34.20107
G1 X117.956 Y102.993 E35.04970 F4500
; ------------------------------------
; Layer #6
; ------------------------------------
G92 E0 ;reset extr
G0 F3000 E-1.00000
G0 F600 Z1.400
G0 X142.040 Y111.837 F7200
G0 F3000 E0.00000
;segType:Infill
G1 X118.162 Y87.959 E1.34778 F4500
G0 X117.411 Y87.778 F7200
;segType:Perimeter
G1 X117.256 Y87.198 E1.36773 F2159
G1 X142.801 Y87.198 E2.21737
G1 X142.801 Y112.804 E3.06899
G1 X117.196 Y112.804 E3.92062
G1 X117.196 Y87.258 E4.77025
G0 X117.968 Y87.466 F7200
G0 X118.296 Y87.598
;segType:Loop
G1 X142.401 Y87.598 E5.57199 F3600
G1 X142.401 Y112.404 E6.39701
G1 X117.596 Y112.404 E7.22203
G1 X117.596 Y87.598 E8.04705
G1 X118.096 Y87.598 E8.06368
G0 F3000 E7.06368
G0 X122.688 Y87.959 F7200
G0 F3000 E8.06368
;segType:Infill
G1 X142.040 Y107.311 E9.15602 F4500
G0 X142.040 Y102.786 F7200
G1 X127.213 Y87.959 E9.99292 F4500
G0 X140.790 Y87.959 F7200
G1 X142.040 Y89.209 E10.06351 F4500
G0 X142.040 Y93.735 F7200
G1 X136.264 Y87.959 E10.38954 F4500
G0 X131.739 Y87.959 F7200
G1 X142.040 Y98.260 E10.97101 F4500
G0 F3000 E9.97100
G0 X137.722 Y112.043 F7200
G0 F3000 E10.97101
G1 X117.956 Y92.277 E12.08669 F4500
G0 X117.956 Y96.803 F7200
G1 X133.196 Y112.043 E12.94694 F4500
G0 X119.620 Y112.043 F7200
G1 X117.956 Y110.379 E13.04087 F4500
G0 X117.956 Y105.854 F7200
G1 X124.145 Y112.043 E13.39024 F4500
G0 X128.671 Y112.043 F7200
G1 X117.956 Y101.328 E13.99505 F4500
G0 F3000 E12.99505
G0 X117.596 Y87.598 F7200
G0 X115.224 Y84.720
G0 X113.971 Y83.200
G0 X114.300 Y83.600
G0 F3000 E13.99505
;segType:Loop
G1 X146.400 Y83.600 E15.06268 F3600
G1 X146.400 Y116.400 E16.15358
G1 X113.600 Y116.400 E17.24449
G1 X113.600 Y83.600 E18.33540
G1 X114.100 Y83.600 E18.35203
G0 X113.416 Y83.780 F7200
;segType:Perimeter
G1 X113.260 Y83.200 E18.37198 F2159
G1 X146.800 Y83.200 E19.48750
G1 X146.800 Y116.800 E20.60502
G1 X113.200 Y116.800 E21.72253
G1 X113.200 Y83.260 E22.83805
G0 X113.973 Y83.467 F7200
G0 F3000 E21.83805
G0 X113.709 Y83.200 F7200
G0 X115.215 Y84.720
G0 X145.199 Y84.720
G0 X145.201 Y114.990
G0 X146.039 Y115.836
G0 F3000 E22.83805
;segType:HShell
G0 X146.036 Y115.832 F7200
;segType:Infill
G1 X146.039 Y115.836 E22.83824 F4500
G0 X144.101 Y115.602 F7200
;segType:Loop
G1 X114.399 Y115.602 E23.82616 F3600
G1 X114.397 Y84.320 E24.86660
G1 X145.599 Y84.320 E25.90440
G1 X145.601 Y115.602 E26.94484
G1 X144.301 Y115.602 E26.98808
G0 X145.141 Y115.202 F7200
;segType:Perimeter
G1 X114.799 Y115.202 E27.99729 F2159
G1 X114.797 Y84.720 E29.01112
G1 X145.199 Y84.720 E30.02230
G1 X145.201 Y115.142 E31.03413
G0 X145.201 Y115.942 F7200
G0 F3000 E30.03413
G0 X145.714 Y83.960 F7200
G0 F3000 E31.03413
;segType:InnerHair
G1 X114.286 Y83.960 E31.87063 F3600
G1 X113.999 Y84.171 E31.88237
G1 X113.999 Y84.286 E31.88613
G1 X113.999 Y84.400 E31.88990
G1 X113.999 Y84.514 E31.89366
G1 X113.999 Y84.629 E31.89743
G1 X113.999 Y84.743 E31.90119
G1 X113.999 Y84.857 E31.90496
G1 X113.999 Y84.971 E31.90873
G1 X113.999 Y85.086 E31.91249
G1 X113.999 Y85.200 E31.91626
G1 X113.999 Y85.314 E31.92002
G1 X113.999 Y85.429 E31.92379
G1 X113.999 Y85.543 E31.92755
G1 X113.999 Y85.657 E31.93132
G1 X113.999 Y85.771 E31.93509
G1 X113.999 Y85.886 E31.93886
G1 X113.999 Y86.000 E31.94262
G1 X113.999 Y86.114 E31.94639
G1 X113.999 Y86.229 E31.95016
G1 X113.999 Y86.343 E31.95392
G1 X113.999 Y86.457 E31.95769
G1 X113.999 Y86.571 E31.96146
G1 X113.999 Y86.686 E31.96522
G1 X113.999 Y86.800 E31.96899
G1 X113.999 Y86.914 E31.97276
G1 X113.999 Y87.029 E31.97653
G1 X113.999 Y87.143 E31.98029
G1 X113.999 Y87.257 E31.98406
G1 X113.999 Y87.371 E31.98783
G1 X113.999 Y87.486 E31.99159
G1 X113.999 Y87.600 E31.99536
G1 X113.999 Y87.714 E31.99913
G1 X113.999 Y87.829 E32.00290
G1 X113.999 Y87.943 E32.00667
G1 X113.999 Y88.057 E32.01043
G1 X113.999 Y88.171 E32.01420
G1 X113.999 Y88.286 E32.01797
G1 X113.999 Y88.400 E32.02174
G1 X113.999 Y88.514 E32.02551
G1 X113.999 Y88.629 E32.02928
G1 X113.999 Y88.743 E32.03305
G1 X113.999 Y88.857 E32.03682
G1 X113.999 Y88.971 E32.04059
G1 X113.999 Y89.086 E32.04435
G1 X113.999 Y89.200 E32.04812
G1 X113.999 Y89.314 E32.05189
G1 X113.999 Y89.429 E32.05566
G1 X113.999 Y89.543 E32.05943
G1 X113.999 Y89.657 E32.06320
G1 X113.999 Y89.771 E32.06697
G1 X113.999 Y89.886 E32.07074
G1 X113.999 Y90.000 E32.07451
G1 X113.999 Y90.114 E32.07828
G1 X113.999 Y90.229 E32.08204
G1 X113.999 Y90.343 E32.08581
G1 X113.999 Y90.457 E32.08958
G1 X113.999 Y90.571 E32.09335
G1 X113.999 Y90.686 E32.09712
G1 X113.999 Y90.800 E32.10089
G1 X113.999 Y90.914 E32.10466
G1 X113.999 Y91.029 E32.10843
G1 X113.999 Y91.143 E32.11220
G1 X113.999 Y91.257 E32.11596
G1 X113.999 Y91.371 E32.11973
G1 X113.999 Y91.486 E32.12350
G1 X113.999 Y91.600 E32.12727
G1 X113.999 Y91.714 E32.13104
G1 X113.999 Y91.829 E32.13481
G1 X113.999 Y91.943 E32.13858
G1 X113.999 Y92.057 E32.14235
G1 X113.999 Y92.171 E32.14612
G1 X113.999 Y92.286 E32.14988
G1 X113.999 Y92.400 E32.15365
G1 X113.999 Y92.514 E32.15742
G1 X113.999 Y92.629 E32.16119
G1 X113.999 Y92.743 E32.16496
G1 X113.999 Y92.857 E32.16873
G1 X113.999 Y92.971 E32.17250
G1 X113.999 Y93.086 E32.17627
G1 X113.999 Y93.200 E32.18004
G1 X113.999 Y93.314 E32.18382
G1 X113.999 Y93.429 E32.18759
G1 X113.999 Y93.543 E32.19136
G1 X113.999 Y93.657 E32.19513
G1 X113.999 Y93.771 E32.19891
G1 X113.999 Y93.886 E32.20268
G1 X113.999 Y94.000 E32.20645
G1 X113.999 Y94.114 E32.21023
G1 X113.999 Y94.229 E32.21400
G1 X113.999 Y94.343 E32.21777
G1 X113.999 Y94.457 E32.22154
G1 X113.999 Y94.571 E32.22532
G1 X113.999 Y94.686 E32.22909
G1 X113.999 Y94.800 E32.23286
G1 X113.999 Y94.914 E32.23663
G1 X113.999 Y95.029 E32.24041
G1 X113.999 Y95.143 E32.24418
G1 X113.999 Y95.257 E32.24795
G1 X113.999 Y95.371 E32.25173
G1 X113.999 Y95.486 E32.25550
G1 X113.999 Y95.600 E32.25927
G1 X113.999 Y95.714 E32.26304
G1 X113.999 Y95.829 E32.26682
G1 X113.999 Y95.943 E32.27059
G1 X113.999 Y96.057 E32.27436
G1 X113.999 Y96.171 E32.27813
G1 X113.999 Y96.286 E32.28191
G1 X113.999 Y96.400 E32.28568
G1 X113.999 Y96.514 E32.28945
G1 X113.999 Y96.629 E32.29323
G1 X113.999 Y96.743 E32.29700
G1 X113.999 Y96.857 E32.30077
G1 X113.999 Y96.971 E32.30454
G1 X113.999 Y97.086 E32.30832
G1 X113.999 Y97.200 E32.31209
G1 X113.999 Y97.314 E32.31586
G1 X113.999 Y97.429 E32.31963
G1 X113.999 Y97.543 E32.32341
G1 X113.999 Y97.657 E32.32718
G1 X113.999 Y97.771 E32.33095
G1 X113.999 Y97.886 E32.33473
G1 X113.999 Y98.000 E32.33850
G1 X113.999 Y98.114 E32.34227
G1 X113.999 Y98.229 E32.34604
G1 X113.999 Y98.343 E32.34982
G1 X113.999 Y98.457 E32.35359
G1 X113.999 Y98.571 E32.35736
G1 X113.999 Y98.686 E32.36113
G1 X113.999 Y98.800 E32.36491
G1 X113.999 Y98.914 E32.36868
G1 X113.999 Y99.029 E32.37245
G1 X113.999 Y99.143 E32.37623
G1 X113.999 Y99.257 E32.38000
G1 X113.999 Y99.371 E32.38378
G1 X113.999 Y99.486 E32.38756
G1 X113.999 Y99.600 E32.39133
G1 X113.999 Y99.714 E32.39511
G1 X113.999 Y99.829 E32.39889
G1 X113.999 Y99.943 E32.40266
G1 X113.999 Y100.057 E32.40644
G1 X113.999 Y100.171 E32.41021
G1 X113.999 Y100.286 E32.41399
G1 X113.999 Y100.400 E32.41777
G1 X113.999 Y100.514 E32.42154
G1 X113.999 Y100.629 E32.42532
G1 X113.999 Y100.743 E32.42910
G1 X113.999 Y100.857 E32.43287
G1 X113.999 Y100.971 E32.43665
G1 X113.999 Y101.086 E32.44043
G1 X113.999 Y101.200 E32.44420
G1 X113.999 Y101.314 E32.44798
G1 X113.999 Y101.429 E32.45176
G1 X113.999 Y101.543 E32.45553
G1 X113.999 Y101.657 E32.45931
G1 X113.999 Y101.771 E32.46309
G1 X113.999 Y101.886 E32.46686
G1 X113.999 Y102.000 E32.47064
G1 X113.999 Y102.114 E32.47442
G1 X113.999 Y102.229 E32.47819
G1 X113.999 Y102.343 E32.48197
G1 X113.999 Y102.457 E32.48575
G1 X113.999 Y102.571 E32.48952
G1 X113.999 Y102.686 E32.49330
G1 X113.999 Y102.800 E32.49708
G1 X113.999 Y102.914 E32.50085
G1 X113.999 Y103.029 E32.50463
G1 X113.999 Y103.143 E32.50841
G1 X113.999 Y103.257 E32.51218
G1 X113.999 Y103.371 E32.51596
G1 X113.999 Y103.486 E32.51973
G1 X113.999 Y103.600 E32.52351
G1 X113.999 Y103.714 E32.52729
G1 X113.999 Y103.829 E32.53106
G1 X113.999 Y103.943 E32.53484
G1 X113.999 Y104.057 E32.53862
G1 X113.999 Y104.171 E32.54239
G1 X113.999 Y104.286 E32.54617
G1 X113.999 Y104.400 E32.54995
G1 X113.999 Y104.514 E32.55372
G1 X113.999 Y104.629 E32.55750
G1 X113.999 Y104.743 E32.56128
G1 X113.999 Y104.857 E32.56505
G1 X113.999 Y104.971 E32.56883
G1 X113.999 Y105.086 E32.57261
G1 X113.999 Y105.200 E32.57638
G1 X113.999 Y105.314 E32.58016
G1 X113.999 Y105.429 E32.58394
G1 X113.999 Y105.543 E32.58772
G1 X113.999 Y105.657 E32.59150
G1 X113.999 Y105.771 E32.59527
G1 X113.999 Y105.886 E32.59905
G1 X113.999 Y106.000 E32.60283
G1 X113.999 Y106.114 E32.60661
G1 X113.999 Y106.229 E32.61039
G1 X113.999 Y106.343 E32.61418
G1 X113.999 Y106.457 E32.61796
G1 X113.999 Y106.571 E32.62174
G1 X113.999 Y106.686 E32.62552
G1 X113.999 Y106.800 E32.62930
G1 X113.999 Y106.914 E32.63308
G1 X113.999 Y107.029 E32.63686
G1 X113.999 Y107.143 E32.64064
G1 X113.999 Y107.257 E32.64442
G1 X113.999 Y107.371 E32.64820
G1 X113.999 Y107.486 E32.65198
G1 X113.999 Y107.600 E32.65576
G1 X113.999 Y107.714 E32.65954
G1 X113.999 Y107.829 E32.66332
G1 X113.999 Y107.943 E32.66710
G1 X113.999 Y108.057 E32.67088
G1 X113.999 Y108.171 E32.67466
G1 X113.999 Y108.286 E32.67844
G1 X113.999 Y108.400 E32.68222
G1 X113.999 Y108.514 E32.68600
G1 X113.999 Y108.629 E32.68978
G1 X113.999 Y108.743 E32.69356
G1 X113.999 Y108.857 E32.69734
G1 X113.999 Y108.971 E32.70112
G1 X113.999 Y109.086 E32.70490
G1 X113.999 Y109.200 E32.70868
G1 X113.999 Y109.314 E32.71246
G1 X113.999 Y109.429 E32.71624
G1 X113.999 Y109.543 E32.72003
G1 X113.999 Y109.657 E32.72381
G1 X113.999 Y109.771 E32.72759
G1 X113.999 Y109.886 E32.73137
G1 X113.999 Y110.000 E32.73515
G1 X113.999 Y110.114 E32.73893
G1 X113.999 Y110.229 E32.74271
G1 X113.999 Y110.343 E32.74649
G1 X113.999 Y110.457 E32.75027
G1 X113.999 Y110.571 E32.75405
G1 X113.999 Y110.686 E32.75783
G1 X113.999 Y110.800 E32.76161
G1 X113.999 Y110.914 E32.76539
G1 X113.999 Y111.029 E32.76917
G1 X113.999 Y111.143 E32.77295
G1 X113.999 Y111.257 E32.77673
G1 X113.999 Y111.371 E32.78051
G1 X113.999 Y111.486 E32.78429
G1 X113.999 Y111.600 E32.78807
G1 X113.999 Y111.714 E32.79186
G1 X113.999 Y111.829 E32.79564
G1 X113.999 Y111.943 E32.79942
G1 X113.999 Y112.057 E32.80320
G1 X113.999 Y112.171 E32.80699
G1 X113.999 Y112.286 E32.81077
G1 X113.999 Y112.400 E32.81456
G1 X113.999 Y112.514 E32.81834
G1 X113.999 Y112.629 E32.82213
G1 X113.999 Y112.743 E32.82591
G1 X113.999 Y112.857 E32.82969
G1 X113.999 Y112.971 E32.83348
G1 X113.999 Y113.086 E32.83726
G1 X113.999 Y113.200 E32.84105
G1 X113.999 Y113.314 E32.84483
G1 X113.999 Y113.429 E32.84861
G1 X113.999 Y113.543 E32.85240
G1 X113.999 Y113.657 E32.85618
G1 X113.999 Y113.771 E32.85997
G1 X113.999 Y113.886 E32.86375
G1 X113.999 Y114.000 E32.86754
G1 X113.999 Y114.114 E32.87132
G1 X113.999 Y114.229 E32.87510
G1 X113.999 Y114.343 E32.87889
G1 X114.000 Y114.457 E32.88267
G1 X114.000 Y114.571 E32.88646
G1 X114.000 Y114.686 E32.89024
G1 X114.000 Y114.800 E32.89403
G1 X114.000 Y114.914 E32.89781
G1 X114.000 Y115.029 E32.90159
G1 X114.000 Y115.143 E32.90538
G1 X114.000 Y115.257 E32.90916
G1 X114.000 Y115.371 E32.91295
G1 X114.000 Y115.486 E32.91673
G1 X114.000 Y115.600 E32.92051
G1 X114.000 Y115.714 E32.92430
G1 X114.286 Y116.001 E32.93768
G1 X145.714 Y116.001 E33.97580
G1 X146.001 Y115.714 E33.98922
G1 X146.001 Y115.600 E33.99300
G1 X146.001 Y115.486 E33.99679
G1 X146.001 Y115.371 E34.00057
G1 X146.001 Y115.257 E34.00435
G1 X146.001 Y115.143 E34.00814
G1 X146.000 Y115.029 E34.01192
G1 X146.000 Y114.914 E34.01571
G1 X146.000 Y114.800 E34.01949
G1 X146.000 Y114.686 E34.02327
G1 X146.000 Y114.571 E34.02706
G1 X146.000 Y114.457 E34.03084
G1 X146.000 Y114.343 E34.03463
G1 X146.000 Y114.229 E34.03841
G1 X146.000 Y114.114 E34.04220
G1 X146.000 Y114.000 E34.04598
G1 X146.000 Y113.886 E34.04976
G1 X146.000 Y113.771 E34.05355
G1 X146.000 Y113.657 E34.05733
G1 X146.000 Y113.543 E34.06112
G1 X146.000 Y113.429 E34.06490
G1 X146.000 Y113.314 E34.06868
G1 X146.000 Y113.200 E34.07247
G1 X146.000 Y113.086 E34.07625
G1 X146.000 Y112.971 E34.08004
G1 X146.000 Y112.857 E34.08382
G1 X146.000 Y112.743 E34.08761
G1 X146.000 Y112.629 E34.09139
G1 X146.000 Y112.514 E34.09517
G1 X146.000 Y112.400 E34.09896
G1 X146.000 Y112.286 E34.10274
G1 X146.000 Y112.171 E34.10653
G1 X146.000 Y112.057 E34.11031
G1 X146.000 Y111.943 E34.11410
G1 X146.000 Y111.829 E34.11789
G1 X146.000 Y111.714 E34.12167
G1 X146.000 Y111.600 E34.12546
G1 X146.000 Y111.486 E34.12925
G1 X146.000 Y111.371 E34.13304
G1 X146.000 Y111.257 E34.13682
G1 X146.000 Y111.143 E34.14061
G1 X146.000 Y111.029 E34.14440
G1 X146.000 Y110.914 E34.14819
G1 X146.000 Y110.800 E34.15197
G1 X146.000 Y110.686 E34.15576
G1 X146.000 Y110.571 E34.15955
G1 X146.000 Y110.457 E34.16334
G1 X146.000 Y110.343 E34.16713
G1 X146.000 Y110.229 E34.17091
G1 X146.000 Y110.114 E34.17470
G1 X146.000 Y110.000 E34.17849
G1 X146.000 Y109.886 E34.18228
G1 X146.000 Y109.771 E34.18607
G1 X146.000 Y109.657 E34.18985
G1 X146.000 Y109.543 E34.19364
G1 X146.000 Y109.429 E34.19743
G1 X146.000 Y109.314 E34.20122
G1 X146.000 Y109.200 E34.20501
G1 X146.000 Y109.086 E34.20879
G1 X146.000 Y108.971 E34.21258
G1 X146.000 Y108.857 E34.21637
G1 X146.000 Y108.743 E34.22016
G1 X146.000 Y108.629 E34.22395
G1 X146.000 Y108.514 E34.22773
G1 X146.000 Y108.400 E34.23152
G1 X146.000 Y108.286 E34.23531
G1 X146.000 Y108.171 E34.23910
G1 X146.000 Y108.057 E34.24289
G1 X146.000 Y107.943 E34.24667
G1 X146.000 Y107.829 E34.25046
G1 X146.000 Y107.714 E34.25425
G1 X146.000 Y107.600 E34.25804
G1 X146.000 Y107.486 E34.26183
G1 X146.000 Y107.371 E34.26561
G1 X146.000 Y107.257 E34.26940
G1 X146.000 Y107.143 E34.27319
G1 X146.000 Y107.029 E34.27698
G1 X146.000 Y106.914 E34.28077
G1 X146.000 Y106.800 E34.28455
G1 X146.000 Y106.686 E34.28834
G1 X146.000 Y106.571 E34.29213
G1 X146.000 Y106.457 E34.29592
G1 X146.000 Y106.343 E34.29971
G1 X146.000 Y106.229 E34.30349
G1 X146.000 Y106.114 E34.30728
G1 X146.000 Y106.000 E34.31107
G1 X146.000 Y105.886 E34.31487
G1 X146.000 Y105.771 E34.31866
G1 X146.000 Y105.657 E34.32245
G1 X146.000 Y105.543 E34.32624
G1 X146.000 Y105.429 E34.33003
G1 X146.000 Y105.314 E34.33383
G1 X146.000 Y105.200 E34.33762
G1 X146.000 Y105.086 E34.34141
G1 X146.000 Y104.971 E34.34520
G1 X146.000 Y104.857 E34.34899
G1 X146.000 Y104.743 E34.35278
G1 X146.000 Y104.629 E34.35658
G1 X146.000 Y104.514 E34.36037
G1 X146.000 Y104.400 E34.36416
G1 X146.000 Y104.286 E34.36795
G1 X146.000 Y104.171 E34.37174
G1 X146.000 Y104.057 E34.37554
G1 X146.000 Y103.943 E34.37933
G1 X146.000 Y103.829 E34.38312
G1 X146.000 Y103.714 E34.38691
G1 X146.000 Y103.600 E34.39070
G1 X146.000 Y103.486 E34.39449
G1 X146.000 Y103.371 E34.39829
G1 X146.000 Y103.257 E34.40208
G1 X146.000 Y103.143 E34.40587
G1 X146.000 Y103.029 E34.40966
G1 X146.000 Y102.914 E34.41345
G1 X146.000 Y102.800 E34.41725
G1 X146.000 Y102.686 E34.42104
G1 X146.000 Y102.571 E34.42483
G1 X146.000 Y102.457 E34.42862
G1 X146.000 Y102.343 E34.43241
G1 X146.000 Y102.229 E34.43620
G1 X146.000 Y102.114 E34.44000
G1 X146.000 Y102.000 E34.44379
G1 X146.000 Y101.886 E34.44758
G1 X146.000 Y101.771 E34.45137
G1 X146.000 Y101.657 E34.45516
G1 X146.000 Y101.543 E34.45896
G1 X146.000 Y101.429 E34.46275
G1 X146.000 Y101.314 E34.46654
G1 X146.000 Y101.200 E34.47033
G1 X146.000 Y101.086 E34.47412
G1 X146.000 Y100.971 E34.47791
G1 X146.000 Y100.857 E34.48171
G1 X146.000 Y100.743 E34.48550
G1 X146.000 Y100.629 E34.48929
G1 X146.000 Y100.514 E34.49308
G1 X146.000 Y100.400 E34.49687
G1 X146.000 Y100.286 E34.50067
G1 X146.000 Y100.171 E34.50446
G1 X146.000 Y100.057 E34.50825
G1 X146.000 Y99.943 E34.51204
G1 X146.000 Y99.829 E34.51584
G1 X146.000 Y99.714 E34.51963
G1 X146.000 Y99.600 E34.52343
G1 X146.000 Y99.486 E34.52722
G1 X146.000 Y99.371 E34.53102
G1 X146.000 Y99.257 E34.53481
G1 X146.000 Y99.143 E34.53861
G1 X146.000 Y99.029 E34.54241
G1 X146.000 Y98.914 E34.54620
G1 X146.000 Y98.800 E34.55000
G1 X146.000 Y98.686 E34.55379
G1 X146.000 Y98.571 E34.55759
G1 X146.000 Y98.457 E34.56138
G1 X146.000 Y98.343 E34.56518
G1 X146.000 Y98.229 E34.56897
G1 X146.000 Y98.114 E34.57277
G1 X146.000 Y98.000 E34.57657
G1 X146.000 Y97.886 E34.58036
G1 X146.000 Y97.771 E34.58416
G1 X146.000 Y97.657 E34.58795
G1 X146.000 Y97.543 E34.59175
G1 X146.000 Y97.429 E34.59554
G1 X146.000 Y97.314 E34.59934
G1 X146.000 Y97.200 E34.60314
G1 X146.000 Y97.086 E34.60693
G1 X146.000 Y96.971 E34.61073
G1 X146.000 Y96.857 E34.61452
G1 X146.000 Y96.743 E34.61832
G1 X146.000 Y96.629 E34.62211
G1 X146.000 Y96.514 E34.62591
G1 X146.000 Y96.400 E34.62970
G1 X146.000 Y96.286 E34.63350
G1 X146.000 Y96.171 E34.63730
G1 X146.000 Y96.057 E34.64109
G1 X146.000 Y95.943 E34.64489
G1 X146.000 Y95.829 E34.64868
G1 X146.000 Y95.714 E34.65248
G1 X146.000 Y95.600 E34.65627
G1 X146.000 Y95.486 E34.66007
G1 X146.000 Y95.371 E34.66387
G1 X146.000 Y95.257 E34.66766
G1 X146.000 Y95.143 E34.67146
G1 X146.000 Y95.029 E34.67525
G1 X146.000 Y94.914 E34.67905
G1 X146.000 Y94.800 E34.68284
G1 X146.000 Y94.686 E34.68664
G1 X146.000 Y94.571 E34.69043
G1 X146.000 Y94.457 E34.69423
G1 X146.000 Y94.343 E34.69803
G1 X146.000 Y94.229 E34.70182
G1 X146.000 Y94.114 E34.70562
G1 X146.000 Y94.000 E34.70942
G1 X146.000 Y93.886 E34.71322
G1 X146.000 Y93.771 E34.71702
G1 X146.000 Y93.657 E34.72081
G1 X146.000 Y93.543 E34.72461
G1 X146.000 Y93.429 E34.72841
G1 X146.000 Y93.314 E34.73221
G1 X146.000 Y93.200 E34.73601
G1 X146.000 Y93.086 E34.73981
G1 X146.000 Y92.971 E34.74361
G1 X146.000 Y92.857 E34.74741
G1 X146.000 Y92.743 E34.75121
G1 X146.000 Y92.629 E34.75501
G1 X146.000 Y92.514 E34.75881
G1 X146.000 Y92.400 E34.76261
G1 X146.000 Y92.286 E34.76640
G1 X146.000 Y92.171 E34.77020
G1 X146.000 Y92.057 E34.77400
G1 X146.000 Y91.943 E34.77780
G1 X146.000 Y91.829 E34.78160
G1 X146.000 Y91.714 E34.78540
G1 X146.000 Y91.600 E34.78920
G1 X146.000 Y91.486 E34.79300
G1 X146.000 Y91.371 E34.79680
G1 X146.000 Y91.257 E34.80060
G1 X146.000 Y91.143 E34.80440
G1 X146.000 Y91.029 E34.80820
G1 X146.000 Y90.914 E34.81200
G1 X146.000 Y90.800 E34.81580
G1 X146.000 Y90.686 E34.81960
G1 X146.000 Y90.571 E34.82340
G1 X146.000 Y90.457 E34.82720
G1 X146.000 Y90.343 E34.83099
G1 X146.000 Y90.229 E34.83479
G1 X146.000 Y90.114 E34.83859
G1 X146.000 Y90.000 E34.84239
G1 X146.000 Y89.886 E34.84619
G1 X146.000 Y89.771 E34.84999
G1 X146.000 Y89.657 E34.85379
G1 X146.000 Y89.543 E34.85759
G1 X146.000 Y89.429 E34.86139
G1 X146.000 Y89.314 E34.86519
G1 X146.000 Y89.200 E34.86899
G1 X146.000 Y89.086 E34.87279
G1 X146.000 Y88.971 E34.87659
G1 X146.000 Y88.857 E34.88039
G1 X146.000 Y88.743 E34.88419
G1 X146.000 Y88.629 E34.88799
G1 X146.000 Y88.514 E34.89179
G1 X146.000 Y88.400 E34.89559
G1 X146.000 Y88.286 E34.89938
G1 X146.000 Y88.171 E34.90318
G1 X146.000 Y88.057 E34.90698
G1 X146.000 Y87.943 E34.91079
G1 X146.000 Y87.829 E34.91459
G1 X146.000 Y87.714 E34.91839
G1 X146.000 Y87.600 E34.92220
G1 X146.000 Y87.486 E34.92600
G1 X146.000 Y87.371 E34.92980
G1 X146.000 Y87.257 E34.93361
G1 X146.000 Y87.143 E34.93741
G1 X146.000 Y87.029 E34.94121
G1 X146.000 Y86.914 E34.94502
G1 X146.000 Y86.800 E34.94882
G1 X146.000 Y86.686 E34.95262
G1 X146.000 Y86.571 E34.95643
G1 X146.000 Y86.457 E34.96023
G1 X146.000 Y86.343 E34.96403
G1 X146.000 Y86.229 E34.96784
G1 X146.000 Y86.114 E34.97164
G1 X146.000 Y86.000 E34.97544
G1 X146.000 Y85.886 E34.97925
G1 X146.000 Y85.771 E34.98305
G1 X146.000 Y85.657 E34.98685
G1 X146.000 Y85.543 E34.99066
G1 X146.000 Y85.429 E34.99446
G1 X146.000 Y85.314 E34.99826
G1 X146.000 Y85.200 E35.00207
G1 X146.000 Y85.086 E35.00587
G1 X146.000 Y84.971 E35.00967
G1 X145.999 Y84.857 E35.01347
G1 X145.999 Y84.743 E35.01728
G1 X145.999 Y84.629 E35.02108
G1 X145.999 Y84.514 E35.02488
G1 X145.999 Y84.400 E35.02869
G1 X145.999 Y84.286 E35.03249
G1 X145.999 Y84.171 E35.03629
; ------------------------------------
; Layer #7
; ------------------------------------
G92 E0 ;reset extr
G0 F3000 E-1.00000
G0 F600 Z1.600
G0 X114.300 Y83.600 F7200
G0 F3000 E0.00000
;segType:Loop
G1 X146.400 Y83.600 E1.06762 F3600
G1 X146.400 Y116.400 E2.15853
G1 X113.600 Y116.400 E3.24943
G1 X113.600 Y83.600 E4.34034
G1 X114.100 Y83.600 E4.35697
G0 X114.100 Y83.600 F7200
G0 X113.600 Y83.732
G0 X113.416 Y83.780
;segType:Perimeter
G1 X113.260 Y83.200 E4.37693 F2159
G1 X146.800 Y83.200 E5.49244
G1 X146.800 Y116.800 E6.60996
G1 X113.200 Y116.800 E7.72747
G1 X113.200 Y83.260 E8.84299
G0 X113.973 Y83.467 F7200
G0 F3000 E7.84299
G0 X114.103 Y83.600 F7200
G0 X114.805 Y84.320
G0 X114.397 Y84.320
G0 X114.399 Y115.602
G0 X145.325 Y115.602
G0 X146.103 Y116.400
G0 X145.714 Y116.001
G0 F3000 E8.84299
;segType:InnerHair
G1 X114.286 Y116.001 E9.88111 F3600
G1 X114.000 Y115.714 E9.89453
G1 X114.000 Y115.600 E9.89831
G1 X114.000 Y115.486 E9.90210
G1 X114.000 Y115.371 E9.90588
G1 X114.000 Y115.257 E9.90966
G1 X114.000 Y115.143 E9.91345
G1 X114.000 Y115.029 E9.91723
G1 X114.000 Y114.914 E9.92102
G1 X114.000 Y114.800 E9.92480
G1 X114.000 Y114.686 E9.92858
G1 X114.000 Y114.571 E9.93237
G1 X114.000 Y114.457 E9.93615
G1 X113.999 Y114.343 E9.93994
G1 X113.999 Y114.229 E9.94372
G1 X113.999 Y114.114 E9.94750
G1 X113.999 Y114.000 E9.95129
G1 X113.999 Y113.886 E9.95507
G1 X113.999 Y113.771 E9.95885
G1 X113.999 Y113.657 E9.96264
G1 X113.999 Y113.543 E9.96642
G1 X113.999 Y113.429 E9.97020
G1 X113.999 Y113.314 E9.97399
G1 X113.999 Y113.200 E9.97777
G1 X113.999 Y113.086 E9.98155
G1 X113.999 Y112.971 E9.98534
G1 X113.999 Y112.857 E9.98912
G1 X113.999 Y112.743 E9.99290
G1 X113.999 Y112.629 E9.99669
G1 X113.999 Y112.514 E10.00047
G1 X113.999 Y112.400 E10.00425
G1 X113.999 Y112.286 E10.00803
G1 X113.999 Y112.171 E10.01182
G1 X113.999 Y112.057 E10.01560
G1 X113.999 Y111.943 E10.01938
G1 X113.999 Y111.829 E10.02316
G1 X113.999 Y111.714 E10.02695
G1 X113.999 Y111.600 E10.03073
G1 X113.999 Y111.486 E10.03451
G1 X113.999 Y111.371 E10.03829
G1 X113.999 Y111.257 E10.04207
G1 X113.999 Y111.143 E10.04586
G1 X113.999 Y111.029 E10.04964
G1 X113.999 Y110.914 E10.05342
G1 X113.999 Y110.800 E10.05720
G1 X113.999 Y110.686 E10.06098
G1 X113.999 Y110.571 E10.06476
G1 X113.999 Y110.457 E10.06855
G1 X113.999 Y110.343 E10.07233
G1 X113.999 Y110.229 E10.07611
G1 X113.999 Y110.114 E10.07989
G1 X113.999 Y110.000 E10.08367
G1 X113.999 Y109.886 E10.08745
G1 X113.999 Y109.771 E10.09123
G1 X113.999 Y109.657 E10.09501
G1 X113.999 Y109.543 E10.09880
G1 X113.999 Y109.429 E10.10258
G1 X113.999 Y109.314 E10.10636
G1 X113.999 Y109.200 E10.11014
G1 X113.999 Y109.086 E10.11392
G1 X113.999 Y108.971 E10.11770
G1 X113.999 Y108.857 E10.12148
G1 X113.999 Y108.743 E10.12526
G1 X113.999 Y108.629 E10.12904
G1 X113.999 Y108.514 E10.13282
G1 X113.999 Y108.400 E10.13660
G1 X113.999 Y108.286 E10.14038
G1 X113.999 Y108.171 E10.14416
G1 X113.999 Y108.057 E10.14794
G1 X113.999 Y107.943 E10.15172
G1 X113.999 Y107.829 E10.15550
G1 X113.999 Y107.714 E10.15928
G1 X113.999 Y107.600 E10.16306
G1 X113.999 Y107.486 E10.16684
G1 X113.999 Y107.371 E10.17062
G1 X113.999 Y107.257 E10.17440
G1 X113.999 Y107.143 E10.17818
G1 X113.999 Y107.029 E10.18196
G1 X113.999 Y106.914 E10.18574
G1 X113.999 Y106.800 E10.18952
G1 X113.999 Y106.686 E10.19330
G1 X113.999 Y106.571 E10.19708
G1 X113.999 Y106.457 E10.20085
G1 X113.999 Y106.343 E10.20463
G1 X113.999 Y106.229 E10.20841
G1 X113.999 Y106.114 E10.21219
G1 X113.999 Y106.000 E10.21597
G1 X113.999 Y105.886 E10.21975
G1 X113.999 Y105.771 E10.22353
G1 X113.999 Y105.657 E10.22730
G1 X113.999 Y105.543 E10.23108
G1 X113.999 Y105.429 E10.23486
G1 X113.999 Y105.314 E10.23864
G1 X113.999 Y105.200 E10.24242
G1 X113.999 Y105.086 E10.24620
G1 X113.999 Y104.971 E10.24998
G1 X113.999 Y104.857 E10.25375
G1 X113.999 Y104.743 E10.25753
G1 X113.999 Y104.629 E10.26131
G1 X113.999 Y104.514 E10.26509
G1 X113.999 Y104.400 E10.26886
G1 X113.999 Y104.286 E10.27264
G1 X113.999 Y104.171 E10.27642
G1 X113.999 Y104.057 E10.28020
G1 X113.999 Y103.943 E10.28397
G1 X113.999 Y103.829 E10.28775
G1 X113.999 Y103.714 E10.29153
G1 X113.999 Y103.600 E10.29531
G1 X113.999 Y103.486 E10.29908
G1 X113.999 Y103.371 E10.30286
G1 X113.999 Y103.257 E10.30664
G1 X113.999 Y103.143 E10.31042
G1 X113.999 Y103.029 E10.31419
G1 X113.999 Y102.914 E10.31797
G1 X113.999 Y102.800 E10.32175
G1 X113.999 Y102.686 E10.32552
G1 X113.999 Y102.571 E10.32930
G1 X113.999 Y102.457 E10.33308
G1 X113.999 Y102.343 E10.33685
G1 X113.999 Y102.229 E10.34063
G1 X113.999 Y102.114 E10.34441
G1 X113.999 Y102.000 E10.34818
G1 X113.999 Y101.886 E10.35196
G1 X113.999 Y101.771 E10.35574
G1 X113.999 Y101.657 E10.35951
G1 X113.999 Y101.543 E10.36329
G1 X113.999 Y101.429 E10.36706
G1 X113.999 Y101.314 E10.37084
G1 X113.999 Y101.200 E10.37461
G1 X113.999 Y101.086 E10.37839
G1 X113.999 Y100.971 E10.38217
G1 X113.999 Y100.857 E10.38594
G1 X113.999 Y100.743 E10.38972
G1 X113.999 Y100.629 E10.39349
G1 X113.999 Y100.514 E10.39727
G1 X113.999 Y100.400 E10.40104
G1 X113.999 Y100.286 E10.40482
G1 X113.999 Y100.171 E10.40859
G1 X113.999 Y100.057 E10.41237
G1 X113.999 Y99.943 E10.41614
G1 X113.999 Y99.829 E10.41992
G1 X113.999 Y99.714 E10.42369
G1 X113.999 Y99.600 E10.42747
G1 X113.999 Y99.486 E10.43124
G1 X113.999 Y99.371 E10.43502
G1 X113.999 Y99.257 E10.43879
G1 X113.999 Y99.143 E10.44257
G1 X113.999 Y99.029 E10.44634
G1 X113.999 Y98.914 E10.45012
G1 X113.999 Y98.800 E10.45389
G1 X113.999 Y98.686 E10.45766
G1 X113.999 Y98.571 E10.46144
G1 X113.999 Y98.457 E10.46521
G1 X113.999 Y98.343 E10.46899
G1 X113.999 Y98.229 E10.47276
G1 X113.999 Y98.114 E10.47653
G1 X113.999 Y98.000 E10.48031
G1 X113.999 Y97.886 E10.48408
G1 X113.999 Y97.771 E10.48786
G1 X113.999 Y97.657 E10.49163
G1 X113.999 Y97.543 E10.49540
G1 X113.999 Y97.429 E10.49918
G1 X113.999 Y97.314 E10.50295
G1 X113.999 Y97.200 E10.50672
G1 X113.999 Y97.086 E10.51050
G1 X113.999 Y96.971 E10.51427
G1 X113.999 Y96.857 E10.51804
G1 X113.999 Y96.743 E10.52182
G1 X113.999 Y96.629 E10.52559
G1 X113.999 Y96.514 E10.52936
G1 X113.999 Y96.400 E10.53314
G1 X113.999 Y96.286 E10.53691
G1 X113.999 Y96.171 E10.54068
G1 X113.999 Y96.057 E10.54445
G1 X113.999 Y95.943 E10.54823
G1 X113.999 Y95.829 E10.55200
G1 X113.999 Y95.714 E10.55577
G1 X113.999 Y95.600 E10.55954
G1 X113.999 Y95.486 E10.56332
G1 X113.999 Y95.371 E10.56709
G1 X113.999 Y95.257 E10.57086
G1 X113.999 Y95.143 E10.57463
G1 X113.999 Y95.029 E10.57840
G1 X113.999 Y94.914 E10.58218
G1 X113.999 Y94.800 E10.58595
G1 X113.999 Y94.686 E10.58972
G1 X113.999 Y94.571 E10.59349
G1 X113.999 Y94.457 E10.59726
G1 X113.999 Y94.343 E10.60103
G1 X113.999 Y94.229 E10.60481
G1 X113.999 Y94.114 E10.60858
G1 X113.999 Y94.000 E10.61235
G1 X113.999 Y93.886 E10.61612
G1 X113.999 Y93.771 E10.61989
G1 X113.999 Y93.657 E10.62366
G1 X113.999 Y93.543 E10.62743
G1 X113.999 Y93.429 E10.63121
G1 X113.999 Y93.314 E10.63498
G1 X113.999 Y93.200 E10.63875
G1 X113.999 Y93.086 E10.64252
G1 X113.999 Y92.971 E10.64629
G1 X113.999 Y92.857 E10.65006
G1 X113.999 Y92.743 E10.65383
G1 X113.999 Y92.629 E10.65760
G1 X113.999 Y92.514 E10.66137
G1 X113.999 Y92.400 E10.66514
G1 X113.999 Y92.286 E10.66891
G1 X113.999 Y92.171 E10.67268
G1 X113.999 Y92.057 E10.67645
G1 X113.999 Y91.943 E10.68022
G1 X113.999 Y91.829 E10.68399
G1 X113.999 Y91.714 E10.68776
G1 X113.999 Y91.600 E10.69153
G1 X113.999 Y91.486 E10.69530
G1 X113.999 Y91.371 E10.69907
G1 X113.999 Y91.257 E10.70284
G1 X113.999 Y91.143 E10.70661
G1 X113.999 Y91.029 E10.71038
G1 X113.999 Y90.914 E10.71415
G1 X113.999 Y90.800 E10.71792
G1 X113.999 Y90.686 E10.72169
G1 X113.999 Y90.571 E10.72546
G1 X113.999 Y90.457 E10.72923
G1 X113.999 Y90.343 E10.73300
G1 X113.999 Y90.229 E10.73676
G1 X113.999 Y90.114 E10.74053
G1 X113.999 Y90.000 E10.74430
G1 X113.999 Y89.886 E10.74807
G1 X113.999 Y89.771 E10.75184
G1 X113.999 Y89.657 E10.75561
G1 X113.999 Y89.543 E10.75938
G1 X113.999 Y89.429 E10.76315
G1 X113.999 Y89.314 E10.76691
G1 X113.999 Y89.200 E10.77068
G1 X113.999 Y89.086 E10.77445
G1 X113.999 Y88.971 E10.77822
G1 X113.999 Y88.857 E10.78199
G1 X113.999 Y88.743 E10.78576
G1 X113.999 Y88.629 E10.78952
G1 X113.999 Y88.514 E10.79329
G1 X113.999 Y88.400 E10.79706
G1 X113.999 Y88.286 E10.80083
G1 X113.999 Y88.171 E10.80460
G1 X113.999 Y88.057 E10.80836
G1 X113.999 Y87.943 E10.81213
G1 X113.999 Y87.829 E10.81590
G1 X113.999 Y87.714 E10.81967
G1 X113.999 Y87.600 E10.82343
G1 X113.999 Y87.486 E10.82720
G1 X113.999 Y87.371 E10.83097
G1 X113.999 Y87.257 E10.83474
G1 X113.999 Y87.143 E10.83850
G1 X113.999 Y87.029 E10.84227
G1 X113.999 Y86.914 E10.84604
G1 X113.999 Y86.800 E10.84980
G1 X113.999 Y86.686 E10.85357
G1 X113.999 Y86.571 E10.85734
G1 X113.999 Y86.457 E10.86110
G1 X113.999 Y86.343 E10.86487
G1 X113.999 Y86.229 E10.86864
G1 X113.999 Y86.114 E10.87240
G1 X113.999 Y86.000 E10.87617
G1 X113.999 Y85.886 E10.87994
G1 X113.999 Y85.771 E10.88370
G1 X113.999 Y85.657 E10.88747
G1 X113.999 Y85.543 E10.89124
G1 X113.999 Y85.429 E10.89500
G1 X113.999 Y85.314 E10.89877
G1 X113.999 Y85.200 E10.90253
G1 X113.999 Y85.086 E10.90630
G1 X113.999 Y84.971 E10.91007
G1 X113.999 Y84.857 E10.91383
G1 X113.999 Y84.743 E10.91760
G1 X113.999 Y84.629 E10.92136
G1 X113.999 Y84.514 E10.92513
G1 X113.999 Y84.400 E10.92889
G1 X113.999 Y84.286 E10.93266
G1 X113.999 Y84.171 E10.93642
G1 X114.286 Y83.960 E10.94591
G1 X145.714 Y83.960 E11.78240
G1 X145.990 Y84.171 E11.79449
G1 X145.992 Y84.286 E11.79844
G1 X145.993 Y84.400 E11.80236
G1 X145.995 Y84.514 E11.80626
G1 X145.996 Y84.629 E11.81013
G1 X145.997 Y84.743 E11.81397
G1 X145.999 Y84.857 E11.81778
G1 X146.000 Y84.971 E11.82157
G1 X146.000 Y85.086 E11.82536
G1 X146.000 Y115.714 E12.83952
G0 X146.400 Y115.952 F7200
G0 X145.601 Y115.476
G0 X145.141 Y115.202
;segType:Perimeter
G1 X114.799 Y115.202 E13.84873 F2159
G1 X114.797 Y84.720 E14.86256
G1 X145.195 Y84.720 E15.87360
G1 X145.201 Y84.998 E15.88282
G1 X145.201 Y115.142 E16.88544
G0 X145.601 Y114.975 F7200
G0 X145.601 Y115.602
G0 X144.101 Y115.602
;segType:Loop
G1 X114.399 Y115.602 E17.87335 F3600
G1 X114.397 Y84.320 E18.91379
G1 X145.585 Y84.320 E19.95111
G1 X145.601 Y84.993 E19.97348
G1 X145.601 Y115.602 E20.99156
G1 X144.301 Y115.602 E21.03479
G0 F3000 E20.03479
G0 X113.600 Y116.045 F7200
G0 X113.961 Y116.039
G0 F3000 E21.03479
;segType:Infill
G1 X114.066 Y115.934 E21.04074 F4500
G0 X113.961 Y116.039 F7200
;segType:HShell
G0 X113.961 Y116.039 F7200
G0 F3000 E20.04074
G0 X113.891 Y116.400 F7200
G0 X114.399 Y113.784
G0 X114.397 Y84.320
G0 X117.596 Y87.598
G0 X119.414 Y87.959
G0 F3000 E21.04074
;segType:Infill
G1 X117.956 Y89.417 E21.12305 F4500
G0 X118.296 Y87.598 F7200
;segType:Loop
G1 X142.401 Y87.598 E21.92479 F3600
G1 X142.401 Y112.404 E22.74981
